;Generated with Cura_SteamEngine 15.05
; Default start code
G28 ; Home extruder
G1 Z15 F100
M107 ; Turn off fan
G90 ; Absolute positioning
M82 ; Extruder in absolute mode
M190 S60
; Activate all used extruder
M104 T0 S195
G92 E0 ; Reset extruder position
; Wait for all used extruders to reach temperature
M109 T0 S195
; Set max acceleration values
;M201 X1000 Y1000 Z1000 E5000
; Advanced variables: S=Min feedrate (mm/s), T=Min travel feedrate (mm/s), B=minimum segment time (ms), X=maximum XY jerk (mm/s), Z=maximum Z jerk (mm/s), E=maximum E jerk (mm/s)
;M205 S0.00 T0.00 B20000 X15.00 Z0.40 E5.00
;Layer count: 57
;LAYER:0
M107
G0 F5040 X94.801 Y130.301 Z0.300
;TYPE:SKIRT
G1 F480 X146.199 Y130.301 E2.50669
G1 X146.199 Y133.301 E2.65300
G1 X153.801 Y133.301 E3.02375
G1 X153.801 Y130.301 E3.17006
G1 X205.199 Y130.301 E5.67675
G1 X205.199 Y166.699 E7.45189
G1 X174.199 Y166.699 E8.96376
G1 X174.199 Y169.699 E9.11007
G1 X125.801 Y169.699 E11.47045
G1 X125.801 Y166.699 E11.61676
G1 X94.801 Y166.699 E13.12864
G1 X94.801 Y130.301 E14.90377
G1 F2400 E10.90377
G0 F5040 X110.997 Y149.497
;TYPE:WALL-INNER
G1 F2400 E14.90377
G1 F480 X189.003 Y149.497 E18.70814
G1 X189.003 Y150.503 E18.75720
G1 X155.003 Y150.503 E20.41539
G1 X155.003 Y153.503 E20.56170
G1 X144.997 Y153.503 E21.04969
G1 X144.997 Y150.503 E21.19600
G1 X110.997 Y150.503 E22.85419
G1 X110.997 Y149.497 E22.90325
G0 F5040 X110.598 Y149.098
G1 F480 X189.402 Y149.098 E26.74654
G1 X189.402 Y150.902 E26.83452
G1 X155.402 Y150.902 E28.49270
G1 X155.402 Y153.398 E28.61443
G1 X158.402 Y153.398 E28.76074
G1 X158.402 Y153.902 E28.78532
G1 X141.598 Y153.902 E29.60486
G1 X141.598 Y153.398 E29.62944
G1 X144.598 Y153.398 E29.77575
G1 X144.598 Y150.902 E29.89748
G1 X110.598 Y150.902 E31.55566
G1 X110.598 Y149.098 E31.64365
G1 F2400 E27.64365
G0 F5040 X110.598 Y146.202
G1 F2400 E31.64365
G1 F480 X110.598 Y146.098 E31.64872
G1 X113.751 Y146.098 E31.80249
G1 X113.751 Y146.202 E31.80756
G1 X110.598 Y146.202 E31.96133
G1 F2400 E27.96133
G0 F5040 X126.947 Y146.202
G1 F2400 E31.96133
G1 F480 X126.947 Y146.098 E31.96641
G1 X130.402 Y146.098 E32.13491
G1 X130.402 Y146.202 E32.13998
G1 X126.947 Y146.202 E32.30848
G1 F2400 E28.30848
G0 F5040 X169.598 Y146.202
G1 F2400 E32.30848
G1 F480 X169.598 Y146.098 E32.31355
G1 X172.752 Y146.098 E32.46737
G1 X172.752 Y146.202 E32.47245
G1 X169.598 Y146.202 E32.62627
G1 F2400 E28.62627
G0 F5040 X185.948 Y146.202
G1 F2400 E32.62627
G1 F480 X185.948 Y146.098 E32.63134
G1 X189.402 Y146.098 E32.79979
G1 X189.402 Y146.202 E32.80486
G1 X185.948 Y146.202 E32.97332
G0 F5040 X185.549 Y146.601
;TYPE:WALL-OUTER
G1 F480 X185.549 Y145.699 E33.01731
G1 X189.801 Y145.699 E33.22468
G1 X189.801 Y151.301 E33.49789
G1 X155.801 Y151.301 E35.15607
G1 X155.801 Y152.999 E35.23888
G1 X158.801 Y152.999 E35.38520
G1 X158.801 Y154.301 E35.44869
G1 X141.199 Y154.301 E36.30715
G1 X141.199 Y152.999 E36.37065
G1 X144.199 Y152.999 E36.51696
G1 X144.199 Y151.301 E36.59977
G1 X110.199 Y151.301 E38.25795
G1 X110.199 Y145.699 E38.53116
G1 X114.150 Y145.699 E38.72385
G1 X114.150 Y146.601 E38.76785
G1 X110.951 Y146.601 E38.92386
G1 X110.951 Y148.699 E39.02618
G1 X130.049 Y148.699 E39.95759
G1 X130.049 Y146.601 E40.05991
G1 X126.548 Y146.601 E40.23066
G1 X126.548 Y145.699 E40.27465
G1 X130.801 Y145.699 E40.48207
G1 X130.801 Y148.699 E40.62838
G1 X169.199 Y148.699 E42.50106
G1 X169.199 Y145.699 E42.64737
G1 X173.151 Y145.699 E42.84011
G1 X173.151 Y146.601 E42.88410
G1 X169.950 Y146.601 E43.04021
G1 X169.950 Y148.699 E43.14253
G1 X189.049 Y148.699 E44.07399
G1 X189.049 Y146.601 E44.17631
G1 X185.549 Y146.601 E44.34701
G1 F2400 E40.34701
G0 F5040 X185.467 Y149.637
;TYPE:SKIN
G1 F2400 E44.34701
G1 F480 X186.193 Y150.363 E44.39708
G0 F5040 X185.629 Y150.363
G1 F480 X184.903 Y149.637 E44.44715
G0 F5040 X184.339 Y149.637
G1 F480 X185.065 Y150.363 E44.49723
G0 F5040 X184.501 Y150.363
G1 F480 X183.774 Y149.637 E44.54733
G0 F5040 X183.210 Y149.637
G1 F480 X183.936 Y150.363 E44.59741
G0 F5040 X183.372 Y150.363
G1 F480 X182.646 Y149.637 E44.64748
G0 F5040 X182.082 Y149.637
G1 F480 X182.808 Y150.363 E44.69755
G0 F5040 X182.244 Y150.363
G1 F480 X181.517 Y149.637 E44.74766
G0 F5040 X180.953 Y149.637
G1 F480 X181.679 Y150.363 E44.79773
G0 F5040 X181.115 Y150.363
G1 F480 X180.389 Y149.637 E44.84781
G0 F5040 X179.825 Y149.637
G1 F480 X180.551 Y150.363 E44.89788
G1 F2400 E40.89788
G0 F5040 X186.032 Y149.637
G1 F2400 E44.89788
G1 F480 X186.758 Y150.363 E44.94795
G0 F5040 X187.322 Y150.363
G1 F480 X186.596 Y149.637 E44.99803
G0 F5040 X187.160 Y149.637
G1 F480 X187.886 Y150.363 E45.04810
G0 F5040 X188.451 Y150.363
G1 F480 X187.724 Y149.637 E45.09821
G0 F5040 X188.289 Y149.637
G1 F480 X188.862 Y150.210 E45.13773
G1 F2400 E41.13773
G0 F5040 X189.601 Y148.692
G1 F2400 E45.13773
G1 F480 X189.424 Y148.233 E45.16214
G1 X189.424 Y147.668 E45.18652
G1 X189.424 Y147.104 E45.21086
G1 X189.247 Y146.645 E45.23485
G1 F2400 E41.23485
G0 F5040 X179.986 Y150.363
G1 F2400 E45.23485
G1 F480 X179.260 Y149.637 E45.28492
G0 F5040 X178.696 Y149.637
G1 F480 X179.422 Y150.363 E45.33499
G0 F5040 X178.858 Y150.363
G1 F480 X178.132 Y149.637 E45.38507
G0 F5040 X177.567 Y149.637
G1 F480 X178.294 Y150.363 E45.43518
G0 F5040 X177.729 Y150.363
G1 F480 X177.003 Y149.637 E45.48525
G0 F5040 X176.439 Y149.637
G1 F480 X177.165 Y150.363 E45.53532
G0 F5040 X176.601 Y150.363
G1 F480 X175.875 Y149.637 E45.58540
G0 F5040 X175.310 Y149.637
G1 F480 X176.037 Y150.363 E45.63550
G0 F5040 X175.472 Y150.363
G1 F480 X174.746 Y149.637 E45.68558
G0 F5040 X174.182 Y149.637
G1 F480 X174.908 Y150.363 E45.73565
G0 F5040 X174.344 Y150.363
G1 F480 X173.618 Y149.637 E45.78572
G0 F5040 X173.053 Y149.637
G1 F480 X173.779 Y150.363 E45.83580
G0 F5040 X173.215 Y150.363
G1 F480 X172.489 Y149.637 E45.88587
G0 F5040 X171.925 Y149.637
G1 F480 X172.651 Y150.363 E45.93594
G0 F5040 X172.087 Y150.363
G1 F480 X171.360 Y149.637 E45.98605
G0 F5040 X170.796 Y149.637
G1 F480 X171.522 Y150.363 E46.03612
G0 F5040 X170.958 Y150.363
G1 F480 X170.232 Y149.637 E46.08620
G0 F5040 X169.668 Y149.637
G1 F480 X170.394 Y150.363 E46.13627
G0 F5040 X169.830 Y150.363
G1 F480 X169.103 Y149.637 E46.18638
G0 F5040 X168.539 Y149.637
G1 F480 X169.265 Y150.363 E46.23645
G0 F5040 X168.701 Y150.363
G1 F480 X167.975 Y149.637 E46.28652
G0 F5040 X167.411 Y149.637
G1 F480 X168.137 Y150.363 E46.33660
G0 F5040 X167.572 Y150.363
G1 F480 X166.846 Y149.637 E46.38667
G0 F5040 X166.282 Y149.637
G1 F480 X167.008 Y150.363 E46.43674
G0 F5040 X166.444 Y150.363
G1 F480 X165.718 Y149.637 E46.48682
G0 F5040 X165.153 Y149.637
G1 F480 X165.880 Y150.363 E46.53693
G0 F5040 X165.315 Y150.363
G1 F480 X164.589 Y149.637 E46.58700
G0 F5040 X164.025 Y149.637
G1 F480 X164.751 Y150.363 E46.63707
G0 F5040 X164.187 Y150.363
G1 F480 X163.461 Y149.637 E46.68714
G0 F5040 X162.896 Y149.637
G1 F480 X163.623 Y150.363 E46.73725
G0 F5040 X163.058 Y150.363
G1 F480 X162.332 Y149.637 E46.78733
G0 F5040 X161.768 Y149.637
G1 F480 X162.494 Y150.363 E46.83740
G0 F5040 X161.930 Y150.363
G1 F480 X161.204 Y149.637 E46.88747
G0 F5040 X160.639 Y149.637
G1 F480 X161.366 Y150.363 E46.93758
G0 F5040 X160.801 Y150.363
G1 F480 X160.075 Y149.637 E46.98765
G0 F5040 X159.511 Y149.637
G1 F480 X160.237 Y150.363 E47.03773
G1 F2400 E43.03773
G0 F5040 X169.397 Y148.802
G1 F2400 E47.03773
G1 F480 X169.631 Y148.754 E47.04573
G1 X169.573 Y148.132 E47.07008
G1 X169.573 Y147.567 E47.09439
G1 X169.573 Y147.003 E47.11873
G1 X169.397 Y146.545 E47.14266
G1 F2400 E43.14266
G0 F5040 X159.673 Y150.363
G1 F2400 E47.14266
G1 F480 X158.946 Y149.637 E47.19277
G0 F5040 X158.382 Y149.637
G1 F480 X159.108 Y150.363 E47.24284
G0 F5040 X158.544 Y150.363
G1 F480 X157.818 Y149.637 E47.29291
G0 F5040 X157.254 Y149.637
G1 F480 X157.980 Y150.363 E47.34299
G0 F5040 X157.416 Y150.363
G1 F480 X156.689 Y149.637 E47.39309
G0 F5040 X156.125 Y149.637
G1 F480 X156.851 Y150.363 E47.44317
G0 F5040 X156.287 Y150.363
G1 F480 X155.561 Y149.637 E47.49324
G0 F5040 X154.997 Y149.637
G1 F480 X155.723 Y150.363 E47.54331
G0 F5040 X155.159 Y150.363
G1 F480 X154.432 Y149.637 E47.59342
G0 F5040 X153.868 Y149.637
G1 F480 X154.862 Y150.630 E47.66194
G0 F5040 X154.862 Y151.194
G1 F480 X153.304 Y149.637 E47.76937
G0 F5040 X152.740 Y149.637
G1 F480 X154.862 Y151.759 E47.91573
G0 F5040 X154.862 Y152.323
G1 F480 X152.175 Y149.637 E48.10102
G0 F5040 X151.611 Y149.637
G1 F480 X154.862 Y152.887 E48.32521
G0 F5040 X154.772 Y153.362
G1 F480 X151.047 Y149.637 E48.58213
G0 F5040 X150.482 Y149.637
G1 F480 X154.207 Y153.362 E48.83905
G0 F5040 X153.643 Y153.362
G1 F480 X149.918 Y149.637 E49.09596
G0 F5040 X149.354 Y149.637
G1 F480 X153.079 Y153.362 E49.35288
G0 F5040 X152.515 Y153.362
G1 F480 X148.790 Y149.637 E49.60980
G0 F5040 X148.225 Y149.637
G1 F480 X151.950 Y153.362 E49.86672
G0 F5040 X151.386 Y153.362
G1 F480 X147.661 Y149.637 E50.12364
G0 F5040 X147.097 Y149.637
G1 F480 X150.822 Y153.362 E50.38056
G0 F5040 X150.258 Y153.362
G1 F480 X146.533 Y149.637 E50.63748
G0 F5040 X145.968 Y149.637
G1 F480 X149.693 Y153.362 E50.89439
G0 F5040 X149.129 Y153.362
G1 F480 X145.404 Y149.637 E51.15131
G0 F5040 X144.840 Y149.637
G1 F480 X148.565 Y153.362 E51.40823
G0 F5040 X148.000 Y153.362
G1 F480 X145.137 Y150.498 E51.60573
G0 F5040 X145.000 Y150.362
G1 F480 X144.275 Y149.637 E51.65574
G0 F5040 X143.711 Y149.637
G1 F480 X144.436 Y150.362 E51.70574
G0 F5040 X143.872 Y150.362
G1 F480 X143.147 Y149.637 E51.75574
G0 F5040 X142.583 Y149.637
G1 F480 X143.307 Y150.362 E51.80571
G0 F5040 X142.743 Y150.362
G1 F480 X142.018 Y149.637 E51.85572
G0 F5040 X141.454 Y149.637
G1 F480 X142.179 Y150.362 E51.90572
G0 F5040 X141.615 Y150.362
G1 F480 X140.890 Y149.637 E51.95573
G0 F5040 X140.326 Y149.637
G1 F480 X141.050 Y150.362 E52.00570
G0 F5040 X140.486 Y150.362
G1 F480 X139.761 Y149.637 E52.05570
G0 F5040 X139.197 Y149.637
G1 F480 X139.922 Y150.362 E52.10571
G0 F5040 X139.358 Y150.362
G1 F480 X138.633 Y149.637 E52.15571
G0 F5040 X138.068 Y149.637
G1 F480 X138.793 Y150.362 E52.20571
G0 F5040 X138.229 Y150.362
G1 F480 X137.504 Y149.637 E52.25572
G0 F5040 X136.940 Y149.637
G1 F480 X137.665 Y150.362 E52.30572
G0 F5040 X137.100 Y150.362
G1 F480 X136.376 Y149.637 E52.35569
G0 F5040 X135.811 Y149.637
G1 F480 X136.536 Y150.362 E52.40570
G0 F5040 X135.972 Y150.362
G1 F480 X135.247 Y149.637 E52.45570
G0 F5040 X134.683 Y149.637
G1 F480 X135.408 Y150.362 E52.50570
G0 F5040 X134.843 Y150.362
G1 F480 X134.119 Y149.637 E52.55567
G0 F5040 X133.554 Y149.637
G1 F480 X134.279 Y150.362 E52.60568
G0 F5040 X133.715 Y150.362
G1 F480 X132.990 Y149.637 E52.65568
G0 F5040 X132.426 Y149.637
G1 F480 X133.151 Y150.362 E52.70569
G0 F5040 X132.586 Y150.362
G1 F480 X131.861 Y149.637 E52.75569
G0 F5040 X131.297 Y149.637
G1 F480 X132.022 Y150.362 E52.80570
G0 F5040 X131.458 Y150.362
G1 F480 X130.733 Y149.637 E52.85570
G0 F5040 X130.169 Y149.637
G1 F480 X130.893 Y150.362 E52.90567
G0 F5040 X130.329 Y150.362
G1 F480 X129.604 Y149.637 E52.95567
G0 F5040 X129.040 Y149.637
G1 F480 X129.765 Y150.362 E53.00568
G0 F5040 X129.201 Y150.362
G1 F480 X128.476 Y149.637 E53.05568
G0 F5040 X127.912 Y149.637
G1 F480 X128.636 Y150.362 E53.10565
G0 F5040 X128.072 Y150.362
G1 F480 X127.347 Y149.637 E53.15566
G0 F5040 X126.783 Y149.637
G1 F480 X127.508 Y150.362 E53.20566
G0 F5040 X126.944 Y150.362
G1 F480 X126.219 Y149.637 E53.25567
G0 F5040 X125.654 Y149.637
G1 F480 X126.379 Y150.362 E53.30567
G0 F5040 X125.815 Y150.362
G1 F480 X125.090 Y149.637 E53.35567
G0 F5040 X124.526 Y149.637
G1 F480 X125.251 Y150.362 E53.40568
G0 F5040 X124.686 Y150.362
G1 F480 X123.962 Y149.637 E53.45565
G0 F5040 X123.397 Y149.637
G1 F480 X124.122 Y150.362 E53.50565
G0 F5040 X123.558 Y150.362
G1 F480 X122.833 Y149.637 E53.55566
G0 F5040 X122.269 Y149.637
G1 F480 X122.994 Y150.362 E53.60566
G0 F5040 X122.429 Y150.362
G1 F480 X121.705 Y149.637 E53.65563
G0 F5040 X121.140 Y149.637
G1 F480 X121.865 Y150.362 E53.70564
G0 F5040 X121.301 Y150.362
G1 F480 X120.576 Y149.637 E53.75564
G0 F5040 X120.012 Y149.637
G1 F480 X120.737 Y150.362 E53.80564
G0 F5040 X120.172 Y150.362
G1 F480 X119.448 Y149.637 E53.85561
G0 F5040 X118.883 Y149.637
G1 F480 X119.608 Y150.362 E53.90562
G0 F5040 X119.044 Y150.362
G1 F480 X118.319 Y149.637 E53.95562
G0 F5040 X117.755 Y149.637
G1 F480 X118.479 Y150.362 E54.00559
G0 F5040 X117.915 Y150.362
G1 F480 X117.190 Y149.637 E54.05560
G0 F5040 X116.626 Y149.637
G1 F480 X117.351 Y150.362 E54.10560
G0 F5040 X116.787 Y150.362
G1 F480 X116.062 Y149.637 E54.15561
G0 F5040 X115.498 Y149.637
G1 F480 X116.222 Y150.362 E54.20557
G0 F5040 X115.658 Y150.362
G1 F480 X114.933 Y149.637 E54.25558
G0 F5040 X114.369 Y149.637
G1 F480 X115.094 Y150.362 E54.30558
G0 F5040 X114.530 Y150.362
G1 F480 X113.805 Y149.637 E54.35559
G0 F5040 X113.241 Y149.637
G1 F480 X113.965 Y150.362 E54.40556
G0 F5040 X113.401 Y150.362
G1 F480 X112.676 Y149.637 E54.45556
G0 F5040 X112.112 Y149.637
G1 F480 X112.837 Y150.362 E54.50557
G0 F5040 X112.273 Y150.362
G1 F480 X111.548 Y149.637 E54.55557
G0 F5040 X111.137 Y149.790
G1 F480 X111.708 Y150.362 E54.59499
G1 F2400 E50.59499
G0 F5040 X110.752 Y148.841
G1 F2400 E54.59499
G1 F480 X110.574 Y148.381 E54.61947
G1 X110.574 Y147.817 E54.64387
G1 X110.574 Y147.253 E54.66827
G1 X110.574 Y146.688 E54.69272
G1 X110.549 Y146.381 E54.70774
G1 F2400 E50.70774
G0 F5040 X130.247 Y146.894
G1 F2400 E54.70774
G1 F480 X130.424 Y147.353 E54.73216
G1 X130.424 Y147.917 E54.75649
G1 X130.424 Y148.482 E54.78087
G1 X130.577 Y148.917 E54.80336
G1 F2400 E50.80336
G0 F5040 X130.601 Y146.684
G1 F2400 E54.80336
G1 F480 X130.299 Y146.381 E54.82422
G1 F2400 E50.82422
G0 F5040 X145.137 Y151.062
G1 F2400 E54.82422
G1 F480 X147.436 Y153.362 E54.98282
G0 F5040 X146.872 Y153.362
G1 F480 X145.137 Y151.627 E55.10249
G0 F5040 X145.137 Y152.191
G1 F480 X146.308 Y153.362 E55.18325
G0 F5040 X145.743 Y153.362
G1 F480 X145.137 Y152.755 E55.22508
;LAYER:1
M106 S127
G1 F2400 E51.22508
G0 F5040 X144.997 Y150.503 Z0.600
;TYPE:WALL-INNER
G1 F2400 E55.22508
G1 F600 X110.997 Y150.503 E56.88327
G1 X110.997 Y149.497 E56.93233
G1 X189.003 Y149.497 E60.73670
G1 X189.003 Y150.503 E60.78576
G1 X155.003 Y150.503 E62.44395
G1 X155.003 Y153.503 E62.59026
G1 X144.997 Y153.503 E63.07825
G1 X144.997 Y150.503 E63.22456
G0 F5040 X144.598 Y150.902
G1 F600 X110.598 Y150.902 E64.88275
G1 X110.598 Y149.098 E64.97073
G1 X189.402 Y149.098 E68.81401
G1 X189.402 Y150.902 E68.90200
G1 X155.402 Y150.902 E70.56018
G1 X155.402 Y153.398 E70.68191
G1 X158.402 Y153.398 E70.82822
G1 X158.402 Y153.902 E70.85280
G1 X141.598 Y153.902 E71.67234
G1 X141.598 Y153.398 E71.69692
G1 X144.598 Y153.398 E71.84323
G1 X144.598 Y150.902 E71.96496
G1 F2400 E67.96496
G0 F5040 X130.402 Y146.202
G1 F2400 E71.96496
G1 F600 X126.947 Y146.202 E72.13346
G1 X126.947 Y146.098 E72.13853
G1 X130.402 Y146.098 E72.30703
G1 X130.402 Y146.202 E72.31210
G1 F2400 E68.31210
G0 F5040 X113.751 Y146.202
G1 F2400 E72.31210
G1 F600 X110.598 Y146.202 E72.46588
G1 X110.598 Y146.098 E72.47095
G1 X113.751 Y146.098 E72.62472
G1 X113.751 Y146.202 E72.62979
G1 F2400 E68.62979
G0 F5040 X169.598 Y146.202
G1 F2400 E72.62979
G1 F600 X169.598 Y146.098 E72.63486
G1 X172.752 Y146.098 E72.78868
G1 X172.752 Y146.202 E72.79376
G1 X169.598 Y146.202 E72.94758
G1 F2400 E68.94758
G0 F5040 X185.948 Y146.202
G1 F2400 E72.94758
G1 F600 X185.948 Y146.098 E72.95265
G1 X189.402 Y146.098 E73.12110
G1 X189.402 Y146.202 E73.12617
G1 X185.948 Y146.202 E73.29463
G0 F5040 X185.549 Y146.601
;TYPE:WALL-OUTER
G1 F600 X185.549 Y145.699 E73.33862
G1 X189.801 Y145.699 E73.54599
G1 X189.801 Y151.301 E73.81920
G1 X155.801 Y151.301 E75.47738
G1 X155.801 Y152.999 E75.56020
G1 X158.801 Y152.999 E75.70651
G1 X158.801 Y154.301 E75.77001
G1 X141.199 Y154.301 E76.62846
G1 X141.199 Y152.999 E76.69196
G1 X144.199 Y152.999 E76.83827
G1 X144.199 Y151.301 E76.92108
G1 X110.199 Y151.301 E78.57926
G1 X110.199 Y145.699 E78.85247
G1 X114.150 Y145.699 E79.04517
G1 X114.150 Y146.601 E79.08916
G1 X110.951 Y146.601 E79.24517
G1 X110.951 Y148.699 E79.34749
G1 X130.049 Y148.699 E80.27890
G1 X130.049 Y146.601 E80.38122
G1 X126.548 Y146.601 E80.55197
G1 X126.548 Y145.699 E80.59596
