;Generated with Cura_SteamEngine 15.05
; Default start code
G28 ; Home extruder
G1 Z15 F100
M107 ; Turn off fan
G90 ; Absolute positioning
M82 ; Extruder in absolute mode
M190 S60
; Activate all used extruder
M104 T0 S195
G92 E0 ; Reset extruder position
; Wait for all used extruders to reach temperature
M109 T0 S195
; Set max acceleration values
;M201 X1000 Y1000 Z1000 E5000
; Advanced variables: S=Min feedrate (mm/s), T=Min travel feedrate (mm/s), B=minimum segment time (ms), X=maximum XY jerk (mm/s), Z=maximum Z jerk (mm/s), E=maximum E jerk (mm/s)
;M205 S0.00 T0.00 B20000 X15.00 Z0.40 E5.00
;Layer count: 57
;LAYER:0
M107
G0 F4800 X-4.576 Y13.114 Z0.300
;TYPE:SKIRT
G1 F300 X46.822 Y13.114 E2.50669
G1 X46.822 Y15.814 E2.63837
G1 X54.424 Y15.814 E3.00912
G1 X54.424 Y13.114 E3.14080
G1 X105.822 Y13.114 E5.64749
G1 X105.822 Y49.212 E7.40799
G1 X74.822 Y49.212 E8.91987
G1 X74.822 Y52.212 E9.06618
G1 X26.424 Y52.212 E11.42656
G1 X26.424 Y49.212 E11.57287
G1 X-4.576 Y49.212 E13.08474
G1 X-4.576 Y13.114 E14.84525
G1 F2400 E10.84525
G0 F4800 X11.620 Y32.010
;TYPE:WALL-INNER
G1 F2400 E14.84525
G1 F300 X89.626 Y32.010 E18.64961
G1 X89.626 Y33.016 E18.69868
G1 X55.626 Y33.016 E20.35686
G1 X55.626 Y36.016 E20.50317
G1 X45.620 Y36.016 E20.99117
G1 X45.620 Y33.016 E21.13748
G1 X11.620 Y33.016 E22.79566
G1 X11.620 Y32.010 E22.84473
G0 F4800 X11.275 Y31.611
G1 F300 X30.971 Y31.611 E23.80530
G1 X30.971 Y28.911 E23.93698
G1 X31.025 Y28.911 E23.93962
G1 X31.025 Y31.611 E24.07130
G1 X70.221 Y31.611 E25.98289
G1 X70.221 Y28.911 E26.11457
G1 X70.275 Y28.911 E26.11721
G1 X70.275 Y31.611 E26.24888
G1 X89.971 Y31.611 E27.20946
G1 X89.971 Y28.911 E27.34114
G1 X90.025 Y28.911 E27.34377
G1 X90.025 Y33.415 E27.56344
G1 X56.025 Y33.415 E29.22162
G1 X56.025 Y36.111 E29.35311
G1 X59.025 Y36.111 E29.49942
G1 X59.025 Y36.415 E29.51424
G1 X42.221 Y36.415 E30.33378
G1 X42.221 Y36.111 E30.34860
G1 X45.221 Y36.111 E30.49491
G1 X45.221 Y33.415 E30.62640
G1 X11.221 Y33.415 E32.28458
G1 X11.221 Y28.911 E32.50424
G1 X11.275 Y28.911 E32.50688
G1 X11.275 Y31.611 E32.63856
G0 F4800 X11.674 Y31.212
;TYPE:WALL-OUTER
G1 F300 X30.572 Y31.212 E33.56022
G1 X30.572 Y29.114 E33.66254
G1 X27.072 Y29.114 E33.83323
G1 X27.072 Y28.512 E33.86259
G1 X31.424 Y28.512 E34.07484
G1 X31.424 Y31.212 E34.20652
G1 X69.822 Y31.212 E36.07919
G1 X69.822 Y28.512 E36.21087
G1 X73.674 Y28.512 E36.39874
G1 X73.674 Y29.114 E36.42810
G1 X70.674 Y29.114 E36.57441
G1 X70.674 Y31.212 E36.67673
G1 X89.572 Y31.212 E37.59839
G1 X89.572 Y29.114 E37.70071
G1 X86.072 Y29.114 E37.87140
G1 X86.072 Y28.512 E37.90076
G1 X90.424 Y28.512 E38.11301
G1 X90.424 Y33.814 E38.37159
G1 X56.424 Y33.814 E40.02977
G1 X56.424 Y35.712 E40.12234
G1 X59.424 Y35.712 E40.26865
G1 X59.424 Y36.814 E40.32239
G1 X41.822 Y36.814 E41.18085
G1 X41.822 Y35.712 E41.23459
G1 X44.822 Y35.712 E41.38090
G1 X44.822 Y33.814 E41.47347
G1 X10.822 Y33.814 E43.13165
G1 X10.822 Y28.512 E43.39023
G1 X14.674 Y28.512 E43.57810
G1 X14.674 Y29.114 E43.60746
G1 X11.674 Y29.114 E43.75377
G1 X11.674 Y31.212 E43.85609
G0 F4800 X12.117 Y32.150
;TYPE:SKIN
G1 F300 X12.843 Y32.875 E43.90612
G0 F4800 X13.407 Y32.875
G1 F300 X12.681 Y32.150 E43.95616
G0 F4800 X13.246 Y32.150
G1 F300 X13.971 Y32.875 E44.00617
G0 F4800 X14.535 Y32.875
G1 F300 X13.810 Y32.150 E44.05617
G0 F4800 X14.374 Y32.150
G1 F300 X15.100 Y32.875 E44.10621
G0 F4800 X15.664 Y32.875
G1 F300 X14.939 Y32.150 E44.15621
G0 F4800 X15.503 Y32.150
G1 F300 X16.228 Y32.875 E44.20622
G0 F4800 X16.793 Y32.875
G1 F300 X16.067 Y32.150 E44.25626
G0 F4800 X16.631 Y32.150
G1 F300 X17.357 Y32.875 E44.30630
G0 F4800 X17.921 Y32.875
G1 F300 X17.196 Y32.150 E44.35630
G0 F4800 X17.760 Y32.150
G1 F300 X18.485 Y32.875 E44.40631
G0 F4800 X19.050 Y32.875
G1 F300 X18.324 Y32.150 E44.45634
G0 F4800 X18.888 Y32.150
G1 F300 X19.614 Y32.875 E44.50638
G0 F4800 X20.178 Y32.875
G1 F300 X19.453 Y32.150 E44.55639
G1 F2400 E40.55639
G0 F4800 X12.278 Y32.875
G1 F2400 E44.55639
G1 F300 X11.759 Y32.356 E44.59218
G1 F2400 E40.59218
G0 F4800 X20.017 Y32.150
G1 F2400 E44.59218
G1 F300 X20.742 Y32.875 E44.64219
G0 F4800 X21.307 Y32.875
G1 F300 X20.581 Y32.150 E44.69223
G0 F4800 X21.146 Y32.150
G1 F300 X21.871 Y32.875 E44.74223
G0 F4800 X22.435 Y32.875
G1 F300 X21.710 Y32.150 E44.79223
G0 F4800 X22.274 Y32.150
G1 F300 X23.000 Y32.875 E44.84227
G0 F4800 X23.564 Y32.875
G1 F300 X22.838 Y32.150 E44.89231
G0 F4800 X23.403 Y32.150
G1 F300 X24.128 Y32.875 E44.94232
G0 F4800 X24.692 Y32.875
G1 F300 X23.967 Y32.150 E44.99232
G0 F4800 X24.531 Y32.150
G1 F300 X25.257 Y32.875 E45.04236
G0 F4800 X25.821 Y32.875
G1 F300 X25.095 Y32.150 E45.09240
G0 F4800 X25.660 Y32.150
G1 F300 X26.385 Y32.875 E45.14240
G0 F4800 X26.949 Y32.875
G1 F300 X26.224 Y32.150 E45.19241
G0 F4800 X26.788 Y32.150
G1 F300 X27.514 Y32.875 E45.24245
G0 F4800 X28.078 Y32.875
G1 F300 X27.353 Y32.150 E45.29245
G0 F4800 X27.917 Y32.150
G1 F300 X28.642 Y32.875 E45.34245
G0 F4800 X29.207 Y32.875
G1 F300 X28.481 Y32.150 E45.39249
G0 F4800 X29.045 Y32.150
G1 F300 X29.771 Y32.875 E45.44253
G0 F4800 X30.335 Y32.875
G1 F300 X29.610 Y32.150 E45.49254
G0 F4800 X30.174 Y32.150
G1 F300 X30.899 Y32.875 E45.54254
G0 F4800 X31.464 Y32.875
G1 F300 X30.738 Y32.150 E45.59258
G0 F4800 X31.302 Y32.150
G1 F300 X32.028 Y32.875 E45.64262
G0 F4800 X32.592 Y32.875
G1 F300 X31.867 Y32.150 E45.69262
G0 F4800 X32.431 Y32.150
G1 F300 X33.156 Y32.875 E45.74263
G0 F4800 X33.721 Y32.875
G1 F300 X32.995 Y32.150 E45.79267
G0 F4800 X33.559 Y32.150
G1 F300 X34.285 Y32.875 E45.84270
G0 F4800 X34.849 Y32.875
G1 F300 X34.124 Y32.150 E45.89271
G0 F4800 X34.688 Y32.150
G1 F300 X35.414 Y32.875 E45.94275
G0 F4800 X35.978 Y32.875
G1 F300 X35.252 Y32.150 E45.99279
G0 F4800 X35.817 Y32.150
G1 F300 X36.542 Y32.875 E46.04279
G0 F4800 X37.106 Y32.875
G1 F300 X36.381 Y32.150 E46.09279
G0 F4800 X36.945 Y32.150
G1 F300 X37.671 Y32.875 E46.14283
G0 F4800 X38.235 Y32.875
G1 F300 X37.509 Y32.150 E46.19287
G0 F4800 X38.074 Y32.150
G1 F300 X38.799 Y32.875 E46.24288
G0 F4800 X39.363 Y32.875
G1 F300 X38.638 Y32.150 E46.29288
G0 F4800 X39.202 Y32.150
G1 F300 X39.928 Y32.875 E46.34292
G0 F4800 X40.492 Y32.875
G1 F300 X39.766 Y32.150 E46.39296
G0 F4800 X40.331 Y32.150
G1 F300 X41.056 Y32.875 E46.44296
G0 F4800 X41.621 Y32.875
G1 F300 X40.895 Y32.150 E46.49300
G0 F4800 X41.459 Y32.150
G1 F300 X42.185 Y32.875 E46.54304
G0 F4800 X42.749 Y32.875
G1 F300 X42.024 Y32.150 E46.59304
G0 F4800 X42.588 Y32.150
G1 F300 X43.313 Y32.875 E46.64305
G0 F4800 X43.878 Y32.875
G1 F300 X43.152 Y32.150 E46.69309
G0 F4800 X43.716 Y32.150
G1 F300 X44.442 Y32.875 E46.74313
G0 F4800 X45.006 Y32.875
G1 F300 X44.281 Y32.150 E46.79313
G0 F4800 X44.845 Y32.150
G1 F300 X45.570 Y32.875 E46.84314
G0 F4800 X45.759 Y33.064
G1 F300 X48.571 Y35.875 E47.03705
G0 F4800 X49.135 Y35.875
G1 F300 X45.409 Y32.150 E47.29400
G0 F4800 X45.973 Y32.150
G1 F300 X49.699 Y35.875 E47.55095
G0 F4800 X50.263 Y35.875
G1 F300 X46.538 Y32.150 E47.80787
G0 F4800 X47.102 Y32.150
G1 F300 X50.828 Y35.875 E48.06483
G0 F4800 X51.392 Y35.875
G1 F300 X47.666 Y32.150 E48.32178
G0 F4800 X48.231 Y32.150
G1 F300 X51.956 Y35.875 E48.57870
G0 F4800 X52.521 Y35.875
G1 F300 X48.795 Y32.150 E48.83565
G0 F4800 X49.359 Y32.150
G1 F300 X53.085 Y35.875 E49.09260
G0 F4800 X53.649 Y35.875
G1 F300 X49.923 Y32.150 E49.34956
G0 F4800 X50.488 Y32.150
G1 F300 X54.213 Y35.875 E49.60648
G0 F4800 X54.778 Y35.875
G1 F300 X51.052 Y32.150 E49.86343
G0 F4800 X51.616 Y32.150
G1 F300 X55.342 Y35.875 E50.12038
G0 F4800 X55.485 Y35.454
G1 F300 X52.180 Y32.150 E50.34830
G0 F4800 X52.745 Y32.150
G1 F300 X55.485 Y34.890 E50.53728
G0 F4800 X55.485 Y34.325
G1 F300 X53.309 Y32.150 E50.68733
G0 F4800 X53.873 Y32.150
G1 F300 X55.485 Y33.761 E50.79847
G0 F4800 X55.485 Y33.197
G1 F300 X54.438 Y32.150 E50.87069
G0 F4800 X55.002 Y32.150
G1 F300 X55.727 Y32.875 E50.92069
G0 F4800 X56.292 Y32.875
G1 F300 X55.566 Y32.150 E50.97073
G0 F4800 X56.130 Y32.150
G1 F300 X56.856 Y32.875 E51.02077
G0 F4800 X57.420 Y32.875
G1 F300 X56.695 Y32.150 E51.07077
G0 F4800 X57.259 Y32.150
G1 F300 X57.984 Y32.875 E51.12078
G0 F4800 X58.549 Y32.875
G1 F300 X57.823 Y32.150 E51.17082
G0 F4800 X58.387 Y32.150
G1 F300 X59.113 Y32.875 E51.22086
G0 F4800 X59.677 Y32.875
G1 F300 X58.952 Y32.150 E51.27086
G0 F4800 X59.516 Y32.150
G1 F300 X60.241 Y32.875 E51.32086
G0 F4800 X60.806 Y32.875
G1 F300 X60.080 Y32.150 E51.37090
G0 F4800 X60.645 Y32.150
G1 F300 X61.370 Y32.875 E51.42091
G0 F4800 X61.934 Y32.875
G1 F300 X61.209 Y32.150 E51.47091
G0 F4800 X61.773 Y32.150
G1 F300 X62.499 Y32.875 E51.52095
G0 F4800 X63.063 Y32.875
G1 F300 X62.337 Y32.150 E51.57099
G0 F4800 X62.902 Y32.150
G1 F300 X63.627 Y32.875 E51.62099
G0 F4800 X64.191 Y32.875
G1 F300 X63.466 Y32.150 E51.67100
G0 F4800 X64.030 Y32.150
G1 F300 X64.756 Y32.875 E51.72104
G0 F4800 X65.320 Y32.875
G1 F300 X64.594 Y32.150 E51.77108
G0 F4800 X65.159 Y32.150
G1 F300 X65.884 Y32.875 E51.82108
G0 F4800 X66.448 Y32.875
G1 F300 X65.723 Y32.150 E51.87108
G0 F4800 X66.287 Y32.150
G1 F300 X67.013 Y32.875 E51.92112
G0 F4800 X67.577 Y32.875
G1 F300 X66.851 Y32.150 E51.97116
G0 F4800 X67.416 Y32.150
G1 F300 X68.141 Y32.875 E52.02117
G0 F4800 X68.706 Y32.875
G1 F300 X67.980 Y32.150 E52.07120
G0 F4800 X68.544 Y32.150
G1 F300 X69.270 Y32.875 E52.12124
G0 F4800 X69.834 Y32.875
G1 F300 X69.109 Y32.150 E52.17125
G0 F4800 X69.673 Y32.150
G1 F300 X70.398 Y32.875 E52.22125
G0 F4800 X70.963 Y32.875
G1 F300 X70.237 Y32.150 E52.27129
G0 F4800 X70.801 Y32.150
G1 F300 X71.527 Y32.875 E52.32133
G0 F4800 X72.091 Y32.875
G1 F300 X71.366 Y32.150 E52.37133
G0 F4800 X71.930 Y32.150
G1 F300 X72.655 Y32.875 E52.42134
G0 F4800 X73.220 Y32.875
G1 F300 X72.494 Y32.150 E52.47138
G0 F4800 X73.058 Y32.150
G1 F300 X73.784 Y32.875 E52.52142
G0 F4800 X74.348 Y32.875
G1 F300 X73.623 Y32.150 E52.57142
G0 F4800 X74.187 Y32.150
G1 F300 X74.913 Y32.875 E52.62146
G0 F4800 X75.477 Y32.875
G1 F300 X74.751 Y32.150 E52.67150
G0 F4800 X75.316 Y32.150
G1 F300 X76.041 Y32.875 E52.72150
G0 F4800 X76.605 Y32.875
G1 F300 X75.880 Y32.150 E52.77151
G0 F4800 X76.444 Y32.150
G1 F300 X77.170 Y32.875 E52.82154
G0 F4800 X77.734 Y32.875
G1 F300 X77.008 Y32.150 E52.87158
G0 F4800 X77.573 Y32.150
G1 F300 X78.298 Y32.875 E52.92159
G0 F4800 X78.862 Y32.875
G1 F300 X78.137 Y32.150 E52.97159
G0 F4800 X78.701 Y32.150
G1 F300 X79.427 Y32.875 E53.02163
G0 F4800 X79.991 Y32.875
G1 F300 X79.265 Y32.150 E53.07167
G0 F4800 X79.830 Y32.150
G1 F300 X80.555 Y32.875 E53.12167
G0 F4800 X81.119 Y32.875
G1 F300 X80.394 Y32.150 E53.17168
G0 F4800 X80.958 Y32.150
G1 F300 X81.684 Y32.875 E53.22172
G0 F4800 X82.248 Y32.875
G1 F300 X81.523 Y32.150 E53.27172
G0 F4800 X82.087 Y32.150
G1 F300 X82.812 Y32.875 E53.32173
G0 F4800 X83.377 Y32.875
G1 F300 X82.651 Y32.150 E53.37176
G0 F4800 X83.215 Y32.150
G1 F300 X83.941 Y32.875 E53.42180
G0 F4800 X84.505 Y32.875
G1 F300 X83.780 Y32.150 E53.47181
G0 F4800 X84.344 Y32.150
G1 F300 X85.069 Y32.875 E53.52181
G0 F4800 X85.634 Y32.875
G1 F300 X84.908 Y32.150 E53.57185
G0 F4800 X85.472 Y32.150
G1 F300 X86.198 Y32.875 E53.62189
G0 F4800 X86.762 Y32.875
G1 F300 X86.037 Y32.150 E53.67189
G0 F4800 X86.601 Y32.150
G1 F300 X87.326 Y32.875 E53.72190
G0 F4800 X87.891 Y32.875
G1 F300 X87.165 Y32.150 E53.77194
G0 F4800 X87.730 Y32.150
G1 F300 X88.455 Y32.875 E53.82194
G0 F4800 X89.019 Y32.875
G1 F300 X88.294 Y32.150 E53.87195
G0 F4800 X88.858 Y32.150
G1 F300 X89.485 Y32.776 E53.91516
G0 F4800 X89.485 Y32.212
G1 F300 X89.422 Y32.150 E53.91947
G1 F2400 E49.91947
G0 F4800 X48.006 Y35.875
G1 F2400 E53.91947
G1 F300 X45.759 Y33.628 E54.07445
G0 F4800 X45.759 Y34.192
G1 F300 X47.442 Y35.875 E54.19052
G0 F4800 X46.878 Y35.875
G1 F300 X45.759 Y34.757 E54.26767
G0 F4800 X45.759 Y35.321
G1 F300 X46.314 Y35.875 E54.30591
;LAYER:1
M106 S127
G0 F4800 X45.620 Y36.016 Z0.600
;TYPE:WALL-INNER
G1 F300 X45.620 Y33.016 E54.45222
G1 X11.620 Y33.016 E56.11041
G1 X11.620 Y32.010 E56.15947
G1 X89.626 Y32.010 E59.96384
G1 X89.626 Y33.016 E60.01290
G1 X55.626 Y33.016 E61.67109
G1 X55.626 Y36.016 E61.81740
G1 X45.620 Y36.016 E62.30539
G0 F4800 X45.221 Y36.111
G1 F300 X45.221 Y33.415 E62.43688
G1 X11.221 Y33.415 E64.09506
G1 X11.221 Y28.911 E64.31472
G1 X11.275 Y28.911 E64.31736
G1 X11.275 Y31.611 E64.44904
G1 X30.971 Y31.611 E65.40961
G1 X30.971 Y28.911 E65.54129
G1 X31.025 Y28.911 E65.54393
G1 X31.025 Y31.611 E65.67561
G1 X70.221 Y31.611 E67.58720
G1 X70.221 Y28.911 E67.71888
G1 X70.275 Y28.911 E67.72151
G1 X70.275 Y31.611 E67.85319
G1 X89.971 Y31.611 E68.81377
G1 X89.971 Y28.911 E68.94545
G1 X90.025 Y28.911 E68.94808
G1 X90.025 Y33.415 E69.16774
G1 X56.025 Y33.415 E70.82593
G1 X56.025 Y36.111 E70.95741
G1 X59.025 Y36.111 E71.10372
G1 X59.025 Y36.415 E71.11855
G1 X42.221 Y36.415 E71.93808
G1 X42.221 Y36.111 E71.95291
G1 X45.221 Y36.111 E72.09922
G0 F4800 X44.822 Y35.712
;TYPE:WALL-OUTER
G1 F300 X44.822 Y33.814 E72.19179
G1 X10.822 Y33.814 E73.84997
G1 X10.822 Y28.512 E74.10855
G1 X14.674 Y28.512 E74.29642
G1 X14.674 Y29.114 E74.32577
G1 X11.674 Y29.114 E74.47209
G1 X11.674 Y31.212 E74.57441
G1 X30.572 Y31.212 E75.49606
G1 X30.572 Y29.114 E75.59838
G1 X27.072 Y29.114 E75.76908
G1 X27.072 Y28.512 E75.79844
G1 X31.424 Y28.512 E76.01069
G1 X31.424 Y31.212 E76.14237
G1 X69.822 Y31.212 E78.01504
G1 X69.822 Y28.512 E78.14672
G1 X73.674 Y28.512 E78.33458
G1 X73.674 Y29.114 E78.36394
G1 X70.674 Y29.114 E78.51026
G1 X70.674 Y31.212 E78.61257
G1 X89.572 Y31.212 E79.53423
G1 X89.572 Y29.114 E79.63655
G1 X86.072 Y29.114 E79.80725
G1 X86.072 Y28.512 E79.83661
G1 X90.424 Y28.512 E80.04886
G1 X90.424 Y33.814 E80.30744
G1 X56.424 Y33.814 E81.96562
G1 X56.424 Y35.712 E82.05819
G1 X59.424 Y35.712 E82.20450
G1 X59.424 Y36.814 E82.25824
G1 X41.822 Y36.814 E83.11669
G1 X41.822 Y35.712 E83.17044
G1 X44.822 Y35.712 E83.31675
G0 F4800 X45.759 Y35.778
;TYPE:SKIN
G1 F300 X49.388 Y32.149 E83.56705
G0 F4800 X49.952 Y32.149
G1 F300 X46.226 Y35.875 E83.82404
G0 F4800 X46.790 Y35.875
G1 F300 X50.517 Y32.149 E84.08106
G0 F4800 X51.081 Y32.149
G1 F300 X47.354 Y35.875 E84.33808
G0 F4800 X47.919 Y35.875
G1 F300 X51.645 Y32.149 E84.59507
G0 F4800 X52.209 Y32.149
G1 F300 X48.483 Y35.875 E84.85205
G0 F4800 X49.047 Y35.875
G1 F300 X52.774 Y32.149 E85.10908
G0 F4800 X53.338 Y32.149
G1 F300 X49.612 Y35.875 E85.36606
G0 F4800 X50.176 Y35.875
G1 F300 X53.902 Y32.149 E85.62305
G0 F4800 X54.467 Y32.149
G1 F300 X50.740 Y35.875 E85.88007
G0 F4800 X51.304 Y35.875
G1 F300 X55.031 Y32.149 E86.13710
G0 F4800 X55.595 Y32.149
G1 F300 X51.869 Y35.875 E86.39408
G0 F4800 X52.433 Y35.875
G1 F300 X56.159 Y32.149 E86.65107
G0 F4800 X56.724 Y32.149
G1 F300 X55.997 Y32.876 E86.70121
G0 F4800 X56.561 Y32.876
G1 F300 X57.288 Y32.149 E86.75136
G0 F4800 X57.852 Y32.149
G1 F300 X57.125 Y32.876 E86.80150
G0 F4800 X57.690 Y32.876
G1 F300 X58.416 Y32.149 E86.85161
G0 F4800 X58.981 Y32.149
G1 F300 X58.254 Y32.876 E86.90175
G0 F4800 X58.818 Y32.876
G1 F300 X59.545 Y32.149 E86.95189
G0 F4800 X60.109 Y32.149
G1 F300 X59.382 Y32.876 E87.00203
G0 F4800 X59.947 Y32.876
G1 F300 X60.674 Y32.149 E87.05217
G0 F4800 X61.238 Y32.149
G1 F300 X60.511 Y32.876 E87.10232
G0 F4800 X61.075 Y32.876
G1 F300 X61.802 Y32.149 E87.15246
G0 F4800 X62.366 Y32.149
G1 F300 X61.639 Y32.876 E87.20260
G0 F4800 X62.204 Y32.876
G1 F300 X62.931 Y32.149 E87.25274
G0 F4800 X63.495 Y32.149
G1 F300 X62.768 Y32.876 E87.30289
G0 F4800 X63.332 Y32.876
G1 F300 X64.059 Y32.149 E87.35303
G0 F4800 X64.623 Y32.149
G1 F300 X63.896 Y32.876 E87.40317
G0 F4800 X64.461 Y32.876
G1 F300 X65.188 Y32.149 E87.45331
G0 F4800 X65.752 Y32.149
G1 F300 X65.025 Y32.876 E87.50345
G0 F4800 X65.589 Y32.876
G1 F300 X66.316 Y32.149 E87.55360
G0 F4800 X66.880 Y32.149
G1 F300 X66.154 Y32.876 E87.60370
G0 F4800 X66.718 Y32.876
G1 F300 X67.445 Y32.149 E87.65385
G0 F4800 X68.009 Y32.149
G1 F300 X67.282 Y32.876 E87.70399
G0 F4800 X67.846 Y32.876
G1 F300 X68.573 Y32.149 E87.75413
G0 F4800 X69.138 Y32.149
G1 F300 X68.411 Y32.876 E87.80427
G0 F4800 X68.975 Y32.876
G1 F300 X69.702 Y32.149 E87.85442
G0 F4800 X70.266 Y32.149
G1 F300 X69.539 Y32.876 E87.90456
G0 F4800 X70.103 Y32.876
G1 F300 X70.830 Y32.149 E87.95470
