; generated by Slic3r 1.2.9 on 2018-03-09 at 00:30:56

; external perimeters extrusion width = 0.40mm
; perimeters extrusion width = 0.48mm
; infill extrusion width = 0.48mm
; solid infill extrusion width = 0.48mm
; top infill extrusion width = 0.48mm
; support material extrusion width = 0.40mm

M107
M190 S50 ; set bed temperature
M104 S220 ; set temperature
G28 ; home all axes
G1 Z5 F5000 ; lift nozzle

M109 S220 ; wait for temperature to be reached
G21 ; set units to millimeters
G90 ; use absolute coordinates
M82 ; use absolute distances for extrusion
G92 E0
G1 Z0.350 F7800.000
G1 E-3.00000 F2400.00000
G92 E0
G1 Z0.550 F7800.000
G1 X25.768 Y24.784 F7800.000
G1 Z0.350 F7800.000
G1 E3.00000 F2400.00000
G1 X42.440 Y24.784 E4.22510 F120.000
G1 X42.440 Y69.856 E7.53720
G1 X25.768 Y69.856 E8.76231
G1 X25.768 Y24.844 E12.07000
G1 X26.304 Y25.320 F7800.000
G1 X41.904 Y25.320 E13.21638 F120.000
G1 X41.904 Y69.320 E16.44976
G1 X26.304 Y69.320 E17.59614
G1 X26.304 Y25.380 E20.82512
G1 X26.304 Y24.920 F7800.000
G1 E17.82512 F2400.00000
G92 E0
G1 Z0.550 F7800.000
G1 X18.440 Y23.456 F7800.000
G1 Z0.350 F7800.000
G1 E3.00000 F2400.00000
G1 X42.768 Y23.456 E4.78782 F120.000
G1 X42.768 Y71.184 E8.29522
G1 X18.440 Y71.184 E10.08304
G1 X18.440 Y23.516 E13.58602
G1 X17.904 Y24.323 F7800.000
G1 X17.904 Y22.920 E13.68909 F120.000
G1 X43.304 Y22.920 E15.55564
G1 X43.304 Y71.720 E19.14175
G1 X17.904 Y71.720 E21.00829
G1 X17.904 Y70.317 E21.11136
G1 X13.904 Y70.317 E21.40531
G1 X13.904 Y69.323 E21.47841
G1 X17.904 Y69.323 E21.77236
G1 X17.904 Y25.317 E25.00612
G1 X13.904 Y25.317 E25.30006
G1 X13.904 Y24.323 E25.37317
G1 X17.844 Y24.323 E25.66270
G1 X18.304 Y24.323 F7800.000
G1 X18.172 Y24.820 F7800.000
G1 X14.172 Y24.820 E26.28592 F120.000
G1 E23.28592 F2400.00000
G92 E0
G1 Z0.550 F7800.000
G1 X25.232 Y23.991 F7800.000
G1 Z0.350 F7800.000
G1 E3.00000 F2400.00000
G1 X24.965 Y23.724 E3.02786 F120.000
G1 X24.205 Y23.724 E3.08386
G1 X25.232 Y24.751 E3.19091
G1 X25.500 Y25.778 E3.26918
G1 X23.446 Y23.724 E3.48334
G1 X22.686 Y23.724 E3.53934
G1 X25.500 Y26.538 E3.83269
G1 X25.500 Y27.298 E3.88869
G1 X21.926 Y23.724 E4.26124
G1 X21.166 Y23.724 E4.31724
G1 X25.500 Y28.058 E4.76899
G1 X25.500 Y28.817 E4.82499
G1 X20.407 Y23.724 E5.35593
G1 X19.647 Y23.724 E5.41193
G1 X25.500 Y29.577 E6.02207
G1 X25.500 Y30.337 E6.07806
G1 X18.887 Y23.724 E6.76740
G1 X18.708 Y24.304 E6.81216
G1 X25.500 Y31.097 E7.52021
G1 X25.500 Y31.856 E7.57621
G1 X18.708 Y25.064 E8.28425
G1 X18.708 Y25.823 E8.34025
G1 X25.500 Y32.616 E9.04829
G1 X25.500 Y33.376 E9.10429
G1 X18.708 Y26.583 E9.81234
G1 X18.708 Y27.343 E9.86833
G1 X25.500 Y34.136 E10.57638
G1 X25.500 Y34.895 E10.63238
G1 X18.708 Y28.103 E11.34042
G1 X18.708 Y28.862 E11.39642
G1 X25.500 Y35.655 E12.10446
G1 X25.500 Y36.415 E12.16046
G1 X18.708 Y29.622 E12.86851
G1 X18.708 Y30.382 E12.92451
G1 X25.500 Y37.175 E13.63255
G1 X25.500 Y37.934 E13.68855
G1 X18.708 Y31.142 E14.39659
G1 X18.708 Y31.901 E14.45259
G1 X25.500 Y38.694 E15.16064
G1 X25.500 Y39.454 E15.21663
G1 X18.708 Y32.661 E15.92468
G1 X18.708 Y33.421 E15.98068
G1 X25.500 Y40.214 E16.68872
G1 X25.500 Y40.973 E16.74472
G1 X18.708 Y34.181 E17.45276
G1 X18.708 Y34.941 E17.50876
G1 X25.500 Y41.733 E18.21681
G1 X25.500 Y42.493 E18.27281
G1 X18.708 Y35.700 E18.98085
G1 X18.708 Y36.460 E19.03685
G1 X25.500 Y43.253 E19.74489
G1 X25.500 Y44.012 E19.80089
G1 X18.708 Y37.220 E20.50893
G1 X18.708 Y37.980 E20.56493
G1 X25.500 Y44.772 E21.27298
G1 X25.500 Y45.532 E21.32898
G1 X18.708 Y38.739 E22.03702
G1 X18.708 Y39.499 E22.09302
G1 X25.500 Y46.292 E22.80106
G1 X25.500 Y47.051 E22.85706
G1 X18.708 Y40.259 E23.56510
G1 X18.708 Y41.019 E23.62110
G1 X25.500 Y47.811 E24.32915
G1 X25.500 Y48.571 E24.38515
G1 X18.708 Y41.778 E25.09319
G1 X18.708 Y42.538 E25.14919
G1 X25.500 Y49.331 E25.85723
G1 X25.500 Y50.090 E25.91323
G1 X18.708 Y43.298 E26.62128
G1 X18.708 Y44.058 E26.67727
G1 X25.500 Y50.850 E27.38532
G1 X25.500 Y51.610 E27.44132
G1 X18.708 Y44.817 E28.14936
G1 X18.708 Y45.577 E28.20536
G1 X25.500 Y52.370 E28.91340
G1 X25.500 Y53.130 E28.96940
G1 X18.708 Y46.337 E29.67745
G1 X18.708 Y47.097 E29.73345
G1 X25.500 Y53.889 E30.44149
G1 X25.500 Y54.649 E30.49749
G1 X18.708 Y47.856 E31.20553
G1 X18.708 Y48.616 E31.26153
G1 X25.500 Y55.409 E31.96957
G1 X25.500 Y56.169 E32.02557
G1 X18.708 Y49.376 E32.73362
G1 X18.708 Y50.136 E32.78962
G1 X25.500 Y56.928 E33.49766
G1 X25.500 Y57.688 E33.55366
G1 X18.708 Y50.895 E34.26170
G1 X18.708 Y51.655 E34.31770
G1 X25.500 Y58.448 E35.02574
G1 X25.500 Y59.208 E35.08174
G1 X18.708 Y52.415 E35.78979
G1 X18.708 Y53.175 E35.84579
G1 X25.500 Y59.967 E36.55383
G1 X25.500 Y60.727 E36.60983
G1 X18.708 Y53.934 E37.31787
G1 X18.708 Y54.694 E37.37387
G1 X25.500 Y61.487 E38.08191
G1 X25.500 Y62.247 E38.13791
G1 X18.708 Y55.454 E38.84596
G1 X18.708 Y56.214 E38.90196
G1 X25.500 Y63.006 E39.61000
G1 X25.500 Y63.766 E39.66600
G1 X18.708 Y56.973 E40.37404
G1 X18.708 Y57.733 E40.43004
G1 X25.500 Y64.526 E41.13808
G1 X25.500 Y65.286 E41.19408
G1 X18.708 Y58.493 E41.90213
G1 X18.708 Y59.253 E41.95813
G1 X25.500 Y66.045 E42.66617
G1 X25.500 Y66.805 E42.72217
G1 X18.708 Y60.013 E43.43021
G1 X18.708 Y60.772 E43.48621
G1 X25.500 Y67.565 E44.19425
G1 X25.500 Y68.325 E44.25025
G1 X18.708 Y61.532 E44.95830
G1 X18.708 Y62.292 E45.01430
G1 X25.500 Y69.084 E45.72234
G1 X25.308 Y69.652 E45.76650
G1 X18.708 Y63.052 E46.45451
G1 X18.708 Y63.811 E46.51051
G1 X25.232 Y70.336 E47.19064
G1 X25.053 Y70.916 E47.23540
G1 X18.708 Y64.571 E47.89681
G1 X18.708 Y65.331 E47.95281
G1 X24.293 Y70.916 E48.53503
G1 X23.533 Y70.916 E48.59103
G1 X18.708 Y66.091 E49.09405
G1 X18.708 Y66.850 E49.15005
G1 X22.774 Y70.916 E49.57388
G1 X22.014 Y70.916 E49.62987
G1 X18.708 Y67.610 E49.97451
G1 X18.708 Y68.370 E50.03051
G1 X21.254 Y70.916 E50.29594
G1 X20.494 Y70.916 E50.35194
G1 X18.708 Y69.130 E50.53818
G1 X18.708 Y69.889 E50.59418
G1 X19.735 Y70.916 E50.70123
G1 X18.975 Y70.916 E50.75723
G1 X18.708 Y70.649 E50.78508
G1 X18.172 Y69.820 F7800.000
G1 X14.172 Y69.820 E51.40830 F120.000
G1 E48.40830 F2400.00000
G92 E0
G1 Z0.550 F7800.000
G1 X25.500 Y70.520 F7800.000
G1 Z0.350 F7800.000
G1 E3.00000 F2400.00000
G1 X42.500 Y70.520 E5.64868 F120.000
G1 E2.64868 F2400.00000
G92 E0
G1 Z0.550 F7800.000
G1 X42.500 Y24.120 F7800.000
G1 Z0.350 F7800.000
G1 E3.00000 F2400.00000
G1 X25.500 Y24.120 E5.64868 F120.000
G1 Z0.350 F7800.000
G1 E2.64868 F2400.00000
G92 E0
G1 Z0.550 F7800.000
G1 X12.348 Y27.560 F7800.000
G1 Z0.350 F7800.000
G1 E3.00000 F2400.00000
G1 X13.096 Y26.067 E3.12272 F120.000
G1 X11.485 Y26.891 E3.25569
G1 X13.096 Y23.676 E3.51991
G1 X12.682 Y22.112 E3.63881
G1 X10.749 Y25.967 E3.95569
G1 E0.95569 F2400.00000
G92 E0
G1 Z0.550 F7800.000
G1 X11.072 Y68.358 F7800.000
G1 Z0.350 F7800.000
G1 E3.00000 F2400.00000
G1 X10.639 Y69.221 E3.07090 F120.000
G1 X10.858 Y71.176 E3.21547
G1 X12.835 Y67.231 E3.53970
G1 X13.096 Y69.101 E3.67842
G1 X11.638 Y72.010 E3.91752
G1 X13.096 Y71.492 E4.03122
G1 X12.602 Y72.477 E4.11222
G1 Z0.650 F7800.000
G1 E1.11222 F2400.00000
G92 E0
G1 Z0.850 F7800.000
G1 X26.027 Y25.043 F7800.000
G1 Z0.650 F7800.000
G1 E3.00000 F2400.00000
G1 X42.181 Y25.043 E3.92839 F1200.000
G1 X42.181 Y69.597 E6.48891
G1 X26.027 Y69.597 E7.41730
G1 X26.027 Y25.103 E9.97437
G1 X26.404 Y25.420 F7800.000
G1 X41.804 Y25.420 E10.68348 F600.000
G1 X41.804 Y69.220 E12.70031
G1 X26.404 Y69.220 E13.40943
G1 X26.404 Y25.480 E15.42349
G1 X26.404 Y25.020 F7800.000
G1 E12.42349 F2400.00000
G92 E0
G1 Z0.850 F7800.000
G1 X18.181 Y25.574 F7800.000
G1 Z0.650 F7800.000
G1 E3.00000 F2400.00000
G1 X14.181 Y25.574 E3.22988 F1200.000
G1 X14.181 Y24.066 E3.31658
G1 X18.181 Y24.066 E3.54646
G1 X18.181 Y23.197 E3.59637
G1 X43.027 Y23.197 E5.02422
G1 X43.027 Y71.443 E7.79686
G1 X18.181 Y71.443 E9.22472
G1 X18.181 Y70.574 E9.27462
G1 X14.181 Y70.574 E9.50450
G1 X14.181 Y69.066 E9.59120
G1 X18.181 Y69.066 E9.82108
G1 X18.181 Y25.634 E12.31705
G1 X17.804 Y25.952 F7800.000
G1 X17.404 Y25.952 E12.33547 F600.000
G1 X13.804 Y25.952 E12.54236 F1200.000
G1 X13.804 Y25.817 E12.55007
G1 X13.804 Y23.823 E12.64193 F600.000
G1 X13.804 Y23.688 E12.64964 F1200.000
G1 X17.404 Y23.688 E12.85653
G1 X17.804 Y23.688 E12.87495 F600.000
G1 X17.804 Y22.820 E12.91493
G1 X43.404 Y22.820 E14.09372
G1 X43.404 Y71.820 E16.34999
G1 X17.804 Y71.820 E17.52878
G1 X17.804 Y70.952 E17.56876
G1 X17.404 Y70.952 E17.58718
G1 X13.804 Y70.952 E17.79407 F1200.000
G1 X13.804 Y70.817 E17.80178
G1 X13.804 Y68.823 E17.89364 F600.000
G1 X13.804 Y68.688 E17.90135 F1200.000
G1 X17.404 Y68.688 E18.10824
G1 X17.804 Y68.688 E18.12666 F600.000
G1 X17.804 Y26.012 E20.09177
G1 X17.804 Y25.552 F7800.000
G1 E17.09177 F2400.00000
G92 E0
G1 Z0.850 F7800.000
G1 X15.650 Y25.369 F7800.000
G1 Z0.650 F7800.000
G1 E3.00000 F2400.00000
G1 X16.748 Y24.271 E3.08925 F900.000
G1 X18.019 Y25.369 E3.18580
G1 X19.986 Y23.403 E3.34562
G1 X22.355 Y23.403 E3.48180
G1 X18.386 Y27.371 E3.80435
G1 X18.386 Y29.741 E3.94052
G1 X24.725 Y23.403 E4.45566
G1 E1.45566 F2400.00000
G92 E0
G1 Z0.850 F7800.000
G1 X42.821 Y24.262 F7800.000
G1 Z0.650 F7800.000
G1 E3.00000 F2400.00000
G1 X42.455 Y24.628 E3.02974 F900.000
G1 X41.311 Y23.403 E3.12609
G1 X39.876 Y24.837 E3.24271
G1 X38.942 Y23.403 E3.34112
G1 X37.507 Y24.837 E3.45774
G1 X36.572 Y23.403 E3.55616
G1 X35.137 Y24.837 E3.67278
G1 X34.203 Y23.403 E3.77119
G1 X32.768 Y24.837 E3.88781
G1 X31.833 Y23.403 E3.98623
G1 X30.398 Y24.837 E4.10285
G1 X29.464 Y23.403 E4.20126
G1 X28.029 Y24.837 E4.31788
G1 X27.094 Y23.403 E4.41630
G1 X18.386 Y32.110 E5.12401
G1 X18.386 Y34.480 E5.26019
G1 X25.821 Y27.045 E5.86445
G1 X25.821 Y29.414 E6.00063
G1 X18.386 Y36.849 E6.60489
G1 X18.386 Y39.219 E6.74107
G1 X25.821 Y31.784 E7.34533
G1 X25.821 Y34.154 E7.48151
G1 X18.386 Y41.588 E8.08577
G1 X18.386 Y43.958 E8.22195
G1 X25.821 Y36.523 E8.82622
G1 X25.821 Y38.893 E8.96239
G1 X18.386 Y46.328 E9.56666
G1 X18.386 Y48.697 E9.70283
G1 X25.821 Y41.262 E10.30710
G1 X25.821 Y43.632 E10.44327
G1 X18.386 Y51.067 E11.04754
G1 X18.386 Y53.436 E11.18372
G1 X25.821 Y46.001 E11.78798
G1 X25.821 Y48.371 E11.92416
G1 X18.386 Y55.806 E12.52842
G1 X18.386 Y58.175 E12.66460
G1 X25.821 Y50.740 E13.26886
G1 X25.821 Y53.110 E13.40504
G1 X18.386 Y60.545 E14.00931
G1 X18.386 Y62.914 E14.14548
G1 X25.821 Y55.479 E14.74975
G1 X25.821 Y57.849 E14.88592
G1 X18.386 Y65.284 E15.49019
G1 E12.49019 F2400.00000
G92 E0
G1 Z0.850 F7800.000
G1 X18.386 Y67.653 F7800.000
G1 Z0.650 F7800.000
G1 E3.00000 F2400.00000
G1 X25.821 Y60.218 E3.60427 F900.000
G1 X25.821 Y62.588 E3.74044
G1 X18.040 Y70.369 E4.37284
G1 X16.769 Y69.271 F7800.000
G1 X15.671 Y70.369 E4.46208 F900.000
G1 E1.46208 F2400.00000
G92 E0
G1 Z0.850 F7800.000
G1 X19.541 Y71.237 F7800.000
G1 Z0.650 F7800.000
G1 E3.00000 F2400.00000
G1 X25.821 Y64.958 E3.51040 F900.000
G1 X25.821 Y67.327 E3.64657
G1 X21.911 Y71.237 E3.96439
G1 X24.280 Y71.237 E4.10056
G1 X25.821 Y69.697 E4.22580
G1 X26.650 Y71.237 E4.32634
G1 X28.085 Y69.803 E4.44296
G1 X29.020 Y71.237 E4.54138
G1 X30.454 Y69.803 E4.65800
G1 X31.389 Y71.237 E4.75641
G1 X32.824 Y69.803 E4.87303
G1 X33.759 Y71.237 E4.97145
G1 X35.194 Y69.803 E5.08807
G1 X36.128 Y71.237 E5.18648
G1 X37.563 Y69.803 E5.30310
G1 X38.498 Y71.237 E5.40152
G1 X39.933 Y69.803 E5.51814
G1 X42.093 Y70.012 E5.64286
G1 X40.867 Y71.237 E5.74246
G1 E2.74246 F2400.00000
G92 E0
G1 Z0.850 F7800.000
G1 X42.604 Y69.807 F7800.000
G1 Z0.650 F7800.000
G1 E3.00000 F2400.00000
G1 X42.604 Y24.833 E8.56642 F900.000
G1 Z0.650 F7800.000
G1 E5.56642 F2400.00000
G92 E0
G1 Z0.850 F7800.000
G1 X13.004 Y22.588 F7800.000
G1 Z0.650 F7800.000
G1 E3.00000 F2400.00000
G1 X12.494 Y22.191 E3.02974 F900.000
G1 X11.447 Y23.003 E3.09073
G1 X11.111 Y23.369 E3.11363
G1 X10.911 Y23.672 E3.13032
G1 X10.748 Y24.021 E3.14807
G1 X10.639 Y24.409 E3.16662
G1 X10.601 Y24.820 E3.18562
G1 X10.639 Y25.231 E3.20463
G1 X10.748 Y25.619 E3.22317
G1 X10.910 Y25.966 E3.24082
G1 X11.112 Y26.272 E3.25771
G1 X11.447 Y26.637 E3.28049
G1 X12.493 Y27.448 E3.34148
G1 X13.004 Y27.052 E3.37124
G1 X13.004 Y22.588 E3.57682
G1 E0.57682 F2400.00000
G92 E0
G1 Z0.850 F7800.000
G1 X13.004 Y67.588 F7800.000
G1 Z0.650 F7800.000
G1 E3.00000 F2400.00000
G1 X12.493 Y67.191 E3.02976 F900.000
G1 X11.447 Y68.003 E3.09074
G1 X11.111 Y68.369 E3.11364
G1 X10.911 Y68.672 E3.13033
G1 X10.748 Y69.021 E3.14808
G1 X10.639 Y69.409 E3.16663
G1 X10.601 Y69.820 E3.18563
G1 X10.639 Y70.231 E3.20463
G1 X10.748 Y70.619 E3.22318
G1 X10.910 Y70.966 E3.24082
G1 X11.112 Y71.272 E3.25771
G1 X11.447 Y71.636 E3.28049
G1 X12.493 Y72.448 E3.34147
G1 X13.004 Y72.052 E3.37125
G1 X13.004 Y67.588 E3.57682
G1 E0.57682 F2400.00000
G92 E0
G1 Z0.850 F7800.000
G1 X12.733 Y71.231 F7800.000
G1 Z0.650 F7800.000
G1 E3.00000 F2400.00000
G1 X12.326 Y72.044 E3.04189 F900.000
G1 Z0.950 F7800.000
G1 E0.04189 F2400.00000
G92 E0
G1 Z1.150 F7800.000
G1 X26.027 Y25.043 F7800.000
G1 Z0.950 F7800.000
G1 E3.00000 F2400.00000
G1 X42.181 Y25.043 E3.92839 F1200.000
G1 X42.181 Y69.597 E6.48891
G1 X26.027 Y69.597 E7.41730
G1 X26.027 Y25.103 E9.97437
G1 X26.404 Y25.420 F7800.000
G1 X41.804 Y25.420 E10.68348 F600.000
G1 X41.804 Y69.220 E12.70031
G1 X26.404 Y69.220 E13.40943
G1 X26.404 Y25.480 E15.42349
G1 X26.404 Y25.020 F7800.000
G1 E12.42349 F2400.00000
G92 E0
G1 Z1.150 F7800.000
G1 X18.181 Y25.896 F7800.000
G1 Z0.950 F7800.000
G1 E3.00000 F2400.00000
G1 X14.181 Y25.896 E3.22988 F1200.000
G1 X14.181 Y23.744 E3.35353
G1 X18.181 Y23.744 E3.58341
G1 X18.181 Y23.197 E3.61484
G1 X43.027 Y23.197 E5.04270
G1 X43.027 Y71.443 E7.81534
G1 X18.181 Y71.443 E9.24319
G1 X18.181 Y70.896 E9.27463
G1 X14.181 Y70.896 E9.50450
G1 X14.181 Y68.744 E9.62816
G1 X18.181 Y68.744 E9.85803
G1 X18.181 Y25.956 E12.31705
G1 X17.804 Y26.273 F7800.000
G1 X13.804 Y26.273 E12.50124 F600.000
G1 X13.804 Y23.367 E12.63506
G1 X17.804 Y23.367 E12.81924
G1 X17.804 Y22.820 E12.84443
G1 X43.404 Y22.820 E14.02321
G1 X43.404 Y71.820 E16.27948
G1 X17.804 Y71.820 E17.45827
G1 X17.804 Y71.273 E17.48345
G1 X13.804 Y71.273 E17.66764
G1 X13.804 Y68.367 E17.80146
G1 X17.804 Y68.367 E17.98564
G1 X17.804 Y26.333 E19.92114
G1 X17.804 Y25.873 F7800.000
G1 X18.386 Y26.987 F7800.000
G1 X25.821 Y34.422 E20.52541 F900.000
G1 X25.821 Y32.052 E20.66159
G1 X17.719 Y23.949 E21.32012
G1 X17.090 Y25.691 F7800.000
G1 X15.349 Y23.949 E21.46162 F900.000
G1 X14.386 Y25.356 E21.55959
G1 X14.721 Y25.691 E21.58677
G1 E18.58677 F2400.00000
G92 E0
G1 Z1.150 F7800.000
G1 X18.386 Y29.356 F7800.000
G1 Z0.950 F7800.000
G1 E3.00000 F2400.00000
G1 X25.821 Y36.791 E3.60427 F900.000
G1 X25.821 Y39.161 E3.74044
G1 X18.386 Y31.726 E4.34471
G1 X18.386 Y34.095 E4.48088
G1 X25.821 Y41.530 E5.08515
G1 X25.821 Y43.900 E5.22132
G1 X18.386 Y36.465 E5.82559
G1 X18.386 Y38.834 E5.96177
G1 X25.821 Y46.269 E6.56603
G1 X25.821 Y48.639 E6.70221
G1 X18.386 Y41.204 E7.30647
G1 X18.386 Y43.573 E7.44265
G1 X25.821 Y51.008 E8.04691
G1 X25.821 Y53.378 E8.18309
G1 X18.386 Y45.943 E8.78736
G1 X18.386 Y48.312 E8.92353
G1 X25.821 Y55.747 E9.52780
G1 X25.821 Y58.117 E9.66397
G1 X18.386 Y50.682 E10.26824
G1 X18.386 Y53.052 E10.40441
G1 X25.821 Y60.486 E11.00868
G1 X25.821 Y62.856 E11.14486
G1 X18.386 Y55.421 E11.74912
G1 X18.386 Y57.791 E11.88530
G1 X25.821 Y65.226 E12.48956
G1 X25.821 Y67.595 E12.62574
G1 X18.386 Y60.160 E13.23000
G1 X18.386 Y62.530 E13.36618
G1 X27.094 Y71.237 E14.07389
G1 X28.029 Y69.803 E14.17231
G1 X29.464 Y71.237 E14.28893
G1 X30.398 Y69.803 E14.38734
G1 X31.833 Y71.237 E14.50396
G1 X32.768 Y69.803 E14.60238
G1 X34.203 Y71.237 E14.71900
G1 X35.137 Y69.803 E14.81741
G1 X36.572 Y71.237 E14.93403
G1 X37.507 Y69.803 E15.03245
G1 X38.942 Y71.237 E15.14907
G1 X39.876 Y69.803 E15.24748
G1 X41.311 Y71.237 E15.36410
G1 X42.455 Y70.012 E15.46045
G1 X42.821 Y70.378 E15.49019
G1 E12.49019 F2400.00000
G92 E0
G1 Z1.150 F7800.000
G1 X24.725 Y71.237 F7800.000
G1 Z0.950 F7800.000
G1 E3.00000 F2400.00000
G1 X18.386 Y64.899 E3.51513 F900.000
G1 X18.386 Y67.269 E3.65131
G1 X22.355 Y71.237 E3.97386
G1 X19.986 Y71.237 E4.11003
G1 X17.698 Y68.949 E4.29599
G1 X17.069 Y70.691 E4.40236
G1 X15.328 Y68.949 E4.54387
G1 X14.386 Y70.377 E4.64216
