; generated by Slic3r 1.2.9 on 2018-03-09 at 02:23:37

; external perimeters extrusion width = 0.40mm
; perimeters extrusion width = 0.48mm
; infill extrusion width = 0.48mm
; solid infill extrusion width = 0.48mm
; top infill extrusion width = 0.48mm
; support material extrusion width = 0.40mm

M107
M190 S50 ; set bed temperature
M104 S220 ; set temperature
G28 ; home all axes
G1 Z5 F5000 ; lift nozzle

M109 S220 ; wait for temperature to be reached
G21 ; set units to millimeters
G90 ; use absolute coordinates
M82 ; use absolute distances for extrusion
G92 E0
G1 Z0.350 F7800.000
G1 E-3.00000 F2400.00000
G92 E0
G1 Z0.550 F7800.000
G1 X15.258 Y60.568 F7800.000
G1 Z0.350 F7800.000
G1 E3.00000 F2400.00000
G1 X33.187 Y60.568 E4.31751 F120.000
G1 X33.187 Y61.897 E4.41516
G1 X15.258 Y61.897 E5.73267
G1 X15.258 Y60.628 E5.82591
G1 E2.82591 F2400.00000
G92 E0
G1 Z0.550 F7800.000
G1 X16.208 Y62.432 F7800.000
G1 Z0.350 F7800.000
G1 E3.00000 F2400.00000
G1 X14.722 Y62.432 E3.10920 F120.000
G1 X14.722 Y60.032 E3.28557
G1 X30.362 Y60.032 E4.43484
G1 X22.930 Y44.096 E5.72704
G1 X23.863 Y43.661 E5.80269
G1 X31.497 Y60.032 E7.13016
G1 X33.722 Y60.032 E7.29365
G1 X33.722 Y62.432 E7.47002
G1 X32.237 Y62.432 E7.57916
G1 X32.237 Y67.432 E7.94659
G1 X31.207 Y67.432 E8.02224
G1 X31.207 Y62.432 E8.38967
G1 X17.237 Y62.432 E9.41631
G1 X17.237 Y65.723 E9.65812
G1 X17.192 Y66.428 E9.71005
G1 X17.140 Y66.761 E9.73482
G1 X16.966 Y67.436 E9.78605
G1 X16.711 Y68.080 E9.83694
G1 X16.378 Y68.687 E9.88782
G1 X15.971 Y69.247 E9.93871
G1 X15.497 Y69.752 E9.98960
G1 X14.963 Y70.193 E10.04048
G1 X14.379 Y70.564 E10.09137
G1 X13.752 Y70.859 E10.14226
G1 X13.093 Y71.073 E10.19314
G1 X12.413 Y71.203 E10.24403
G1 X12.022 Y71.228 E10.27283
G1 X12.022 Y70.207 E10.34782
G1 X12.563 Y70.139 E10.38786
G1 X13.108 Y69.999 E10.42926
G1 X13.628 Y69.793 E10.47031
G1 X13.887 Y69.661 E10.49171
G1 X14.359 Y69.361 E10.53276
G1 X14.789 Y69.005 E10.57381
G1 X14.995 Y68.799 E10.59521
G1 X15.348 Y68.373 E10.63592
G1 X15.512 Y68.132 E10.65732
G1 X15.781 Y67.642 E10.69837
G1 X15.987 Y67.123 E10.73942
G1 X16.068 Y66.843 E10.76082
G1 X16.172 Y66.299 E10.80152
G1 X16.199 Y66.010 E10.82289
G1 X16.208 Y62.492 E11.08137
G1 X16.209 Y62.032 F7800.000
G1 X16.723 Y62.165 F7800.000
G1 X16.718 Y65.707 E11.63324 F120.000
G1 X16.682 Y66.360 E11.73522
G1 X16.566 Y66.951 E11.82906
G1 X16.477 Y67.277 E11.88173
G1 X16.246 Y67.861 E11.97955
G1 X15.943 Y68.411 E12.07737
G1 X15.571 Y68.916 E12.17515
G1 X15.144 Y69.377 E12.27293
G1 X14.661 Y69.777 E12.37075
G1 X14.131 Y70.113 E12.46857
G1 X13.561 Y70.377 E12.56635
G1 X12.964 Y70.570 E12.66409
G1 X12.290 Y70.697 E12.77100
G1 E9.77100 F2400.00000
G92 E0
G1 Z0.550 F7800.000
G1 X15.526 Y61.232 F7800.000
G1 Z0.350 F7800.000
G1 E3.00000 F2400.00000
G1 X32.919 Y61.232 E5.70994 F120.000
G1 X31.722 Y62.165 F7800.000
G1 X31.722 Y67.165 E6.48896 F120.000
G1 E3.48896 F2400.00000
G92 E0
G1 Z0.550 F7800.000
G1 X31.054 Y60.300 F7800.000
G1 Z0.350 F7800.000
G1 E3.00000 F2400.00000
G1 X23.510 Y44.121 E5.78142 F120.000
G1 E2.78142 F2400.00000
G92 E0
G1 Z0.550 F7800.000
G1 X15.748 Y30.714 F7800.000
G1 Z0.350 F7800.000
G1 E3.00000 F2400.00000
G1 X15.748 Y29.385 E3.09765 F120.000
G1 X33.677 Y29.385 E4.41516
G1 X33.677 Y30.714 E4.51280
G1 X15.808 Y30.714 E5.82591
G1 X16.698 Y31.250 F7800.000
G1 X15.212 Y31.250 E5.93511 F120.000
G1 X15.212 Y28.850 E6.11148
G1 X30.852 Y28.850 E7.26075
G1 X23.420 Y12.913 E8.55295
G1 X24.353 Y12.478 E8.62859
G1 X31.988 Y28.850 E9.95606
G1 X34.212 Y28.850 E10.11956
G1 X34.212 Y31.250 E10.29592
G1 X32.727 Y31.250 E10.40507
G1 X32.727 Y36.250 E10.77250
G1 X31.698 Y36.250 E10.84815
G1 X31.698 Y31.250 E11.21558
G1 X17.727 Y31.250 E12.24222
G1 X17.727 Y34.540 E12.48403
G1 X17.683 Y35.245 E12.53596
G1 X17.630 Y35.578 E12.56072
G1 X17.457 Y36.253 E12.61196
G1 X17.202 Y36.897 E12.66284
G1 X16.868 Y37.504 E12.71373
G1 X16.461 Y38.064 E12.76462
G1 X15.987 Y38.569 E12.81550
G1 X15.453 Y39.011 E12.86639
G1 X14.869 Y39.382 E12.91728
G1 X14.242 Y39.676 E12.96816
G1 X13.584 Y39.890 E13.01905
G1 X12.903 Y40.020 E13.06994
G1 X12.512 Y40.045 E13.09873
G1 X12.512 Y39.024 E13.17373
G1 X13.053 Y38.956 E13.21377
G1 X13.599 Y38.816 E13.25517
G1 X14.118 Y38.610 E13.29622
G1 X14.379 Y38.477 E13.31773
G1 X14.901 Y38.138 E13.36347
G1 X15.280 Y37.822 E13.39975
G1 X15.485 Y37.617 E13.42110
G1 X15.839 Y37.190 E13.46181
G1 X16.002 Y36.949 E13.48321
G1 X16.271 Y36.460 E13.52426
G1 X16.477 Y35.940 E13.56531
G1 X16.558 Y35.660 E13.58671
G1 X16.662 Y35.116 E13.62741
G1 X16.689 Y34.827 E13.64878
G1 X16.698 Y31.309 E13.90726
G1 X16.699 Y30.850 F7800.000
G1 X17.213 Y30.982 F7800.000
G1 X17.209 Y34.524 E14.45913 F120.000
G1 X17.172 Y35.177 E14.56111
G1 X17.056 Y35.768 E14.65495
G1 X16.967 Y36.094 E14.70762
G1 X16.736 Y36.678 E14.80544
G1 X16.434 Y37.228 E14.90326
G1 X16.061 Y37.733 E15.00104
G1 X15.635 Y38.194 E15.09882
G1 X15.150 Y38.592 E15.19662
G1 X14.621 Y38.931 E15.29441
G1 X14.051 Y39.194 E15.39219
G1 X13.455 Y39.388 E15.48993
G1 X12.780 Y39.514 E15.59684
G1 E12.59684 F2400.00000
G92 E0
G1 Z0.550 F7800.000
G1 X16.016 Y30.049 F7800.000
G1 Z0.350 F7800.000
G1 E3.00000 F2400.00000
G1 X33.409 Y30.049 E5.70993 F120.000
G1 X32.212 Y30.982 F7800.000
G1 X32.212 Y35.982 E6.48896 F120.000
G1 E3.48896 F2400.00000
G92 E0
G1 Z0.550 F7800.000
G1 X31.545 Y29.117 F7800.000
G1 Z0.350 F7800.000
G1 E3.00000 F2400.00000
G1 X24.000 Y12.938 E5.78142 F120.000
G1 E2.78142 F2400.00000
G92 E0
G1 Z0.550 F7800.000
G1 X40.679 Y30.323 F7800.000
G1 Z0.350 F7800.000
G1 E3.00000 F2400.00000
G1 X40.679 Y28.994 E3.09765 F120.000
G1 X58.608 Y28.994 E4.41516
G1 X58.608 Y30.323 E4.51280
G1 X40.739 Y30.323 E5.82591
G1 X41.630 Y30.858 F7800.000
G1 X40.144 Y30.858 E5.93511 F120.000
G1 X40.144 Y28.458 E6.11148
G1 X55.783 Y28.458 E7.26075
G1 X48.352 Y12.522 E8.55295
G1 X49.285 Y12.087 E8.62859
G1 X56.919 Y28.458 E9.95606
G1 X59.144 Y28.458 E10.11956
G1 X59.144 Y30.858 E10.29592
G1 X57.658 Y30.858 E10.40507
G1 X57.658 Y35.858 E10.77250
G1 X56.629 Y35.858 E10.84815
G1 X56.629 Y30.858 E11.21558
G1 X42.658 Y30.858 E12.24222
G1 X42.658 Y34.149 E12.48403
G1 X42.614 Y34.854 E12.53596
G1 X42.561 Y35.187 E12.56072
G1 X42.388 Y35.862 E12.61196
G1 X42.133 Y36.506 E12.66284
G1 X41.799 Y37.113 E12.71373
G1 X41.392 Y37.673 E12.76462
G1 X40.918 Y38.178 E12.81550
G1 X40.385 Y38.620 E12.86639
G1 X39.800 Y38.991 E12.91728
G1 X39.174 Y39.285 E12.96816
G1 X38.515 Y39.499 E13.01905
G1 X37.835 Y39.629 E13.06994
G1 X37.444 Y39.654 E13.09873
G1 X37.444 Y38.633 E13.17373
G1 X37.984 Y38.565 E13.21377
G1 X38.530 Y38.425 E13.25517
G1 X39.049 Y38.219 E13.29622
G1 X39.309 Y38.087 E13.31762
G1 X39.782 Y37.787 E13.35878
G1 X40.261 Y37.382 E13.40486
G1 X40.597 Y37.021 E13.44115
G1 X40.967 Y36.501 E13.48801
G1 X41.203 Y36.068 E13.52427
G1 X41.408 Y35.549 E13.56527
G1 X41.490 Y35.269 E13.58667
G1 X41.593 Y34.725 E13.62737
G1 X41.621 Y34.436 E13.64875
G1 X41.630 Y30.918 E13.90722
G1 X41.630 Y30.458 F7800.000
G1 X42.144 Y30.591 F7800.000
G1 X42.140 Y34.133 E14.45910 F120.000
G1 X42.104 Y34.786 E14.56107
G1 X41.987 Y35.377 E14.65491
G1 X41.898 Y35.703 E14.70758
G1 X41.668 Y36.287 E14.80540
G1 X41.363 Y36.836 E14.90321
G1 X40.996 Y37.345 E15.00101
G1 X40.564 Y37.801 E15.09881
G1 X40.083 Y38.203 E15.19661
G1 X39.552 Y38.539 E15.29443
G1 X38.983 Y38.803 E15.39221
G1 X38.386 Y38.997 E15.48994
G1 X37.712 Y39.123 E15.59686
G1 E12.59686 F2400.00000
G92 E0
G1 Z0.550 F7800.000
G1 X40.947 Y29.658 F7800.000
G1 Z0.350 F7800.000
G1 E3.00000 F2400.00000
G1 X58.340 Y29.658 E5.70993 F120.000
G1 X57.144 Y30.591 F7800.000
G1 X57.144 Y35.591 E6.48896 F120.000
G1 E3.48896 F2400.00000
G92 E0
G1 Z0.550 F7800.000
G1 X56.476 Y28.726 F7800.000
G1 Z0.350 F7800.000
G1 E3.00000 F2400.00000
G1 X48.931 Y12.547 E5.78142 F120.000
G1 E2.78142 F2400.00000
G92 E0
G1 Z0.550 F7800.000
G1 X65.553 Y28.410 F7800.000
G1 Z0.350 F7800.000
G1 E3.00000 F2400.00000
G1 X65.553 Y27.081 E3.09765 F120.000
G1 X83.482 Y27.081 E4.41516
G1 X83.482 Y28.410 E4.51280
G1 X65.613 Y28.410 E5.82591
G1 X66.504 Y28.946 F7800.000
G1 X65.018 Y28.946 E5.93511 F120.000
G1 X65.018 Y26.546 E6.11148
G1 X80.657 Y26.546 E7.26075
G1 X73.226 Y10.609 E8.55295
G1 X74.159 Y10.174 E8.62859
G1 X81.793 Y26.546 E9.95606
G1 X84.018 Y26.546 E10.11956
G1 X84.018 Y28.946 E10.29592
G1 X82.533 Y28.946 E10.40507
G1 X82.533 Y33.946 E10.77250
G1 X81.503 Y33.946 E10.84815
G1 X81.503 Y28.946 E11.21558
G1 X67.533 Y28.946 E12.24222
G1 X67.533 Y32.236 E12.48403
G1 X67.488 Y32.942 E12.53596
G1 X67.435 Y33.275 E12.56072
G1 X67.262 Y33.950 E12.61196
G1 X67.007 Y34.594 E12.66284
G1 X66.674 Y35.200 E12.71373
G1 X66.267 Y35.761 E12.76462
G1 X65.793 Y36.265 E12.81550
G1 X65.259 Y36.707 E12.86639
G1 X64.674 Y37.078 E12.91728
G1 X64.048 Y37.373 E12.96816
G1 X63.389 Y37.587 E13.01905
G1 X62.709 Y37.716 E13.06994
G1 X62.318 Y37.741 E13.09873
G1 X62.318 Y36.721 E13.17373
G1 X62.858 Y36.652 E13.21377
G1 X63.401 Y36.513 E13.25495
G1 X63.734 Y36.389 E13.28105
G1 X64.180 Y36.177 E13.31731
G1 X64.655 Y35.875 E13.35866
G1 X65.085 Y35.519 E13.39971
G1 X65.291 Y35.313 E13.42111
G1 X65.645 Y34.885 E13.46195
G1 X65.841 Y34.589 E13.48805
G1 X66.077 Y34.155 E13.52431
G1 X66.282 Y33.636 E13.56531
G1 X66.362 Y33.361 E13.58637
G1 X66.425 Y33.082 E13.60742
G1 X66.495 Y32.528 E13.64844
G1 X66.504 Y29.006 E13.90726
G1 X66.504 Y28.546 F7800.000
G1 X67.019 Y28.678 F7800.000
G1 X67.002 Y32.575 E14.51448 F120.000
G1 X66.932 Y33.170 E14.60780
G1 X66.857 Y33.481 E14.65753
G1 X66.772 Y33.792 E14.70782
G1 X66.542 Y34.375 E14.80545
G1 X66.238 Y34.924 E14.90326
G1 X65.867 Y35.430 E15.00102
G1 X65.440 Y35.890 E15.09879
G1 X64.957 Y36.291 E15.19662
G1 X64.426 Y36.627 E15.29444
G1 X63.858 Y36.893 E15.39225
G1 X63.260 Y37.084 E15.49001
G1 X62.586 Y37.211 E15.59692
G1 E12.59692 F2400.00000
G92 E0
G1 Z0.550 F7800.000
G1 X65.821 Y27.746 F7800.000
G1 Z0.350 F7800.000
G1 E3.00000 F2400.00000
G1 X83.214 Y27.746 E5.70993 F120.000
G1 X82.018 Y28.678 F7800.000
G1 X82.018 Y33.678 E6.48896 F120.000
G1 E3.48896 F2400.00000
G92 E0
G1 Z0.550 F7800.000
G1 X81.350 Y26.814 F7800.000
G1 Z0.350 F7800.000
G1 E3.00000 F2400.00000
G1 X73.805 Y10.634 E5.78142 F120.000
G1 Z0.350 F7800.000
G1 Z0.650 F7800.000
G1 E2.78142 F2400.00000
G92 E0
G1 Z0.850 F7800.000
G1 X31.929 Y60.310 F7800.000
G1 Z0.650 F7800.000
G1 E3.00000 F2400.00000
G1 X33.445 Y60.310 E3.08714 F1200.000
G1 X33.445 Y62.155 E3.19320
G1 X32.511 Y62.155 E3.24689
G1 X32.511 Y67.155 E3.53423
G1 X30.934 Y67.155 E3.62486
G1 X30.934 Y62.155 E3.91221
G1 X17.511 Y62.155 E4.68362
G1 X17.511 Y65.715 E4.88819
G1 X17.468 Y66.420 E4.92881
G1 X17.407 Y66.819 E4.95198
G1 X17.227 Y67.521 E4.99364
G1 X16.959 Y68.197 E5.03542
G1 X16.794 Y68.521 E5.05631
G1 X16.405 Y69.135 E5.09809
G1 X15.942 Y69.695 E5.13986
G1 X15.412 Y70.192 E5.18163
G1 X14.831 Y70.615 E5.22292
G1 X14.220 Y70.952 E5.26302
G1 X13.851 Y71.115 E5.28619
G1 X13.511 Y71.237 E5.30697
G1 X12.807 Y71.418 E5.34874
G1 X12.299 Y71.489 E5.37818
G1 X12.299 Y69.897 E5.46966
G1 X12.778 Y69.810 E5.49761
G1 X13.246 Y69.659 E5.52586
G1 X13.742 Y69.429 E5.55731
G1 X13.987 Y69.284 E5.57365
G1 X14.407 Y68.978 E5.60353
G1 X14.793 Y68.616 E5.63390
G1 X15.106 Y68.239 E5.66212
G1 X15.418 Y67.754 E5.69525
G1 X15.635 Y67.291 E5.72460
G1 X15.731 Y67.025 E5.74085
G1 X15.860 Y66.522 E5.77070
G1 X15.923 Y66.035 E5.79892
G1 X15.934 Y65.743 E5.81571
G1 X15.934 Y62.155 E6.02192
G1 X14.999 Y62.155 E6.07561
G1 X14.999 Y60.310 E6.18167
G1 X30.189 Y60.310 E7.05459
G1 X22.799 Y44.463 E8.05945
G1 X24.228 Y43.796 E8.15008
G1 X31.903 Y60.255 E9.19376
G1 X32.169 Y59.932 F7800.000
G1 X33.822 Y59.932 E9.26988 F600.000
G1 X33.822 Y62.532 E9.38960
G1 X32.888 Y62.532 E9.43262
G1 X32.888 Y62.932 E9.45104
G1 X32.888 Y67.532 E9.71540 F1200.000
G1 X32.737 Y67.532 E9.72408
G1 X30.707 Y67.532 E9.81753 F600.000
G1 X30.556 Y67.532 E9.82621 F1200.000
G1 X30.556 Y62.932 E10.09057
G1 X30.556 Y62.532 E10.10899 F600.000
G1 X17.888 Y62.532 E10.69232
G1 X17.888 Y62.932 E10.71074
G1 X17.888 Y65.726 E10.87131 F1200.000
G1 X17.843 Y66.460 E10.91356
G1 X17.778 Y66.888 E10.93845
G1 X17.586 Y67.638 E10.98291
G1 X17.455 Y68.002 E11.00517
G1 X17.301 Y68.358 E11.02743
G1 X16.928 Y69.036 E11.07192
G1 X16.473 Y69.662 E11.11642
G1 X15.943 Y70.227 E11.16092
G1 X15.346 Y70.720 E11.20542
G1 X15.028 Y70.937 E11.22751
G1 X14.388 Y71.290 E11.26958
G1 X13.991 Y71.465 E11.29447
G1 X13.627 Y71.596 E11.31669
G1 X12.877 Y71.789 E11.36119
G1 X12.495 Y71.849 E11.38345
G1 X11.922 Y71.892 E11.41646
G1 X11.922 Y71.741 E11.42512
G1 X11.922 Y69.711 E11.51858 F600.000
G1 X11.922 Y69.565 E11.52701 F1200.000
G1 X12.438 Y69.499 E11.55687
G1 X12.679 Y69.446 E11.57106
G1 X13.108 Y69.307 E11.59698
G1 X13.566 Y69.094 E11.62602
G1 X13.779 Y68.968 E11.64026
G1 X14.166 Y68.687 E11.66775
G1 X14.517 Y68.357 E11.69541
G1 X14.805 Y68.011 E11.72132
G1 X15.084 Y67.577 E11.75095
G1 X15.286 Y67.147 E11.77826
G1 X15.370 Y66.914 E11.79247
G1 X15.489 Y66.451 E11.81995
G1 X15.546 Y66.004 E11.84586
G1 X15.556 Y62.932 E12.02238
G1 X15.556 Y62.532 E12.04080 F600.000
G1 X14.622 Y62.532 E12.08382
G1 X14.622 Y59.932 E12.20354
G1 X29.596 Y59.932 E12.89305
G1 X29.410 Y59.532 E12.91337
G1 X22.298 Y44.280 E13.88052 F1200.000
G1 X22.435 Y44.216 E13.88920
G1 X24.274 Y43.359 E13.98265 F600.000
G1 X24.411 Y43.295 E13.99133 F1200.000
G1 X31.982 Y59.532 E15.02096
G1 X32.144 Y59.878 E15.03852 F600.000
G1 X32.227 Y60.328 F7800.000
G1 E12.03852 F2400.00000
G92 E0
G1 Z0.850 F7800.000
G1 X30.126 Y59.759 F7800.000
G1 Z0.650 F7800.000
G1 E3.00000 F2400.00000
G1 X31.048 Y58.838 E3.07491 F900.000
G1 X30.295 Y57.222 E3.17738
G1 X29.373 Y58.143 E3.25229
G1 X28.619 Y56.527 E3.35476
G1 X29.541 Y55.606 E3.42967
G1 X28.787 Y53.990 E3.53214
G1 X27.866 Y54.911 E3.60705
G1 X27.112 Y53.295 F7800.000
G1 X28.034 Y52.374 E3.68196 F900.000
G1 X27.280 Y50.758 E3.78443
G1 X26.359 Y51.679 E3.85934
G1 X25.605 Y50.063 E3.96182
G1 X26.527 Y49.142 E4.03673
G1 X25.773 Y47.526 E4.13920
G1 X24.852 Y48.447 E4.21411
G1 X24.098 Y46.831 E4.31658
G1 X25.020 Y45.910 E4.39149
G1 X24.266 Y44.294 E4.49396
G1 X23.344 Y45.215 E4.56887
G1 E1.56887 F2400.00000
G92 E0
G1 Z0.850 F7800.000
G1 X17.523 Y60.515 F7800.000
G1 Z0.650 F7800.000
G1 E3.00000 F2400.00000
G1 X16.088 Y61.950 E3.11662 F900.000
G1 X17.305 Y63.102 F7800.000
G1 X16.139 Y64.269 E3.21142 F900.000
G1 X17.305 Y65.472 E3.30772
G1 X16.043 Y66.734 E3.41029
G1 X16.165 Y68.982 E3.53968
G1 X14.980 Y70.167 E3.63597
G1 X12.733 Y70.045 E3.76531
G1 X12.505 Y70.272 E3.78384
G1 E0.78384 F2400.00000
G92 E0
G1 Z0.850 F7800.000
G1 X18.458 Y61.950 F7800.000
G1 Z0.650 F7800.000
G1 E3.00000 F2400.00000
G1 X19.893 Y60.515 E3.11662 F900.000
G1 X20.827 Y61.950 E3.21504
G1 X22.262 Y60.515 E3.33166
G1 X23.197 Y61.950 E3.43007
G1 X24.632 Y60.515 E3.54669
G1 X25.566 Y61.950 E3.64511
G1 X27.001 Y60.515 E3.76173
G1 X27.936 Y61.950 E3.86014
G1 X29.371 Y60.515 E3.97676
G1 X30.305 Y61.950 E4.07518
G1 X31.802 Y60.454 E4.19677
G1 X33.240 Y61.385 E4.29524
G1 X32.675 Y61.950 E4.34112
G1 X32.305 Y62.319 F7800.000
G1 X31.139 Y63.486 E4.43592 F900.000
G1 X32.305 Y64.689 E4.53222
G1 X31.139 Y65.855 E4.62702
G1 E1.62702 F2400.00000
G92 E0
G1 Z0.850 F7800.000
G1 X31.424 Y30.972 F7800.000
G1 Z0.650 F7800.000
G1 E3.00000 F2400.00000
G1 X18.001 Y30.972 E3.77141 F1200.000
G1 X18.001 Y34.540 E3.97647
G1 X17.955 Y35.275 E4.01877
G1 X17.898 Y35.634 E4.03967
G1 X17.717 Y36.338 E4.08144
G1 X17.450 Y37.014 E4.12321
G1 X17.285 Y37.338 E4.14411
G1 X16.895 Y37.952 E4.18588
G1 X16.432 Y38.512 E4.22766
G1 X15.902 Y39.009 E4.26943
G1 X15.321 Y39.432 E4.31072
G1 X14.710 Y39.769 E4.35082
G1 X14.341 Y39.932 E4.37398
G1 X14.001 Y40.054 E4.39477
G1 X13.297 Y40.235 E4.43654
G1 X12.790 Y40.306 E4.46598
G1 X12.790 Y38.714 E4.55746
G1 X13.001 Y38.688 E4.56971
G1 X13.477 Y38.566 E4.59794
G1 X13.769 Y38.463 E4.61573
G1 X14.207 Y38.258 E4.64354
G1 X14.475 Y38.102 E4.66137
G1 X14.898 Y37.795 E4.69136
G1 X15.283 Y37.433 E4.72176
G1 X15.615 Y37.033 E4.75164
G1 X15.769 Y36.806 E4.76737
G1 X15.908 Y36.571 E4.78310
G1 X16.129 Y36.100 E4.81302
G1 X16.305 Y35.556 E4.84584
G1 X16.392 Y35.075 E4.87394
G1 X16.424 Y34.568 E4.90315
G1 X16.424 Y30.972 E5.10978
