; generated by Slic3r 1.2.9 on 2018-03-09 at 02:08:19

; external perimeters extrusion width = 0.40mm
; perimeters extrusion width = 0.48mm
; infill extrusion width = 0.48mm
; solid infill extrusion width = 0.48mm
; top infill extrusion width = 0.48mm
; support material extrusion width = 0.40mm

M107
M190 S50 ; set bed temperature
M104 S220 ; set temperature
G28 ; home all axes
G1 Z5 F5000 ; lift nozzle

M109 S220 ; wait for temperature to be reached
G21 ; set units to millimeters
G90 ; use absolute coordinates
M82 ; use absolute distances for extrusion
G92 E0
G1 Z0.350 F7800.000
G1 E-3.00000 F2400.00000
G92 E0
G1 Z0.550 F7800.000
G1 X20.107 Y40.707 F7800.000
G1 Z0.350 F7800.000
G1 E3.00000 F2400.00000
G1 X36.435 Y40.707 E4.19993 F120.000
G1 X36.435 Y42.035 E4.29758
G1 X20.107 Y42.035 E5.49751
G1 X20.107 Y40.767 E5.59075
G1 E2.59075 F2400.00000
G92 E0
G1 Z0.550 F7800.000
G1 X27.774 Y42.571 F7800.000
G1 Z0.350 F7800.000
G1 E3.00000 F2400.00000
G1 X19.571 Y42.571 E3.60283 F120.000
G1 X19.571 Y40.171 E3.77920
G1 X36.971 Y40.171 E5.05785
G1 X36.971 Y42.571 E5.23422
G1 X28.768 Y42.571 E5.83699
G1 X28.768 Y45.862 E6.07880
G1 X28.724 Y46.564 E6.13051
G1 X28.664 Y46.929 E6.15769
G1 X28.498 Y47.573 E6.20660
G1 X28.371 Y47.921 E6.23379
G1 X28.088 Y48.519 E6.28241
G1 X27.715 Y49.106 E6.33350
G1 X27.510 Y49.371 E6.35819
G1 X27.034 Y49.878 E6.40927
G1 X26.502 Y50.318 E6.45999
G1 X25.919 Y50.688 E6.51072
G1 X25.295 Y50.982 E6.56144
G1 X24.571 Y51.217 E6.61735
G1 X24.571 Y50.190 E6.69281
G1 X25.188 Y49.946 E6.74160
G1 X25.684 Y49.673 E6.78316
G1 X26.141 Y49.341 E6.82472
G1 X26.554 Y48.954 E6.86628
G1 X26.914 Y48.518 E6.90783
G1 X27.217 Y48.040 E6.94939
G1 X27.458 Y47.529 E6.99095
G1 X27.633 Y46.991 E7.03251
G1 X27.738 Y46.440 E7.07371
G1 X27.765 Y46.149 E7.09517
G1 X27.774 Y42.631 E7.35372
G1 X27.775 Y42.171 F7800.000
G1 X28.272 Y42.303 F7800.000
G1 X28.256 Y46.183 E7.95829 F120.000
G1 X28.230 Y46.508 E8.00901
G1 X28.174 Y46.825 E8.05924
G1 X28.105 Y47.127 E8.10739
G1 X27.914 Y47.725 E8.20521
G1 X27.653 Y48.279 E8.30071
G1 X27.309 Y48.820 E8.40058
G1 X26.922 Y49.280 E8.49423
G1 X26.690 Y49.512 E8.54531
G1 X26.207 Y49.912 E8.64304
G1 X25.935 Y50.096 E8.69411
G1 X25.410 Y50.384 E8.78747
G1 X24.839 Y50.613 E8.88337
G1 E5.88337 F2400.00000
G92 E0
G1 Z0.550 F7800.000
G1 X20.374 Y41.371 F7800.000
G1 Z0.350 F7800.000
G1 E3.00000 F2400.00000
G1 X36.168 Y41.371 E5.46065 F120.000
G1 E2.46065 F2400.00000
G92 E0
G1 Z0.550 F7800.000
G1 X22.065 Y21.886 F7800.000
G1 Z0.350 F7800.000
G1 E3.00000 F2400.00000
G1 X22.065 Y20.557 E3.09765 F120.000
G1 X38.393 Y20.557 E4.29758
G1 X38.393 Y21.886 E4.39522
G1 X22.125 Y21.886 E5.59075
G1 E2.59075 F2400.00000
G92 E0
G1 Z0.550 F7800.000
G1 X29.732 Y22.421 F7800.000
G1 Z0.350 F7800.000
G1 E3.00000 F2400.00000
G1 X21.529 Y22.421 E3.60283 F120.000
G1 X21.529 Y20.021 E3.77920
G1 X38.929 Y20.021 E5.05785
G1 X38.929 Y22.421 E5.23422
G1 X30.726 Y22.421 E5.83699
G1 X30.726 Y25.712 E6.07880
G1 X30.682 Y26.414 E6.13051
G1 X30.622 Y26.779 E6.15769
G1 X30.456 Y27.423 E6.20660
G1 X30.329 Y27.771 E6.23379
G1 X30.046 Y28.369 E6.28241
G1 X29.674 Y28.956 E6.33350
G1 X29.468 Y29.222 E6.35819
G1 X28.992 Y29.728 E6.40927
G1 X28.460 Y30.168 E6.45999
G1 X27.877 Y30.538 E6.51072
G1 X27.253 Y30.832 E6.56144
G1 X26.529 Y31.067 E6.61735
G1 X26.529 Y30.040 E6.69281
G1 X27.146 Y29.796 E6.74160
G1 X27.642 Y29.523 E6.78316
G1 X28.099 Y29.191 E6.82472
G1 X28.512 Y28.804 E6.86628
G1 X28.872 Y28.368 E6.90784
G1 X29.175 Y27.891 E6.94939
G1 X29.416 Y27.379 E6.99095
G1 X29.591 Y26.841 E7.03251
G1 X29.696 Y26.290 E7.07371
G1 X29.723 Y26.000 E7.09517
G1 X29.732 Y22.481 E7.35372
G1 X29.733 Y22.021 F7800.000
G1 X30.230 Y22.153 F7800.000
G1 X30.214 Y26.034 E7.95829 F120.000
G1 X30.188 Y26.358 E8.00901
G1 X30.132 Y26.676 E8.05924
G1 X30.063 Y26.977 E8.10739
G1 X29.872 Y27.575 E8.20521
G1 X29.611 Y28.129 E8.30071
G1 X29.267 Y28.670 E8.40058
G1 X28.880 Y29.130 E8.49423
G1 X28.648 Y29.363 E8.54531
G1 X28.165 Y29.762 E8.64304
G1 X27.893 Y29.946 E8.69411
G1 X27.368 Y30.235 E8.78747
G1 X26.797 Y30.463 E8.88337
G1 E5.88337 F2400.00000
G92 E0
G1 Z0.550 F7800.000
G1 X22.332 Y21.221 F7800.000
G1 Z0.350 F7800.000
G1 E3.00000 F2400.00000
G1 X38.126 Y21.221 E5.46065 F120.000
G1 Z0.350 F7800.000
G1 Z0.650 F7800.000
G1 E2.46065 F2400.00000
G92 E0
G1 Z0.850 F7800.000
G1 X29.025 Y42.294 F7800.000
G1 Z0.650 F7800.000
G1 E3.00000 F2400.00000
G1 X29.014 Y46.232 E3.22635 F1200.000
G1 X28.925 Y46.940 E3.26735
G1 X28.743 Y47.649 E3.30940
G1 X28.473 Y48.329 E3.35144
G1 X28.129 Y48.954 E3.39245
G1 X27.930 Y49.247 E3.41281
G1 X27.548 Y49.715 E3.44751
G1 X27.206 Y50.069 E3.47579
G1 X26.939 Y50.305 E3.49629
G1 X26.660 Y50.520 E3.51654
G1 X26.043 Y50.913 E3.55858
G1 X25.389 Y51.220 E3.60010
G1 X24.848 Y51.396 E3.63277
G1 X24.848 Y49.800 E3.72447
G1 X25.074 Y49.717 E3.73829
G1 X25.546 Y49.457 E3.76930
G1 X25.978 Y49.143 E3.79995
G1 X26.367 Y48.778 E3.83060
G1 X26.707 Y48.367 E3.86125
G1 X26.993 Y47.917 E3.89190
G1 X27.220 Y47.434 E3.92255
G1 X27.384 Y46.927 E3.95320
G1 X27.484 Y46.403 E3.98384
G1 X27.517 Y45.889 E4.01345
G1 X27.517 Y42.294 E4.22007
G1 X19.848 Y42.294 E4.66077
G1 X19.848 Y40.448 E4.76683
G1 X36.694 Y40.448 E5.73493
G1 X36.694 Y42.294 E5.84099
G1 X29.085 Y42.294 E6.27825
G1 X29.403 Y42.671 F7800.000
G1 X29.403 Y43.071 E6.29667 F600.000
G1 X29.403 Y45.868 E6.45740 F1200.000
G1 X29.354 Y46.639 E6.50183
G1 X29.294 Y47.017 E6.52379
G1 X29.102 Y47.766 E6.56822
G1 X28.818 Y48.484 E6.61265
G1 X28.644 Y48.825 E6.63460
G1 X28.233 Y49.473 E6.67871
G1 X27.831 Y49.966 E6.71528
G1 X27.467 Y50.342 E6.74533
G1 X26.877 Y50.829 E6.78930
G1 X26.225 Y51.244 E6.83374
G1 X25.528 Y51.572 E6.87798
G1 X24.795 Y51.810 E6.92230
G1 X24.471 Y51.875 E6.94128
G1 X24.471 Y51.745 E6.94876
G1 X24.471 Y49.688 E7.04347 F600.000
G1 X24.471 Y49.538 E7.05212 F1200.000
G1 X24.916 Y49.373 E7.07942
G1 X25.344 Y49.137 E7.10746
G1 X25.737 Y48.852 E7.13539
G1 X26.091 Y48.519 E7.16331
G1 X26.401 Y48.145 E7.19123
G1 X26.661 Y47.735 E7.21915
G1 X26.868 Y47.295 E7.24708
G1 X27.018 Y46.833 E7.27500
G1 X27.109 Y46.356 E7.30292
G1 X27.139 Y45.877 E7.33048
G1 X27.139 Y43.071 E7.49175
G1 X27.139 Y42.671 E7.51017 F600.000
G1 X19.471 Y42.671 E7.86327
G1 X19.471 Y40.071 E7.98299
G1 X37.071 Y40.071 E8.79341
G1 X37.071 Y42.671 E8.91313
G1 X29.463 Y42.671 E9.26347
G1 X29.003 Y42.671 F7800.000
G1 X27.722 Y42.221 F7800.000
G1 X29.289 Y40.653 E9.39272 F600.000
G1 E6.39272 F2400.00000
G92 E0
G1 Z0.850 F7800.000
G1 X27.253 Y42.088 F7800.000
G1 Z0.650 F7800.000
G1 E3.00000 F2400.00000
G1 X28.688 Y40.653 E3.11835 F600.000
G1 X28.087 Y40.653 E3.15342
G1 X26.652 Y42.088 E3.27177
G1 X26.051 Y42.088 E3.30683
G1 X27.485 Y40.653 E3.42519
G1 X26.884 Y40.653 E3.46025
G1 X25.449 Y42.088 E3.57861
G1 X24.848 Y42.088 F7800.000
G1 X26.283 Y40.653 E3.69696 F600.000
G1 X25.682 Y40.653 E3.73202
G1 X24.247 Y42.088 E3.85038
G1 X23.646 Y42.088 E3.88544
G1 X25.081 Y40.653 E4.00380
G1 X24.480 Y40.653 E4.03886
G1 X23.045 Y42.088 E4.15721
G1 X22.443 Y42.088 E4.19228
G1 X23.878 Y40.653 E4.31063
G1 X23.277 Y40.653 E4.34569
G1 X21.842 Y42.088 E4.46405
G1 X21.241 Y42.088 E4.49911
G1 X22.676 Y40.653 E4.61747
G1 X22.075 Y40.653 E4.65253
G1 X20.640 Y42.088 E4.77088
G1 X20.054 Y42.074 E4.80509
G1 X21.474 Y40.653 E4.92222
G1 X20.872 Y40.653 E4.95729
G1 X20.054 Y41.472 E5.02483
G1 X20.054 Y40.871 E5.05989
G1 X20.271 Y40.653 E5.07785
G1 E2.07785 F2400.00000
G92 E0
G1 Z0.850 F7800.000
G1 X27.086 Y48.267 F7800.000
G1 Z0.650 F7800.000
G1 E3.00000 F2400.00000
G1 X28.748 Y46.605 E3.13706 F600.000
G1 X28.809 Y45.943 E3.17585
G1 X27.542 Y47.210 E3.28038
G1 X27.692 Y46.459 E3.32511
G1 X28.811 Y45.340 E3.41736
G1 X28.813 Y44.737 E3.45253
G1 X27.722 Y45.828 E3.54248
G1 X27.722 Y45.226 E3.57755
G1 X28.814 Y44.134 E3.66765
G1 X28.816 Y43.531 E3.70281
G1 X27.722 Y44.625 E3.79306
G1 X27.722 Y44.024 E3.82812
G1 X28.818 Y42.928 E3.91852
G1 X28.820 Y42.325 E3.95368
G1 X27.722 Y43.423 E4.04422
G1 X27.722 Y42.822 E4.07929
G1 X29.890 Y40.653 E4.25813
G1 X30.491 Y40.653 E4.29319
G1 X29.056 Y42.088 E4.41154
G1 X29.658 Y42.088 E4.44661
G1 X31.093 Y40.653 E4.56496
G1 X31.694 Y40.653 E4.60002
G1 X30.259 Y42.088 E4.71838
G1 X30.860 Y42.088 E4.75344
G1 X32.295 Y40.653 E4.87180
G1 X32.896 Y40.653 E4.90686
G1 X31.461 Y42.088 E5.02521
G1 X32.062 Y42.088 E5.06028
G1 X33.497 Y40.653 E5.17863
G1 X34.099 Y40.653 E5.21369
G1 X32.664 Y42.088 E5.33205
G1 X33.265 Y42.088 E5.36711
G1 X34.700 Y40.653 E5.48547
G1 X35.301 Y40.653 E5.52053
G1 X33.866 Y42.088 E5.63888
G1 X34.467 Y42.088 E5.67395
G1 X35.902 Y40.653 E5.79230
G1 X36.476 Y40.681 E5.82580
G1 X35.068 Y42.088 E5.94190
G1 X35.670 Y42.088 E5.97696
G1 X36.488 Y41.269 E6.04450
G1 X36.488 Y41.871 E6.07957
G1 X36.271 Y42.088 E6.09752
G1 E3.09752 F2400.00000
G92 E0
G1 Z0.850 F7800.000
G1 X28.574 Y47.381 F7800.000
G1 Z0.650 F7800.000
G1 E3.00000 F2400.00000
G1 X25.054 Y50.901 E3.29036 F600.000
G1 X25.814 Y50.742 E3.33566
G1 X28.118 Y48.438 E3.52568
G1 E0.52568 F2400.00000
G92 E0
G1 Z0.850 F7800.000
G1 X25.667 Y49.686 F7800.000
G1 Z0.650 F7800.000
G1 E3.00000 F2400.00000
G1 X25.054 Y50.300 E3.05063 F600.000
G1 E0.05063 F2400.00000
G92 E0
G1 Z0.850 F7800.000
G1 X29.475 Y22.144 F7800.000
G1 Z0.650 F7800.000
G1 E3.00000 F2400.00000
G1 X21.806 Y22.144 E3.44070 F1200.000
G1 X21.806 Y20.299 E3.54676
G1 X38.652 Y20.299 E4.51486
G1 X38.652 Y22.144 E4.62092
G1 X30.983 Y22.144 E5.06162
G1 X30.972 Y26.083 E5.28797
G1 X30.883 Y26.791 E5.32897
G1 X30.701 Y27.499 E5.37102
G1 X30.431 Y28.179 E5.41306
G1 X30.087 Y28.804 E5.45407
G1 X29.888 Y29.098 E5.47443
G1 X29.506 Y29.565 E5.50914
G1 X29.164 Y29.919 E5.53741
G1 X28.897 Y30.155 E5.55791
G1 X28.618 Y30.371 E5.57816
G1 X28.001 Y30.763 E5.62020
G1 X27.347 Y31.070 E5.66172
G1 X26.806 Y31.246 E5.69439
G1 X26.806 Y29.651 E5.78609
G1 X27.032 Y29.567 E5.79991
G1 X27.505 Y29.307 E5.83092
G1 X27.936 Y28.994 E5.86157
G1 X28.325 Y28.628 E5.89222
G1 X28.665 Y28.218 E5.92287
G1 X28.951 Y27.767 E5.95352
G1 X29.178 Y27.285 E5.98417
G1 X29.342 Y26.777 E6.01482
G1 X29.442 Y26.254 E6.04546
G1 X29.475 Y25.739 E6.07507
G1 X29.475 Y22.204 E6.27825
G1 X29.097 Y22.521 F7800.000
G1 X21.429 Y22.521 E6.63135 F600.000
G1 X21.429 Y19.921 E6.75107
G1 X39.029 Y19.921 E7.56149
G1 X39.029 Y22.521 E7.68121
G1 X31.361 Y22.521 E8.03431
G1 X31.361 Y22.921 E8.05273
G1 X31.361 Y25.718 E8.21346 F1200.000
G1 X31.312 Y26.490 E8.25789
G1 X31.252 Y26.867 E8.27985
G1 X31.060 Y27.616 E8.32428
G1 X30.776 Y28.335 E8.36871
G1 X30.602 Y28.675 E8.39067
G1 X30.191 Y29.323 E8.43478
G1 X29.789 Y29.816 E8.47134
G1 X29.425 Y30.192 E8.50139
G1 X28.836 Y30.680 E8.54537
G1 X28.183 Y31.094 E8.58980
G1 X27.486 Y31.422 E8.63404
G1 X26.753 Y31.660 E8.67836
G1 X26.429 Y31.726 E8.69734
G1 X26.429 Y31.596 E8.70482
G1 X26.429 Y29.539 E8.79954 F600.000
G1 X26.429 Y29.388 E8.80819 F1200.000
G1 X26.874 Y29.223 E8.83548
G1 X27.302 Y28.988 E8.86353
G1 X27.695 Y28.702 E8.89145
G1 X28.049 Y28.370 E8.91937
G1 X28.359 Y27.995 E8.94729
G1 X28.619 Y27.585 E8.97522
G1 X28.826 Y27.145 E9.00314
G1 X28.976 Y26.683 E9.03106
G1 X29.067 Y26.206 E9.05898
G1 X29.097 Y25.728 E9.08654
G1 X29.097 Y22.921 E9.24781
G1 X29.097 Y22.581 E9.26347 F600.000
G1 X29.097 Y22.121 F7800.000
G1 X29.211 Y21.939 F7800.000
G1 X30.646 Y20.504 E9.38182 F600.000
G1 X30.045 Y20.504 E9.41689
G1 X28.610 Y21.939 E9.53524
G1 X28.009 Y21.939 E9.57030
G1 X29.444 Y20.504 E9.68866
G1 X28.842 Y20.504 E9.72372
G1 X27.407 Y21.939 E9.84208
G1 X26.806 Y21.939 F7800.000
G1 X28.241 Y20.504 E9.96043 F600.000
G1 X27.640 Y20.504 E9.99549
G1 X26.205 Y21.939 E10.11385
G1 X25.604 Y21.939 E10.14891
G1 X27.039 Y20.504 E10.26727
G1 X26.438 Y20.504 E10.30233
G1 X25.003 Y21.939 E10.42068
G1 X24.401 Y21.939 E10.45575
G1 X25.836 Y20.504 E10.57410
G1 X25.235 Y20.504 E10.60916
G1 X23.800 Y21.939 E10.72752
G1 X23.199 Y21.939 E10.76258
G1 X24.634 Y20.504 E10.88094
G1 X24.033 Y20.504 E10.91600
G1 X22.598 Y21.939 E11.03435
G1 X22.012 Y21.924 E11.06856
G1 X23.432 Y20.504 E11.18569
G1 X22.830 Y20.504 E11.22076
G1 X22.012 Y21.323 E11.28830
G1 X22.012 Y20.722 E11.32336
G1 X22.229 Y20.504 E11.34132
G1 E8.34132 F2400.00000
G92 E0
G1 Z0.850 F7800.000
G1 X29.680 Y22.071 F7800.000
G1 Z0.650 F7800.000
G1 E3.00000 F2400.00000
G1 X31.247 Y20.504 E3.12925 F600.000
G1 E0.12925 F2400.00000
G92 E0
G1 Z0.850 F7800.000
G1 X30.532 Y27.231 F7800.000
G1 Z0.650 F7800.000
G1 E3.00000 F2400.00000
G1 X27.012 Y30.751 E3.29036 F600.000
G1 X27.772 Y30.592 E3.33566
G1 X30.076 Y28.288 E3.52568
G1 X29.044 Y28.117 F7800.000
G1 X30.706 Y26.456 E3.66273 F600.000
G1 X30.767 Y25.793 E3.70152
G1 X29.500 Y27.061 E3.80606
G1 X29.650 Y26.309 E3.85078
G1 X30.769 Y25.190 E3.94304
G1 X30.771 Y24.587 E3.97821
G1 X29.680 Y25.678 E4.06816
G1 X29.680 Y25.077 E4.10322
G1 X30.772 Y23.984 E4.19332
G1 X30.774 Y23.382 E4.22849
G1 X29.680 Y24.476 E4.31874
G1 X29.680 Y23.874 E4.35380
G1 X30.776 Y22.779 E4.44419
G1 X30.778 Y22.176 E4.47936
G1 X29.680 Y23.273 E4.56990
G1 X29.680 Y22.672 E4.60496
G1 X31.848 Y20.504 E4.78380
G1 X32.449 Y20.504 E4.81887
G1 X31.015 Y21.939 E4.93722
G1 X31.616 Y21.939 E4.97228
G1 X33.051 Y20.504 E5.09064
G1 X33.652 Y20.504 E5.12570
G1 X32.217 Y21.939 E5.24406
G1 X32.818 Y21.939 E5.27912
G1 X34.253 Y20.504 E5.39747
G1 X34.854 Y20.504 E5.43254
G1 X33.419 Y21.939 E5.55089
G1 X34.020 Y21.939 E5.58595
G1 X35.455 Y20.504 E5.70431
G1 X36.057 Y20.504 E5.73937
G1 X34.622 Y21.939 E5.85772
G1 X35.223 Y21.939 E5.89279
G1 X36.658 Y20.504 E6.01114
G1 X37.259 Y20.504 E6.04621
G1 X35.824 Y21.939 E6.16456
G1 X36.425 Y21.939 E6.19962
G1 X37.860 Y20.504 E6.31798
G1 X38.434 Y20.531 E6.35148
G1 X37.026 Y21.939 E6.46757
G1 X37.628 Y21.939 E6.50264
G1 X38.446 Y21.120 E6.57018
G1 X38.446 Y21.721 E6.60524
G1 X38.229 Y21.939 E6.62320
G1 E3.62320 F2400.00000
G92 E0
G1 Z0.850 F7800.000
G1 X27.625 Y29.536 F7800.000
G1 Z0.650 F7800.000
G1 E3.00000 F2400.00000
G1 X27.012 Y30.150 E3.05063 F600.000
G1 Z0.950 F7800.000
G1 E0.05063 F2400.00000
G92 E0
G1 Z1.150 F7800.000
G1 X29.347 Y42.294 F7800.000
G1 Z0.950 F7800.000
G1 E3.00000 F2400.00000
G1 X29.335 Y46.252 E3.22751 F1200.000
G1 X29.299 Y46.632 E3.24944
G1 X29.156 Y47.382 E3.29329
G1 X28.920 Y48.107 E3.33714
G1 X28.768 Y48.458 E3.35907
G1 X28.401 Y49.126 E3.40292
G1 X27.952 Y49.744 E3.44677
G1 X27.430 Y50.300 E3.49062
G1 X27.144 Y50.552 E3.51255
G1 X26.842 Y50.786 E3.53448
G1 X26.198 Y51.195 E3.57833
G1 X25.508 Y51.520 E3.62218
G1 X24.848 Y51.736 E3.66206
G1 X24.848 Y49.459 E3.79292
G1 X25.374 Y49.185 E3.82701
G1 X25.773 Y48.895 E3.85534
G1 X26.132 Y48.558 E3.88367
G1 X26.447 Y48.178 E3.91200
G1 X26.711 Y47.762 E3.94033
G1 X26.921 Y47.316 E3.96866
G1 X27.073 Y46.847 E3.99698
G1 X27.165 Y46.363 E4.02531
G1 X27.195 Y45.889 E4.05260
G1 X27.195 Y42.294 E4.25922
G1 X19.848 Y42.294 E4.68145
G1 X19.848 Y40.448 E4.78751
G1 X36.694 Y40.448 E5.75561
G1 X36.694 Y42.294 E5.86167
G1 X29.407 Y42.294 E6.28044
G1 X29.724 Y42.671 F7800.000
G1 X29.724 Y45.868 E6.42765 F600.000
G1 X29.711 Y46.276 E6.44646
G1 X29.673 Y46.680 E6.46512
G1 X29.610 Y47.080 E6.48379
G1 X29.521 Y47.476 E6.50246
G1 X29.408 Y47.865 E6.52112
G1 X29.271 Y48.246 E6.53979
G1 X29.110 Y48.618 E6.55846
G1 X28.926 Y48.980 E6.57712
G1 X28.719 Y49.329 E6.59579
G1 X28.492 Y49.664 E6.61446
G1 X28.243 Y49.984 E6.63312
G1 X27.975 Y50.288 E6.65179
G1 X27.688 Y50.575 E6.67046
G1 X27.384 Y50.843 E6.68912
G1 X27.064 Y51.092 E6.70779
G1 X26.729 Y51.319 E6.72646
G1 X26.380 Y51.526 E6.74512
G1 X26.019 Y51.710 E6.76379
G1 X25.646 Y51.871 E6.78246
G1 X25.265 Y52.008 E6.80112
G1 X24.878 Y52.121 E6.81968
G1 X24.471 Y52.202 E6.83879
G1 X24.471 Y49.201 E6.97696
G1 X24.781 Y49.081 E6.99225
G1 X25.172 Y48.866 E7.01280
G1 X25.532 Y48.604 E7.03331
G1 X25.857 Y48.299 E7.05382
G1 X26.141 Y47.956 E7.07433
G1 X26.380 Y47.580 E7.09485
G1 X26.569 Y47.177 E7.11536
G1 X26.707 Y46.753 E7.13587
G1 X26.790 Y46.316 E7.15638
G1 X26.818 Y45.877 E7.17661
G1 X26.818 Y42.671 E7.32424
G1 X19.471 Y42.671 E7.66254
G1 X19.471 Y40.071 E7.78226
G1 X37.071 Y40.071 E8.59268
G1 X37.071 Y42.671 E8.71240
G1 X29.784 Y42.671 E9.04794
G1 X29.324 Y42.671 F7800.000
G1 E6.04794 F2400.00000
G92 E0
G1 Z1.150 F7800.000
G1 X26.827 Y42.088 F7800.000
