; generated by Slic3r 1.2.9 on 2018-03-08 at 22:19:11

; external perimeters extrusion width = 0.40mm
; perimeters extrusion width = 0.48mm
; infill extrusion width = 0.48mm
; solid infill extrusion width = 0.48mm
; top infill extrusion width = 0.48mm
; support material extrusion width = 0.40mm

M107
M190 S50 ; set bed temperature
M104 S220 ; set temperature
G28 ; home all axes
G1 Z5 F5000 ; lift nozzle

M109 S220 ; wait for temperature to be reached
G21 ; set units to millimeters
G90 ; use absolute coordinates
M82 ; use absolute distances for extrusion
G92 E0
G1 Z0.350 F7800.000
G1 E-3.00000 F2400.00000
G92 E0
G1 Z0.550 F7800.000
G1 X39.357 Y45.852 F7800.000
G1 Z0.350 F7800.000
G1 E3.00000 F2400.00000
G1 X40.267 Y45.145 E3.08469 F120.000
G1 X41.244 Y44.484 E3.17135
G1 X42.211 Y43.912 E3.25394
G1 X43.237 Y43.389 E3.33859
G1 X44.295 Y42.932 E3.42323
G1 X45.378 Y42.541 E3.50788
G1 X46.484 Y42.220 E3.59253
G1 X47.609 Y41.969 E3.67718
G1 X48.747 Y41.788 E3.76188
G1 X49.921 Y41.679 E3.84854
G1 X51.044 Y41.644 E3.93112 F120.000
G1 X52.196 Y41.680 E4.01577
G1 X53.342 Y41.788 E4.10035
G1 X54.446 Y41.961 E4.18245
G1 X55.604 Y42.220 E4.26972
G1 X56.711 Y42.541 E4.35437
G1 X57.794 Y42.932 E4.43902
G1 X58.852 Y43.389 E4.52366
G1 X59.878 Y43.912 E4.60831
G1 X60.869 Y44.498 E4.69296
G1 X61.822 Y45.146 E4.77761
G1 X62.732 Y45.852 E4.86226
G1 X63.596 Y46.614 E4.94691
G1 X64.411 Y47.428 E5.03156
G1 X65.173 Y48.292 E5.11620
G1 X65.879 Y49.202 E5.20085
G1 X66.526 Y50.155 E5.28550
G1 X67.112 Y51.147 E5.37015
G1 X67.635 Y52.173 E5.45480
G1 X68.093 Y53.230 E5.53944
G1 X68.474 Y54.287 E5.62203
G1 X68.804 Y55.419 E5.70869
G1 X69.056 Y56.544 E5.79338
G1 X69.236 Y57.682 E5.87803
G1 X69.344 Y58.829 E5.96268
G1 X69.381 Y59.980 E6.04733
G1 X69.345 Y61.103 E6.12991
G1 X69.236 Y62.277 E6.21658
G1 X69.056 Y63.416 E6.30127
G1 X68.804 Y64.540 E6.38592
G1 X68.483 Y65.646 E6.47057
G1 X68.093 Y66.730 E6.55522
G1 X67.635 Y67.787 E6.63986
G1 X67.113 Y68.813 E6.72451
G1 X66.526 Y69.805 E6.80917
G1 X65.879 Y70.758 E6.89381
G1 X65.173 Y71.668 E6.97845
G1 X64.411 Y72.532 E7.06315
G1 X63.575 Y73.365 E7.14982
G1 X62.732 Y74.108 E7.23240
G1 X61.822 Y74.814 E7.31705
G1 X60.869 Y75.462 E7.40169
G1 X59.878 Y76.048 E7.48634
G1 X58.852 Y76.571 E7.57100
G1 X57.794 Y77.028 E7.65564
G1 X56.711 Y77.419 E7.74029
G1 X55.604 Y77.740 E7.82494
G1 X54.480 Y77.991 E7.90958
G1 X53.343 Y78.171 E7.99423
G1 X52.196 Y78.280 E8.07888
G1 X51.044 Y78.316 E8.16353
G1 X49.893 Y78.280 E8.24822
G1 X48.719 Y78.167 E8.33489
G1 X47.609 Y77.991 E8.41747
G1 X46.484 Y77.740 E8.50212
G1 X45.378 Y77.419 E8.58677
G1 X44.295 Y77.028 E8.67142
G1 X43.237 Y76.571 E8.75606
G1 X42.211 Y76.048 E8.84071
G1 X41.219 Y75.461 E8.92541
G1 X40.245 Y74.797 E9.01207
G1 X39.357 Y74.108 E9.09465
G1 X38.493 Y73.346 E9.17930
G1 X37.678 Y72.532 E9.26395
G1 X36.916 Y71.668 E9.34860
G1 X36.210 Y70.758 E9.43325
G1 X35.563 Y69.805 E9.51789
G1 X34.976 Y68.813 E9.60254
G1 X34.454 Y67.787 E9.68720
G1 X33.996 Y66.730 E9.77184
G1 X33.606 Y65.646 E9.85649
G1 X33.285 Y64.540 E9.94114
G1 X33.033 Y63.416 E10.02578
G1 X32.853 Y62.278 E10.11043
G1 X32.745 Y61.131 E10.19508
G1 X32.708 Y59.980 E10.27973
G1 X32.745 Y58.829 E10.36438
G1 X32.853 Y57.682 E10.44903
G1 X33.033 Y56.544 E10.53367
G1 X33.285 Y55.420 E10.61832
G1 X33.606 Y54.314 E10.70297
G1 X33.996 Y53.230 E10.78762
G1 X34.454 Y52.173 E10.87227
G1 X34.976 Y51.147 E10.95692
G1 X35.563 Y50.155 E11.04157
G1 X36.210 Y49.202 E11.12621
G1 X36.916 Y48.292 E11.21086
G1 X37.678 Y47.428 E11.29551
G1 X38.493 Y46.614 E11.38016
G1 X39.312 Y45.892 E11.46040
G1 X39.698 Y46.265 F7800.000
G1 X40.582 Y45.579 E11.54259 F120.000
G1 X41.531 Y44.937 E11.62678
G1 X42.469 Y44.382 E11.70692
G1 X43.466 Y43.874 E11.78909
G1 X44.492 Y43.430 E11.87126
G1 X45.544 Y43.051 E11.95344
G1 X46.618 Y42.739 E12.03561
G1 X47.709 Y42.495 E12.11779
G1 X48.814 Y42.320 E12.19998
G1 X49.955 Y42.214 E12.28417
G1 X51.044 Y42.180 E12.36431 F120.000
G1 X52.162 Y42.215 E12.44648
G1 X53.275 Y42.320 E12.52863
G1 X54.346 Y42.487 E12.60826
G1 X55.471 Y42.739 E12.69301
G1 X56.545 Y43.051 E12.77518
G1 X57.597 Y43.430 E12.85736
G1 X58.623 Y43.874 E12.93953
G1 X59.620 Y44.382 E13.02171
G1 X60.582 Y44.951 E13.10388
G1 X61.507 Y45.579 E13.18605
G1 X62.391 Y46.265 E13.26823
G1 X63.230 Y47.004 E13.35041
G1 X64.020 Y47.795 E13.43258
G1 X64.760 Y48.634 E13.51476
G1 X65.445 Y49.517 E13.59693
G1 X66.074 Y50.442 E13.67910
G1 X66.643 Y51.405 E13.76128
G1 X67.151 Y52.401 E13.84345
G1 X67.595 Y53.427 E13.92563
G1 X67.964 Y54.453 E14.00576
G1 X68.285 Y55.553 E14.08995
G1 X68.529 Y56.645 E14.17215
G1 X68.704 Y57.749 E14.25432
G1 X68.810 Y58.862 E14.33649
G1 X68.845 Y59.980 E14.41867
G1 X68.810 Y61.070 E14.49881
G1 X68.704 Y62.211 E14.58300
G1 X68.529 Y63.315 E14.66519
G1 X68.285 Y64.407 E14.74736
G1 X67.973 Y65.481 E14.82954
G1 X67.595 Y66.533 E14.91171
G1 X67.151 Y67.559 E14.99388
G1 X66.643 Y68.555 E15.07606
G1 X66.074 Y69.518 E15.15824
G1 X65.445 Y70.443 E15.24041
G1 X64.760 Y71.326 E15.32258
G1 X64.020 Y72.165 E15.40477
G1 X63.209 Y72.974 E15.48897
G1 X62.391 Y73.695 E15.56911
G1 X61.507 Y74.381 E15.65128
G1 X60.582 Y75.009 E15.73345
G1 X59.620 Y75.578 E15.81563
G1 X58.623 Y76.086 E15.89780
G1 X57.597 Y76.530 E15.97997
G1 X56.545 Y76.909 E16.06215
G1 X55.471 Y77.221 E16.14432
G1 X54.380 Y77.465 E16.22650
G1 X53.275 Y77.640 E16.30867
G1 X52.162 Y77.745 E16.39085
G1 X51.044 Y77.780 E16.47302
G1 X49.927 Y77.745 E16.55521
G1 X48.786 Y77.635 E16.63940
G1 X47.709 Y77.465 E16.71954
G1 X46.618 Y77.221 E16.80172
G1 X45.544 Y76.909 E16.88389
G1 X44.492 Y76.530 E16.96606
G1 X43.466 Y76.086 E17.04823
G1 X42.469 Y75.578 E17.13041
G1 X41.506 Y75.009 E17.21261
G1 X40.560 Y74.364 E17.29679
G1 X39.698 Y73.695 E17.37693
G1 X38.859 Y72.956 E17.45910
G1 X38.069 Y72.165 E17.54128
G1 X37.329 Y71.326 E17.62346
G1 X36.644 Y70.443 E17.70563
G1 X36.015 Y69.518 E17.78780
G1 X35.446 Y68.555 E17.86998
G1 X34.938 Y67.559 E17.95216
G1 X34.494 Y66.533 E18.03433
G1 X34.116 Y65.481 E18.11650
G1 X33.804 Y64.407 E18.19867
G1 X33.560 Y63.315 E18.28085
G1 X33.385 Y62.211 E18.36302
G1 X33.279 Y61.098 E18.44520
G1 X33.244 Y59.980 E18.52737
G1 X33.279 Y58.862 E18.60955
G1 X33.385 Y57.749 E18.69172
G1 X33.560 Y56.645 E18.77390
G1 X33.804 Y55.553 E18.85607
G1 X34.116 Y54.479 E18.93824
G1 X34.494 Y53.427 E19.02042
G1 X34.938 Y52.401 E19.10259
G1 X35.446 Y51.405 E19.18477
G1 X36.015 Y50.442 E19.26694
G1 X36.644 Y49.517 E19.34912
G1 X37.329 Y48.634 E19.43129
G1 X38.069 Y47.795 E19.51346
G1 X38.859 Y47.004 E19.59564
G1 X39.653 Y46.304 E19.67341
G1 X39.636 Y45.870 F7800.000
G1 E16.67341 F2400.00000
G92 E0
G1 Z0.550 F7800.000
G1 X28.564 Y51.116 F7800.000
G1 Z0.350 F7800.000
G1 E3.00000 F2400.00000
G1 X29.180 Y49.691 E3.11403 F120.000
G1 X29.869 Y48.339 E3.22558
G1 X30.642 Y47.032 E3.33714
G1 X31.495 Y45.777 E3.44869
G1 X32.426 Y44.577 E3.56025
G1 X33.430 Y43.439 E3.67180
G1 X34.503 Y42.365 E3.78335
G1 X35.642 Y41.361 E3.89490
G1 X36.841 Y40.431 E4.00646
G1 X38.097 Y39.578 E4.11801
G1 X39.403 Y38.805 E4.22957
G1 X40.756 Y38.116 E4.34111
G1 X42.149 Y37.513 E4.45267
G1 X43.577 Y36.999 E4.56422
G1 X45.035 Y36.575 E4.67578
G1 X46.517 Y36.244 E4.78733
G1 X48.016 Y36.007 E4.89888
G1 X49.527 Y35.864 E5.01043
G1 X51.044 Y35.816 E5.12199
G1 X52.544 Y35.863 E5.23225
G1 X54.073 Y36.007 E5.34511
G1 X55.572 Y36.244 E5.45664
G1 X57.054 Y36.575 E5.56819
G1 X58.512 Y36.999 E5.67975
G1 X59.940 Y37.513 E5.79130
G1 X61.333 Y38.116 E5.90286
G1 X62.686 Y38.805 E6.01440
G1 X63.992 Y39.578 E6.12596
G1 X65.248 Y40.431 E6.23751
G1 X66.447 Y41.361 E6.34907
G1 X67.586 Y42.365 E6.46062
G1 X68.659 Y43.438 E6.57215
G1 X69.674 Y44.591 E6.68501
G1 X70.594 Y45.777 E6.79527
G1 X71.447 Y47.032 E6.90681
G1 X72.228 Y48.355 E7.01967
G1 X72.909 Y49.691 E7.12993
G1 X73.512 Y51.085 E7.24148
G1 X74.026 Y52.513 E7.35304
G1 X74.449 Y53.971 E7.46459
G1 X74.780 Y55.452 E7.57614
G1 X75.018 Y56.951 E7.68770
G1 X75.161 Y58.463 E7.79925
G1 X75.208 Y59.980 E7.91080
G1 X75.161 Y61.497 E8.02236
G1 X75.018 Y63.009 E8.13391
G1 X74.780 Y64.508 E8.24546
G1 X74.449 Y65.989 E8.35699
G1 X74.020 Y67.464 E8.46985
G1 X73.512 Y68.875 E8.58012
G1 X72.909 Y70.269 E8.69167
G1 X72.220 Y71.621 E8.80322
G1 X71.447 Y72.928 E8.91478
G1 X70.594 Y74.183 E9.02633
G1 X69.663 Y75.383 E9.13788
G1 X68.659 Y76.521 E9.24944
G1 X67.586 Y77.595 E9.36099
G1 X66.447 Y78.599 E9.47254
G1 X65.248 Y79.529 E9.58409
G1 X63.992 Y80.382 E9.69565
G1 X62.686 Y81.155 E9.80720
G1 X61.333 Y81.844 E9.91875
G1 X59.940 Y82.447 E10.03031
G1 X58.512 Y82.961 E10.14186
G1 X57.054 Y83.385 E10.25342
G1 X55.572 Y83.716 E10.36497
G1 X54.073 Y83.953 E10.47652
G1 X52.562 Y84.096 E10.58807
G1 X51.044 Y84.144 E10.69962
G1 X49.527 Y84.096 E10.81118
G1 X48.016 Y83.953 E10.92273
G1 X46.517 Y83.716 E11.03428
G1 X45.035 Y83.385 E11.14583
G1 X43.577 Y82.961 E11.25739
G1 X42.149 Y82.447 E11.36894
G1 X40.756 Y81.844 E11.48050
G1 X39.403 Y81.155 E11.59204
G1 X38.097 Y80.382 E11.70360
G1 X36.841 Y79.529 E11.81515
G1 X35.642 Y78.599 E11.92671
G1 X34.516 Y77.606 E12.03697
G1 X33.430 Y76.521 E12.14983
G1 X32.426 Y75.383 E12.26136
G1 X31.495 Y74.183 E12.37292
G1 X30.642 Y72.928 E12.48447
G1 X29.869 Y71.621 E12.59603
G1 X29.180 Y70.269 E12.70757
G1 X28.564 Y68.844 E12.82161
G1 X25.880 Y68.844 E13.01883
G1 X25.880 Y51.116 E14.32165
G1 X28.504 Y51.116 E14.51447
G1 X28.212 Y50.580 F7800.000
G1 X28.695 Y49.463 E14.60388 F120.000
G1 X29.400 Y48.081 E14.71791
G1 X30.190 Y46.745 E14.83194
G1 X31.062 Y45.462 E14.94596
G1 X32.013 Y44.236 E15.05999
G1 X33.039 Y43.072 E15.17402
G1 X34.136 Y41.975 E15.28804
G1 X35.300 Y40.948 E15.40207
G1 X36.526 Y39.997 E15.51610
G1 X37.810 Y39.125 E15.63012
G1 X39.145 Y38.335 E15.74416
G1 X40.528 Y37.631 E15.85818
G1 X41.952 Y37.015 E15.97221
G1 X43.412 Y36.489 E16.08623
G1 X44.902 Y36.056 E16.20026
G1 X46.416 Y35.718 E16.31429
G1 X47.949 Y35.475 E16.42832
G1 X49.494 Y35.329 E16.54234
G1 X51.044 Y35.280 E16.65637
G1 X52.578 Y35.328 E16.76909
G1 X54.140 Y35.475 E16.88442
G1 X55.673 Y35.718 E16.99844
G1 X57.187 Y36.056 E17.11247
G1 X58.677 Y36.489 E17.22650
G1 X60.137 Y37.015 E17.34052
G1 X61.561 Y37.631 E17.45455
G1 X62.944 Y38.335 E17.56858
G1 X64.279 Y39.125 E17.68261
G1 X65.563 Y39.997 E17.79663
G1 X66.789 Y40.948 E17.91066
G1 X67.953 Y41.975 E18.02469
G1 X69.050 Y43.072 E18.13870
G1 X70.087 Y44.250 E18.25404
G1 X71.027 Y45.462 E18.36676
G1 X71.899 Y46.745 E18.48078
G1 X72.697 Y48.097 E18.59612
G1 X73.394 Y49.463 E18.70884
G1 X74.010 Y50.887 E18.82287
G1 X74.535 Y52.347 E18.93690
G1 X74.968 Y53.837 E19.05092
G1 X75.307 Y55.352 E19.16495
G1 X75.550 Y56.884 E19.27898
G1 X75.696 Y58.429 E19.39300
G1 X75.744 Y59.980 E19.50703
G1 X75.696 Y61.531 E19.62106
G1 X75.550 Y63.076 E19.73508
G1 X75.307 Y64.608 E19.84911
G1 X74.968 Y66.122 E19.96313
G1 X74.529 Y67.629 E20.07846
G1 X74.010 Y69.073 E20.19119
G1 X73.394 Y70.497 E20.30522
G1 X72.689 Y71.879 E20.41924
G1 X71.899 Y73.215 E20.53327
G1 X71.027 Y74.498 E20.64730
G1 X70.076 Y75.724 E20.76132
G1 X69.050 Y76.888 E20.87535
G1 X67.953 Y77.985 E20.98937
G1 X66.789 Y79.012 E21.10340
G1 X65.563 Y79.963 E21.21743
G1 X64.279 Y80.835 E21.33146
G1 X62.944 Y81.625 E21.44549
G1 X61.561 Y82.329 E21.55951
G1 X60.137 Y82.945 E21.67354
G1 X58.677 Y83.471 E21.78757
G1 X57.187 Y83.904 E21.90160
G1 X55.673 Y84.242 E22.01562
G1 X54.140 Y84.485 E22.12965
G1 X52.595 Y84.631 E22.24367
G1 X51.044 Y84.680 E22.35770
G1 X49.494 Y84.631 E22.47173
G1 X47.949 Y84.485 E22.58575
G1 X46.416 Y84.242 E22.69978
G1 X44.902 Y83.904 E22.81380
G1 X43.412 Y83.471 E22.92783
G1 X41.952 Y82.945 E23.04186
G1 X40.528 Y82.329 E23.15589
G1 X39.145 Y81.625 E23.26991
G1 X37.810 Y80.835 E23.38394
G1 X36.526 Y79.963 E23.49797
G1 X35.300 Y79.012 E23.61200
G1 X34.150 Y77.997 E23.72472
G1 X33.039 Y76.888 E23.84005
G1 X32.013 Y75.724 E23.95407
G1 X31.062 Y74.498 E24.06810
G1 X30.190 Y73.215 E24.18212
G1 X29.400 Y71.879 E24.29616
G1 X28.695 Y70.497 E24.41018
G1 X28.212 Y69.380 E24.49960
G1 X25.344 Y69.380 E24.71033
G1 X25.344 Y67.995 E24.81213
G1 X22.058 Y67.995 E25.05367
G1 X21.650 Y67.959 E25.08373
G1 X21.266 Y67.848 E25.11312
G1 X20.994 Y67.675 E25.13678
G1 X20.930 Y67.611 E25.14345
G1 X20.895 Y67.538 E25.14941
G1 X20.895 Y67.422 E25.15790
G1 X20.930 Y67.349 E25.16385
G1 X20.994 Y67.285 E25.17052
G1 X21.266 Y67.112 E25.19418
G1 X21.650 Y67.001 E25.22357
G1 X22.058 Y66.965 E25.25363
G1 X25.344 Y66.965 E25.49517
G1 X25.344 Y52.995 E26.52182
G1 X22.058 Y52.995 E26.76336
G1 X21.650 Y52.959 E26.79342
G1 X21.266 Y52.848 E26.82280
G1 X20.997 Y52.677 E26.84626
G1 X20.920 Y52.598 E26.85428
G1 X20.896 Y52.542 E26.85880
G1 X20.896 Y52.418 E26.86790
G1 X20.920 Y52.362 E26.87242
G1 X20.997 Y52.283 E26.88045
G1 X21.266 Y52.112 E26.90390
G1 X21.650 Y52.001 E26.93328
G1 X22.058 Y51.965 E26.96334
G1 X25.344 Y51.965 E27.20489
G1 X25.344 Y50.580 E27.30669
G1 X28.152 Y50.580 E27.51301
G1 X28.597 Y50.688 F7800.000
G1 E24.51301 F2400.00000
G92 E0
G1 Z0.550 F7800.000
G1 X25.612 Y52.480 F7800.000
G1 Z0.350 F7800.000
G1 E3.00000 F2400.00000
G1 X21.426 Y52.480 E3.65231 F120.000
G1 E0.65231 F2400.00000
G92 E0
G1 Z0.550 F7800.000
G1 X21.426 Y67.480 F7800.000
G1 Z0.350 F7800.000
G1 E3.00000 F2400.00000
G1 X25.612 Y67.480 E3.65230 F120.000
G1 X26.148 Y67.908 F7800.000
G1 X26.816 Y68.576 E3.72225 F120.000
G1 X27.579 Y68.576 E3.77878
G1 X26.148 Y67.145 E3.92868
G1 X26.148 Y66.382 E3.98521
G1 X28.343 Y68.576 E4.21506
G1 X29.148 Y69.381 F7800.000
G1 X41.643 Y81.877 E5.52374 F120.000
G1 X42.922 Y82.392 F7800.000
G1 X26.148 Y65.618 E7.28053 F120.000
G1 E4.28053 F2400.00000
G92 E0
G1 Z0.550 F7800.000
G1 X29.845 Y70.842 F7800.000
G1 Z0.350 F7800.000
G1 E3.00000 F2400.00000
G1 X40.182 Y81.179 E4.08266 F120.000
G1 E1.08266 F2400.00000
G92 E0
G1 Z0.550 F7800.000
G1 X38.410 Y80.170 F7800.000
G1 Z0.350 F7800.000
G1 E3.00000 F2400.00000
G1 X30.855 Y72.615 E3.79124 F120.000
G1 E0.79124 F2400.00000
G92 E0
G1 Z0.550 F7800.000
G1 X33.384 Y75.908 F7800.000
G1 Z0.350 F7800.000
G1 E3.00000 F2400.00000
G1 X35.117 Y77.640 E3.18147 F120.000
G1 E0.18147 F2400.00000
G92 E0
G1 Z0.550 F7800.000
G1 X40.522 Y75.412 F7800.000
G1 Z0.350 F7800.000
G1 E3.00000 F2400.00000
G1 X48.863 Y83.753 E3.87361 F120.000
G1 X49.703 Y83.830 E3.93610
G1 X42.380 Y76.507 E4.70307
G1 X43.805 Y77.168 F7800.000
G1 X50.492 Y83.855 E5.40340 F120.000
G1 X51.272 Y83.872 E5.46123
G1 X45.024 Y77.624 E6.11560
G1 X46.112 Y77.949 E6.19968
G1 X52.012 Y83.849 E6.81763
G1 X52.747 Y83.820 E6.87205
G1 X47.109 Y78.183 E7.46245
G1 X48.041 Y78.350 E7.53254
G1 X53.444 Y83.754 E8.09845
G1 X54.141 Y83.688 E8.15032
G1 X48.921 Y78.467 E8.69708
G1 X49.765 Y78.548 E8.75985
G1 X54.800 Y83.583 E9.28726
G1 X55.459 Y83.479 E9.33667
G1 X50.553 Y78.572 E9.85055
G1 X51.316 Y78.572 E9.90706
G1 X56.092 Y83.348 E10.40722
G1 X56.715 Y83.208 E10.45457
G1 X52.056 Y78.549 E10.94256
G1 X52.756 Y78.486 E10.99463
G1 X57.325 Y83.055 E11.47317
G1 X57.917 Y82.883 E11.51878
G1 X53.444 Y78.410 E11.98725
G1 X54.103 Y78.306 E12.03666
G1 X58.508 Y82.711 E12.49805
G1 X59.070 Y82.509 E12.54223
G1 X54.745 Y78.184 E12.99519
G1 X55.369 Y78.045 E13.04254
G1 X59.631 Y82.307 E13.48894
G1 X60.178 Y82.091 E13.53251
G1 X55.971 Y77.884 E13.97308
G1 X56.563 Y77.712 E14.01870
G1 X60.711 Y81.860 E14.45313
G1 X61.244 Y81.630 E14.49612
G1 X57.132 Y77.518 E14.92675
G1 X57.693 Y77.316 E14.97093
G1 X61.751 Y81.374 E15.39595
G1 X62.257 Y81.116 E15.43798
G1 X58.233 Y77.092 E15.85948
G1 X58.765 Y76.861 E15.90247
G1 X62.755 Y80.851 E16.32034
G1 X63.235 Y80.568 E16.36161
G1 X59.278 Y76.611 E16.77603
G1 X59.784 Y76.353 E16.81807
G1 X63.715 Y80.284 E17.22976
G1 X64.179 Y79.985 E17.27066
G1 X60.272 Y76.078 E17.67986
G1 X60.752 Y75.794 E17.72113
G1 X64.633 Y79.676 E18.12769
G1 X65.088 Y79.367 E18.16838
G1 X61.217 Y75.496 E18.57379
G1 X61.671 Y75.187 E18.61449
G1 X65.520 Y79.036 E19.01760
G1 X65.950 Y78.703 E19.05789
G1 X62.116 Y74.868 E19.45952
G1 X62.545 Y74.534 E19.49981
G1 X66.377 Y78.366 E19.90107
G1 X66.782 Y78.008 E19.94113
G1 X62.969 Y74.195 E20.34052
G1 X63.375 Y73.837 E20.38057
G1 X67.188 Y77.650 E20.77996
G1 X67.570 Y77.269 E20.81994
G1 X63.777 Y73.476 E21.21723
G1 X64.159 Y73.095 E21.25720
G1 X67.952 Y76.888 E21.65443
