; generated by Slic3r 1.2.9 on 2018-03-09 at 21:04:45

; external perimeters extrusion width = 0.40mm
; perimeters extrusion width = 0.48mm
; infill extrusion width = 0.48mm
; solid infill extrusion width = 0.48mm
; top infill extrusion width = 0.48mm
; support material extrusion width = 0.40mm

M107
M190 S50 ; set bed temperature
M104 S220 ; set temperature
G28 ; home all axes
G1 Z5 F5000 ; lift nozzle

M109 S220 ; wait for temperature to be reached
G21 ; set units to millimeters
G90 ; use absolute coordinates
M82 ; use absolute distances for extrusion
G92 E0
G1 Z0.350 F7800.000
G1 E-3.00000 F2400.00000
G92 E0
G1 Z0.550 F7800.000
G1 X19.765 Y45.120 F7800.000
G1 Z0.350 F7800.000
G1 E3.00000 F2400.00000
G1 X31.436 Y45.120 E3.85767 F120.000
G1 X31.436 Y36.938 E4.45892
G1 X29.782 Y35.285 E4.63079
G1 X30.722 Y34.345 E4.72844
G1 X33.075 Y36.699 E4.97306
G1 X32.765 Y37.010 E5.00535
G1 X32.765 Y56.131 E6.41049
G1 X33.040 Y56.406 E6.43909
G1 X30.686 Y58.760 E6.68371
G1 X29.746 Y57.820 E6.78135
G1 X31.436 Y56.131 E6.95692
G1 X31.436 Y48.449 E7.52142
G1 X19.765 Y48.449 E8.37909
G1 X19.765 Y55.649 E8.90819
G1 X18.436 Y55.649 E9.00584
G1 X18.436 Y37.920 E10.30865
G1 X19.765 Y37.920 E10.40630
G1 X19.765 Y45.060 E10.93099
G1 X20.300 Y44.585 F7800.000
G1 X30.900 Y44.585 E11.70994 F120.000
G1 X30.900 Y37.160 E12.25552
G1 X29.024 Y35.285 E12.45045
G1 X30.722 Y33.588 E12.62682
G1 X33.833 Y36.699 E12.95016
G1 X33.300 Y37.231 E13.00551
G1 X33.300 Y55.909 E14.37804
G1 X33.797 Y56.406 E14.42970
G1 X30.686 Y59.517 E14.75304
G1 X28.989 Y57.820 E14.92941
G1 X30.900 Y55.909 E15.12803
G1 X30.900 Y48.985 E15.63687
G1 X20.300 Y48.985 E16.41582
G1 X20.300 Y56.185 E16.94492
G1 X17.900 Y56.185 E17.12128
G1 X17.900 Y54.782 E17.22435
G1 X14.613 Y54.782 E17.46590
G1 X14.211 Y54.747 E17.49558
G1 X13.833 Y54.640 E17.52447
G1 X13.502 Y54.417 E17.55375
G1 X13.454 Y54.285 E17.56414
G1 X13.502 Y54.152 E17.57452
G1 X13.546 Y54.109 E17.57900
G1 X13.833 Y53.929 E17.60389
G1 X14.211 Y53.822 E17.63279
G1 X14.613 Y53.787 E17.66247
G1 X17.900 Y53.787 E17.90401
G1 X17.900 Y39.782 E18.93320
G1 X14.613 Y39.782 E19.17474
G1 X14.208 Y39.747 E19.20463
G1 X13.828 Y39.640 E19.23364
G1 X13.556 Y39.469 E19.25728
G1 X13.485 Y39.393 E19.26491
G1 X13.462 Y39.340 E19.26914
G1 X13.454 Y39.285 E19.27328
G1 X13.485 Y39.176 E19.28157
G1 X13.550 Y39.106 E19.28864
G1 X13.832 Y38.929 E19.31311
G1 X14.211 Y38.822 E19.34200
G1 X14.613 Y38.787 E19.37169
G1 X17.900 Y38.787 E19.61323
G1 X17.900 Y37.385 E19.71630
G1 X20.300 Y37.385 E19.89267
G1 X20.300 Y44.525 E20.41736
G1 X20.300 Y44.985 F7800.000
G1 X19.100 Y45.388 F7800.000
G1 X19.100 Y38.188 E21.53915 F120.000
G1 X18.168 Y39.285 F7800.000
G1 X14.037 Y39.288 E22.18284 F120.000
G1 E19.18284 F2400.00000
G92 E0
G1 Z0.550 F7800.000
G1 X18.704 Y47.646 F7800.000
G1 Z0.350 F7800.000
G1 E3.00000 F2400.00000
G1 X18.971 Y47.913 E3.02844 F120.000
G1 X19.747 Y47.913 E3.08682
G1 X18.704 Y46.870 E3.19783
G1 X18.704 Y46.094 E3.25622
G1 X20.790 Y48.181 E3.47829
G1 X21.566 Y48.181 E3.53667
G1 X19.041 Y45.656 E3.80540
G1 X19.817 Y45.656 E3.86378
G1 X22.342 Y48.181 E4.13250
G1 X23.118 Y48.181 E4.19089
G1 X20.325 Y45.388 E4.48811
G1 X21.101 Y45.388 E4.54649
G1 X23.893 Y48.181 E4.84372
G1 X24.669 Y48.181 E4.90210
G1 X21.877 Y45.388 E5.19933
G1 X22.652 Y45.388 E5.25771
G1 X25.445 Y48.181 E5.55494
G1 X26.221 Y48.181 E5.61332
G1 X23.428 Y45.388 E5.91054
G1 X24.204 Y45.388 E5.96893
G1 X26.997 Y48.181 E6.26615
G1 X27.772 Y48.181 E6.32453
G1 X24.980 Y45.388 E6.62176
G1 X25.755 Y45.388 E6.68014
G1 X28.548 Y48.181 E6.97737
G1 X29.324 Y48.181 E7.03575
G1 X26.531 Y45.388 E7.33298
G1 X27.307 Y45.388 E7.39136
G1 X30.100 Y48.181 E7.68858
G1 X30.875 Y48.181 E7.74697
G1 X28.083 Y45.388 E8.04419
G1 X28.858 Y45.388 E8.10258
G1 X31.383 Y47.913 E8.37130
G1 X32.159 Y47.913 E8.42968
G1 X29.634 Y45.388 E8.69840
G1 X30.410 Y45.388 E8.75679
G1 X32.497 Y47.475 E8.97886
G1 X32.497 Y46.699 E9.03725
G1 X31.454 Y45.656 E9.14826
G1 X32.229 Y45.656 E9.20664
G1 X32.497 Y45.923 E9.23508
G1 X32.100 Y45.388 F7800.000
G1 X32.100 Y36.899 E10.55778 F120.000
G1 X32.113 Y36.716 E10.58628
G1 X31.984 Y36.547 E10.61944
G1 X30.441 Y35.004 E10.95941
G1 E7.95941 F2400.00000
G92 E0
G1 Z0.550 F7800.000
G1 X32.100 Y48.181 F7800.000
G1 Z0.350 F7800.000
G1 E3.00000 F2400.00000
G1 X32.100 Y56.375 E4.27664 F120.000
G1 X31.984 Y56.522 E4.30584
G1 X30.406 Y58.101 E4.65364
G1 E1.65364 F2400.00000
G92 E0
G1 Z0.550 F7800.000
G1 X19.100 Y55.381 F7800.000
G1 Z0.350 F7800.000
G1 E3.00000 F2400.00000
G1 X19.100 Y48.181 E4.12179 F120.000
G1 E1.12179 F2400.00000
G92 E0
G1 Z0.550 F7800.000
G1 X18.168 Y54.285 F7800.000
G1 Z0.350 F7800.000
G1 E3.00000 F2400.00000
G1 X14.042 Y54.285 E3.64292 F120.000
G1 E0.64292 F2400.00000
G92 E0
G1 Z0.550 F7800.000
G1 X19.379 Y19.730 F7800.000
G1 Z0.350 F7800.000
G1 E3.00000 F2400.00000
G1 X19.379 Y26.930 E3.52910 F120.000
G1 X18.051 Y26.930 E3.62674
G1 X18.051 Y9.202 E4.92956
G1 X19.379 Y9.202 E5.02720
G1 X19.379 Y16.402 E5.55630
G1 X31.051 Y16.402 E6.41398
G1 X31.051 Y8.220 E7.01522
G1 X29.397 Y6.566 E7.18710
G1 X30.336 Y5.627 E7.28474
G1 X32.690 Y7.980 E7.52936
G1 X32.379 Y8.291 E7.56165
G1 X32.379 Y27.412 E8.96679
G1 X32.655 Y27.687 E8.99539
G1 X30.301 Y30.041 E9.24001
G1 X29.361 Y29.102 E9.33766
G1 X31.051 Y27.412 E9.51323
G1 X31.051 Y19.730 E10.07773
G1 X19.439 Y19.730 E10.93099
G1 X19.915 Y20.266 F7800.000
G1 X19.915 Y27.466 E11.46009 F120.000
G1 X17.515 Y27.466 E11.63645
G1 X17.515 Y26.063 E11.73952
G1 X14.228 Y26.063 E11.98107
G1 X13.826 Y26.028 E12.01075
G1 X13.447 Y25.922 E12.03964
G1 X13.117 Y25.699 E12.06892
G1 X13.068 Y25.566 E12.07931
G1 X13.117 Y25.433 E12.08969
G1 X13.160 Y25.390 E12.09417
G1 X13.447 Y25.211 E12.11906
G1 X13.826 Y25.104 E12.14796
G1 X14.228 Y25.069 E12.17764
G1 X17.515 Y25.069 E12.41918
G1 X17.515 Y11.063 E13.44837
G1 X14.228 Y11.063 E13.68991
G1 X13.823 Y11.028 E13.71980
G1 X13.443 Y10.922 E13.74881
G1 X13.170 Y10.750 E13.77245
G1 X13.099 Y10.675 E13.78008
G1 X13.077 Y10.622 E13.78431
G1 X13.068 Y10.566 E13.78845
G1 X13.099 Y10.458 E13.79674
G1 X13.165 Y10.387 E13.80381
G1 X13.447 Y10.210 E13.82828
G1 X13.826 Y10.104 E13.85717
G1 X14.228 Y10.069 E13.88686
G1 X17.515 Y10.069 E14.12840
G1 X17.515 Y8.666 E14.23147
G1 X19.915 Y8.666 E14.40784
G1 X19.915 Y15.866 E14.93694
G1 X30.515 Y15.866 E15.71589
G1 X30.515 Y8.442 E16.26147
G1 X28.639 Y6.566 E16.45640
G1 X30.336 Y4.869 E16.63277
G1 X33.448 Y7.980 E16.95611
G1 X32.915 Y8.513 E17.01146
G1 X32.915 Y27.190 E18.38399
G1 X33.412 Y27.687 E18.43564
G1 X30.301 Y30.799 E18.75898
G1 X28.604 Y29.102 E18.93535
G1 X30.515 Y27.190 E19.13398
G1 X30.515 Y20.266 E19.64281
G1 X19.975 Y20.266 E20.41736
G1 X19.515 Y20.266 F7800.000
G1 X18.715 Y19.463 F7800.000
G1 X18.715 Y26.663 E21.53915 F120.000
G1 X17.783 Y25.566 F7800.000
G1 X13.656 Y25.566 E22.18207 F120.000
G1 E19.18207 F2400.00000
G92 E0
G1 Z0.550 F7800.000
G1 X18.319 Y18.927 F7800.000
G1 Z0.350 F7800.000
G1 E3.00000 F2400.00000
G1 X18.586 Y19.195 E3.02844 F120.000
G1 X19.362 Y19.195 E3.08682
G1 X18.319 Y18.152 E3.19783
G1 X18.319 Y17.376 E3.25622
G1 X20.405 Y19.462 E3.47829
G1 X21.181 Y19.462 E3.53667
G1 X18.656 Y16.938 E3.80540
G1 X19.432 Y16.938 E3.86378
G1 X21.957 Y19.462 E4.13250
G1 X22.733 Y19.462 E4.19089
G1 X19.940 Y16.670 E4.48811
G1 X20.716 Y16.670 E4.54649
G1 X23.508 Y19.462 E4.84372
G1 X24.284 Y19.462 E4.90210
G1 X21.491 Y16.670 E5.19933
G1 X22.267 Y16.670 E5.25771
G1 X25.060 Y19.462 E5.55493
G1 X25.836 Y19.462 E5.61332
G1 X23.043 Y16.670 E5.91054
G1 X23.819 Y16.670 E5.96892
G1 X26.611 Y19.462 E6.26615
G1 X27.387 Y19.462 E6.32453
G1 X24.594 Y16.670 E6.62176
G1 X25.370 Y16.670 E6.68014
G1 X28.163 Y19.462 E6.97737
G1 X28.939 Y19.462 E7.03575
G1 X26.146 Y16.670 E7.33297
G1 X26.922 Y16.670 E7.39136
G1 X29.714 Y19.462 E7.68858
G1 X30.490 Y19.462 E7.74697
G1 X27.698 Y16.670 E8.04419
G1 X28.473 Y16.670 E8.10257
G1 X30.998 Y19.195 E8.37130
G1 X31.774 Y19.195 E8.42968
G1 X29.249 Y16.670 E8.69840
G1 X30.025 Y16.670 E8.75678
G1 X32.111 Y18.756 E8.97886
G1 X32.111 Y17.981 E9.03725
G1 X31.068 Y16.938 E9.14825
G1 X31.844 Y16.938 E9.20664
G1 X32.111 Y17.205 E9.23508
G1 X31.715 Y16.669 F7800.000
G1 X31.715 Y8.180 E10.55777 F120.000
G1 X31.728 Y7.998 E10.58628
G1 X31.599 Y7.829 E10.61943
G1 X30.056 Y6.286 E10.95941
G1 E7.95941 F2400.00000
G92 E0
G1 Z0.550 F7800.000
G1 X18.715 Y9.470 F7800.000
G1 Z0.350 F7800.000
G1 E3.00000 F2400.00000
G1 X18.715 Y16.669 E4.12179 F120.000
G1 E1.12179 F2400.00000
G92 E0
G1 Z0.550 F7800.000
G1 X13.651 Y10.569 F7800.000
G1 Z0.350 F7800.000
G1 E3.00000 F2400.00000
G1 X17.553 Y10.566 E3.60792 F120.000
G1 X13.651 Y10.566 E4.21585
G1 E1.21585 F2400.00000
G92 E0
G1 Z0.550 F7800.000
G1 X31.715 Y19.463 F7800.000
G1 Z0.350 F7800.000
G1 E3.00000 F2400.00000
G1 X31.715 Y27.657 E4.27664 F120.000
G1 X31.599 Y27.804 E4.30584
G1 X30.020 Y29.382 E4.65364
G1 E1.65364 F2400.00000
G92 E0
G1 Z0.550 F7800.000
G1 X51.140 Y19.264 F7800.000
G1 Z0.350 F7800.000
G1 E3.00000 F2400.00000
G1 X51.140 Y26.464 E3.52910 F120.000
G1 X49.811 Y26.464 E3.62674
G1 X49.811 Y8.735 E4.92956
G1 X51.140 Y8.735 E5.02720
G1 X51.140 Y15.935 E5.55630
G1 X62.811 Y15.935 E6.41398
G1 X62.811 Y7.754 E7.01522
G1 X61.158 Y6.100 E7.18710
G1 X62.097 Y5.160 E7.28474
G1 X64.451 Y7.514 E7.52936
G1 X64.140 Y7.825 E7.56165
G1 X64.140 Y26.946 E8.96679
G1 X64.415 Y27.221 E8.99539
G1 X62.062 Y29.575 E9.24001
G1 X61.122 Y28.635 E9.33766
G1 X62.811 Y26.946 E9.51323
G1 X62.811 Y19.264 E10.07773
G1 X51.200 Y19.264 E10.93099
G1 X51.676 Y19.800 F7800.000
G1 X51.676 Y27.000 E11.46009 F120.000
G1 X49.276 Y27.000 E11.63645
G1 X49.276 Y25.597 E11.73952
G1 X45.989 Y25.597 E11.98107
G1 X45.587 Y25.562 E12.01075
G1 X45.208 Y25.455 E12.03964
G1 X44.878 Y25.233 E12.06892
G1 X44.829 Y25.100 E12.07931
G1 X44.878 Y24.967 E12.08969
G1 X44.921 Y24.924 E12.09417
G1 X45.208 Y24.744 E12.11906
G1 X45.587 Y24.638 E12.14796
G1 X45.989 Y24.602 E12.17764
G1 X49.276 Y24.602 E12.41918
G1 X49.276 Y10.597 E13.44837
G1 X45.989 Y10.597 E13.68991
G1 X45.584 Y10.562 E13.71980
G1 X45.204 Y10.455 E13.74881
G1 X44.931 Y10.284 E13.77245
G1 X44.860 Y10.208 E13.78008
G1 X44.837 Y10.156 E13.78431
G1 X44.829 Y10.100 E13.78845
G1 X44.860 Y9.991 E13.79674
G1 X44.926 Y9.921 E13.80381
G1 X45.208 Y9.744 E13.82828
G1 X45.587 Y9.638 E13.85717
G1 X45.989 Y9.602 E13.88686
G1 X49.276 Y9.602 E14.12840
G1 X49.276 Y8.200 E14.23147
G1 X51.676 Y8.200 E14.40784
G1 X51.676 Y15.400 E14.93693
G1 X62.276 Y15.400 E15.71589
G1 X62.276 Y7.976 E16.26146
G1 X60.400 Y6.100 E16.45640
G1 X62.097 Y4.403 E16.63277
G1 X65.208 Y7.514 E16.95611
G1 X64.676 Y8.047 E17.01146
G1 X64.676 Y26.724 E18.38399
G1 X65.173 Y27.221 E18.43564
G1 X62.062 Y30.332 E18.75898
G1 X60.365 Y28.635 E18.93535
G1 X62.276 Y26.724 E19.13398
G1 X62.276 Y19.800 E19.64281
G1 X51.736 Y19.800 E20.41736
G1 X51.276 Y19.800 F7800.000
G1 X50.476 Y18.996 F7800.000
G1 X50.476 Y26.196 E21.53915 F120.000
G1 X49.544 Y25.100 F7800.000
G1 X45.417 Y25.100 E22.18207 F120.000
G1 E19.18207 F2400.00000
G92 E0
G1 Z0.550 F7800.000
G1 X50.080 Y18.461 F7800.000
G1 Z0.350 F7800.000
G1 E3.00000 F2400.00000
G1 X50.347 Y18.728 E3.02844 F120.000
G1 X51.123 Y18.728 E3.08682
G1 X50.080 Y17.685 E3.19783
G1 X50.080 Y16.910 E3.25622
G1 X52.166 Y18.996 E3.47829
G1 X52.942 Y18.996 E3.53667
G1 X50.417 Y16.471 E3.80540
G1 X51.193 Y16.471 E3.86378
G1 X53.718 Y18.996 E4.13250
G1 X54.493 Y18.996 E4.19089
G1 X51.701 Y16.204 E4.48811
G1 X52.476 Y16.204 E4.54649
G1 X55.269 Y18.996 E4.84372
G1 X56.045 Y18.996 E4.90210
G1 X53.252 Y16.204 E5.19933
G1 X54.028 Y16.204 E5.25771
G1 X56.821 Y18.996 E5.55493
G1 X57.596 Y18.996 E5.61332
G1 X54.804 Y16.204 E5.91054
G1 X55.580 Y16.204 E5.96892
G1 X58.372 Y18.996 E6.26615
G1 X59.148 Y18.996 E6.32453
G1 X56.355 Y16.204 E6.62176
G1 X57.131 Y16.204 E6.68014
G1 X59.924 Y18.996 E6.97737
G1 X60.699 Y18.996 E7.03575
G1 X57.907 Y16.204 E7.33297
G1 X58.683 Y16.204 E7.39136
G1 X61.475 Y18.996 E7.68858
G1 X62.251 Y18.996 E7.74696
G1 X59.458 Y16.204 E8.04419
G1 X60.234 Y16.204 E8.10257
G1 X62.759 Y18.728 E8.37129
G1 X63.535 Y18.728 E8.42968
G1 X61.010 Y16.204 E8.69840
G1 X61.786 Y16.204 E8.75678
G1 X63.872 Y18.290 E8.97886
G1 X63.872 Y17.514 E9.03724
G1 X62.829 Y16.471 E9.14825
G1 X63.605 Y16.471 E9.20664
G1 X63.872 Y16.739 E9.23508
G1 X63.476 Y16.203 F7800.000
G1 X63.476 Y7.714 E10.55777 F120.000
G1 X63.489 Y7.531 E10.58628
G1 X63.360 Y7.362 E10.61943
G1 X61.817 Y5.819 E10.95941
G1 E7.95941 F2400.00000
G92 E0
G1 Z0.550 F7800.000
G1 X50.476 Y9.003 F7800.000
G1 Z0.350 F7800.000
G1 E3.00000 F2400.00000
G1 X50.476 Y16.203 E4.12179 F120.000
G1 E1.12179 F2400.00000
G92 E0
G1 Z0.550 F7800.000
G1 X45.412 Y10.103 F7800.000
G1 Z0.350 F7800.000
G1 E3.00000 F2400.00000
G1 X49.314 Y10.100 E3.60792 F120.000
G1 X45.412 Y10.100 E4.21585
G1 E1.21585 F2400.00000
G92 E0
G1 Z0.550 F7800.000
G1 X63.476 Y18.996 F7800.000
G1 Z0.350 F7800.000
G1 E3.00000 F2400.00000
G1 X63.476 Y27.190 E4.27664 F120.000
G1 X63.360 Y27.337 E4.30584
G1 X61.781 Y28.916 E4.65364
G1 Z0.350 F7800.000
G1 Z0.650 F7800.000
G1 E1.65364 F2400.00000
G92 E0
G1 Z0.850 F7800.000
G1 X31.177 Y44.862 F7800.000
G1 Z0.650 F7800.000
G1 E3.00000 F2400.00000
G1 X31.177 Y37.045 E3.44920 F1200.000
G1 X29.417 Y35.285 E3.59232
G1 X30.722 Y33.980 E3.69838
G1 X33.441 Y36.699 E3.91938
G1 X33.023 Y37.117 E3.95333
G1 X33.023 Y56.024 E5.03991
G1 X33.405 Y56.406 E5.07097
G1 X30.686 Y59.125 E5.29197
G1 X29.381 Y57.820 E5.39804
G1 X31.177 Y56.024 E5.54404
G1 X31.177 Y48.707 E5.96450
G1 X20.023 Y48.707 E6.60554
G1 X20.023 Y55.907 E7.01932
G1 X18.177 Y55.907 E7.12538
G1 X18.177 Y55.039 E7.17529
G1 X14.619 Y55.039 E7.37981
G1 X13.852 Y54.974 E7.42403
G1 X13.562 Y54.908 E7.44115
G1 X13.112 Y54.734 E7.46886
G1 X12.815 Y54.530 E7.48956 F1200.000
G1 X12.731 Y54.417 E7.49765
G1 X12.674 Y54.264 E7.50701
G1 X12.813 Y54.037 E7.52231
G1 X13.112 Y53.835 E7.54304
G1 X13.480 Y53.683 E7.56592 F1200.000
G1 X13.852 Y53.595 E7.58791
G1 X14.225 Y53.546 E7.60952
G1 X14.612 Y53.530 E7.63178
G1 X18.177 Y53.530 E7.83669
G1 X18.177 Y40.039 E8.61203
G1 X14.612 Y40.039 E8.81694
G1 X14.225 Y40.023 E8.83919
G1 X13.852 Y39.974 E8.86081
G1 X13.480 Y39.886 E8.88280
G1 X13.112 Y39.734 E8.90567
G1 X12.813 Y39.532 E8.92640 F1200.000
G1 X12.688 Y39.330 E8.94005
G1 X12.684 Y39.285 E8.94267
G1 X12.688 Y39.239 E8.94529
G1 X12.813 Y39.037 E8.95893
G1 X13.112 Y38.835 E8.97966
G1 X13.562 Y38.662 E9.00738 F1200.000
G1 X13.852 Y38.595 E9.02450
G1 X14.619 Y38.530 E9.06871
G1 X18.177 Y38.530 E9.27323
G1 X18.177 Y37.662 E9.32314
G1 X20.023 Y37.662 E9.42920
G1 X20.023 Y44.862 E9.84298
G1 X31.117 Y44.862 E10.48057
G1 X30.800 Y44.485 F7800.000
G1 X30.800 Y37.202 E10.81592 F600.000
G1 X28.883 Y35.285 E10.94076
G1 X30.722 Y33.446 E11.06048
G1 X33.974 Y36.699 E11.27230
G1 X33.400 Y37.273 E11.30968
G1 X33.400 Y55.867 E12.16589
G1 X33.939 Y56.406 E12.20096
G1 X30.686 Y59.659 E12.41277
G1 X28.848 Y57.820 E12.53249
G1 X30.800 Y55.867 E12.65965
G1 X30.800 Y49.085 E12.97198
G1 X20.400 Y49.085 E13.45086
G1 X20.400 Y56.285 E13.78239
G1 X17.800 Y56.285 E13.90211
G1 X17.800 Y55.416 E13.94210
G1 X17.400 Y55.416 E13.96052
G1 X14.607 Y55.416 E14.12106 F1200.000
G1 X14.021 Y55.379 E14.15482
G1 X13.784 Y55.346 E14.16855
G1 X13.458 Y55.271 E14.18775
G1 X13.130 Y55.159 E14.20769
G1 X12.891 Y55.048 E14.22284
G1 X12.549 Y54.802 E14.24704
G1 X12.396 Y54.600 E14.26160
G1 X12.314 Y54.378 E14.27522
G1 X12.305 Y54.285 E14.28059
G1 X12.342 Y54.086 E14.29220
G1 X12.472 Y53.854 E14.30750
G1 X12.560 Y53.755 E14.31510
G1 X12.890 Y53.522 E14.33833
G1 X13.132 Y53.410 E14.35367
G1 X13.371 Y53.322 E14.36828
G1 X13.784 Y53.223 E14.39268
G1 X14.193 Y53.170 E14.41639
G1 X14.604 Y53.153 E14.44006
G1 X17.400 Y53.153 E14.60074
G1 X17.800 Y53.153 E14.61916 F600.000
G1 X17.800 Y40.416 E15.20565
G1 X17.400 Y40.416 E15.22407
G1 X14.604 Y40.416 E15.38475 F1200.000
G1 X14.193 Y40.399 E15.40842
G1 X13.784 Y40.346 E15.43213
G1 X13.371 Y40.248 E15.45653
G1 X13.132 Y40.160 E15.47114
G1 X12.890 Y40.047 E15.48648
G1 X12.560 Y39.815 E15.50970
G1 X12.472 Y39.715 E15.51731
G1 X12.342 Y39.483 E15.53261
G1 X12.305 Y39.285 E15.54422
G1 X12.342 Y39.086 E15.55583
