; generated by Slic3r 1.2.9 on 2018-03-08 at 23:51:08

; external perimeters extrusion width = 0.40mm
; perimeters extrusion width = 0.48mm
; infill extrusion width = 0.48mm
; solid infill extrusion width = 0.48mm
; top infill extrusion width = 0.48mm
; support material extrusion width = 0.40mm

M107
M190 S50 ; set bed temperature
M104 S220 ; set temperature
G28 ; home all axes
G1 Z5 F5000 ; lift nozzle

M109 S220 ; wait for temperature to be reached
G21 ; set units to millimeters
G90 ; use absolute coordinates
M82 ; use absolute distances for extrusion
G92 E0
G1 Z0.350 F7800.000
G1 E-3.00000 F2400.00000
G92 E0
G1 Z0.550 F7800.000
G1 X29.472 Y67.278 F7800.000
G1 Z0.350 F7800.000
G1 E3.00000 F2400.00000
G1 X29.472 Y52.338 E4.09786 F120.000
G1 X27.161 Y50.027 E4.33807
G1 X28.100 Y49.087 E4.43572
G1 X30.801 Y51.788 E4.71638
G1 X30.801 Y68.607 E5.95233
G1 X13.072 Y68.607 E7.25515
G1 X13.072 Y67.278 E7.35279
G1 X29.412 Y67.278 E8.55355
G1 X28.937 Y66.743 F7800.000
G1 X28.937 Y52.560 E9.59575 F120.000
G1 X26.403 Y50.027 E9.85902
G1 X28.100 Y48.330 E10.03539
G1 X31.337 Y51.566 E10.37172
G1 X31.337 Y69.143 E11.66333
G1 X29.598 Y69.143 E11.79108
G1 X29.598 Y73.143 E12.08502
G1 X29.275 Y73.143 E12.10877
G1 X29.275 Y69.143 E12.40272
G1 X14.951 Y69.143 E13.45531
G1 X14.951 Y72.433 E13.69712
G1 X14.907 Y73.134 E13.74870
G1 X14.776 Y73.818 E13.79993
G1 X14.681 Y74.147 E13.82504
G1 X14.565 Y74.468 E13.85016
G1 X14.269 Y75.099 E13.90139
G1 X13.898 Y75.684 E13.95228
G1 X13.456 Y76.217 E14.00316
G1 X12.948 Y76.694 E14.05440
G1 X12.682 Y76.901 E14.07916
G1 X12.093 Y77.275 E14.13039
G1 X11.466 Y77.569 E14.18128
G1 X10.737 Y77.807 E14.23768
G1 X10.737 Y76.725 E14.31716
G1 X11.087 Y76.614 E14.34417
G1 X11.593 Y76.376 E14.38530
G1 X11.843 Y76.228 E14.40660
G1 X12.259 Y75.931 E14.44417
G1 X12.704 Y75.516 E14.48892
G1 X12.936 Y75.246 E14.51505
G1 X13.224 Y74.846 E14.55131
G1 X13.496 Y74.351 E14.59277
G1 X13.721 Y73.766 E14.63886
G1 X13.842 Y73.287 E14.67514
G1 X13.887 Y73.000 E14.69649
G1 X13.922 Y72.452 E14.73685
G1 X13.922 Y69.143 E14.98005
G1 X12.537 Y69.143 E15.08185
G1 X12.537 Y66.743 E15.25821
G1 X28.877 Y66.743 E16.45897
G1 X29.337 Y66.743 F7800.000
G1 E13.45897 F2400.00000
G92 E0
G1 Z0.550 F7800.000
G1 X14.437 Y68.875 F7800.000
G1 Z0.350 F7800.000
G1 E3.00000 F2400.00000
G1 X14.437 Y72.417 E3.55189 F120.000
G1 X14.399 Y73.045 E3.64991
G1 X14.272 Y73.697 E3.75346
G1 X14.085 Y74.269 E3.84720
G1 X13.951 Y74.580 E3.89999
G1 X13.662 Y75.105 E3.99326
G1 X13.478 Y75.379 E4.04471
G1 X13.065 Y75.881 E4.14595
G1 X12.596 Y76.318 E4.24586
G1 X12.112 Y76.660 E4.33829
G1 X11.844 Y76.824 E4.38720
G1 X11.289 Y77.086 E4.48275
G1 X11.004 Y77.179 E4.52947
G1 E1.52947 F2400.00000
G92 E0
G1 Z0.550 F7800.000
G1 X13.340 Y67.943 F7800.000
G1 Z0.350 F7800.000
G1 E3.00000 F2400.00000
G1 X29.740 Y67.943 E5.55520 F120.000
G1 X30.068 Y67.874 E5.60747
G1 X30.136 Y67.546 E5.65974
G1 X30.136 Y52.227 E8.04644
G1 X30.121 Y52.070 E8.07114
G1 X30.020 Y51.947 E8.09584
G1 X27.820 Y49.747 E8.58070
G1 E5.58070 F2400.00000
G92 E0
G1 Z0.550 F7800.000
G1 X30.048 Y32.763 F7800.000
G1 Z0.350 F7800.000
G1 E3.00000 F2400.00000
G1 X30.048 Y17.823 E4.09786 F120.000
G1 X27.737 Y15.512 E4.33807
G1 X28.677 Y14.572 E4.43572
G1 X31.377 Y17.273 E4.71638
G1 X31.377 Y34.092 E5.95233
G1 X13.648 Y34.092 E7.25515
G1 X13.648 Y32.763 E7.35279
G1 X29.988 Y32.763 E8.55356
G1 X29.513 Y32.228 F7800.000
G1 X29.513 Y18.045 E9.59575 F120.000
G1 X26.979 Y15.512 E9.85902
G1 X28.676 Y13.815 E10.03539
G1 X31.913 Y17.051 E10.37172
G1 X31.913 Y34.628 E11.66333
G1 X30.174 Y34.628 E11.79108
G1 X30.174 Y38.628 E12.08502
G1 X29.851 Y38.628 E12.10877
G1 X29.851 Y34.628 E12.40272
G1 X15.527 Y34.628 E13.45531
G1 X15.527 Y37.918 E13.69712
G1 X15.483 Y38.619 E13.74870
G1 X15.353 Y39.303 E13.79993
G1 X15.257 Y39.632 E13.82505
G1 X15.142 Y39.953 E13.85016
G1 X14.845 Y40.584 E13.90139
G1 X14.474 Y41.169 E13.95228
G1 X14.032 Y41.702 E14.00316
G1 X13.524 Y42.179 E14.05440
G1 X13.258 Y42.386 E14.07916
G1 X12.669 Y42.760 E14.13039
G1 X12.043 Y43.054 E14.18128
G1 X11.313 Y43.292 E14.23768
G1 X11.313 Y42.210 E14.31716
G1 X11.663 Y42.099 E14.34417
G1 X12.174 Y41.859 E14.38565
G1 X12.649 Y41.557 E14.42705
G1 X13.080 Y41.201 E14.46810
G1 X13.284 Y40.997 E14.48928
G1 X13.512 Y40.731 E14.51504
G1 X13.801 Y40.331 E14.55130
G1 X14.072 Y39.836 E14.59276
G1 X14.297 Y39.251 E14.63884
G1 X14.418 Y38.772 E14.67512
G1 X14.464 Y38.485 E14.69648
G1 X14.498 Y37.937 E14.73684
G1 X14.498 Y34.628 E14.98003
G1 X13.113 Y34.628 E15.08183
G1 X13.113 Y32.228 E15.25820
G1 X29.453 Y32.228 E16.45896
G1 X29.913 Y32.228 F7800.000
G1 E13.45896 F2400.00000
G92 E0
G1 Z0.550 F7800.000
G1 X15.013 Y34.360 F7800.000
G1 Z0.350 F7800.000
G1 E3.00000 F2400.00000
G1 X15.013 Y37.902 E3.55189 F120.000
G1 X14.975 Y38.530 E3.64991
G1 X14.849 Y39.182 E3.75346
G1 X14.661 Y39.754 E3.84720
G1 X14.390 Y40.334 E3.94693
G1 X14.054 Y40.864 E4.04466
G1 X13.657 Y41.350 E4.14244
G1 X13.431 Y41.569 E4.19157
G1 X12.962 Y41.965 E4.28716
G1 X12.421 Y42.309 E4.38697
G1 X11.853 Y42.576 E4.48480
G1 X11.581 Y42.664 E4.52945
G1 E1.52945 F2400.00000
G92 E0
G1 Z0.550 F7800.000
G1 X13.916 Y33.428 F7800.000
G1 Z0.350 F7800.000
G1 E3.00000 F2400.00000
G1 X30.316 Y33.428 E5.55520 F120.000
G1 X30.645 Y33.360 E5.60747
G1 X30.713 Y33.031 E5.65974
G1 X30.713 Y17.712 E8.04644
G1 X30.697 Y17.555 E8.07114
G1 X30.597 Y17.432 E8.09584
G1 X28.396 Y15.232 E8.58070
G1 E5.58070 F2400.00000
G92 E0
G1 Z0.550 F7800.000
G1 X59.359 Y29.901 F7800.000
G1 Z0.350 F7800.000
G1 E3.00000 F2400.00000
G1 X59.359 Y14.961 E4.09786 F120.000
G1 X57.048 Y12.650 E4.33807
G1 X57.987 Y11.710 E4.43572
G1 X60.688 Y14.411 E4.71638
G1 X60.688 Y31.230 E5.95233
G1 X42.959 Y31.230 E7.25515
G1 X42.959 Y29.901 E7.35279
G1 X59.299 Y29.901 E8.55355
G1 X58.823 Y29.365 F7800.000
G1 X58.823 Y15.183 E9.59575 F120.000
G1 X56.290 Y12.650 E9.85902
G1 X57.987 Y10.953 E10.03539
G1 X61.223 Y14.189 E10.37171
G1 X61.223 Y31.765 E11.66333
G1 X59.485 Y31.765 E11.79108
G1 X59.485 Y35.765 E12.08502
G1 X59.162 Y35.765 E12.10877
G1 X59.162 Y31.765 E12.40272
G1 X44.838 Y31.765 E13.45531
G1 X44.838 Y35.056 E13.69712
G1 X44.794 Y35.757 E13.74870
G1 X44.663 Y36.441 E13.79993
G1 X44.568 Y36.770 E13.82504
G1 X44.452 Y37.091 E13.85016
G1 X44.156 Y37.722 E13.90139
G1 X43.785 Y38.307 E13.95227
G1 X43.343 Y38.840 E14.00316
G1 X42.835 Y39.317 E14.05440
G1 X42.569 Y39.524 E14.07916
G1 X41.980 Y39.897 E14.13039
G1 X41.353 Y40.192 E14.18128
G1 X40.623 Y40.429 E14.23768
G1 X40.623 Y39.348 E14.31716
G1 X40.974 Y39.237 E14.34417
G1 X41.485 Y38.996 E14.38565
G1 X41.960 Y38.695 E14.42705
G1 X42.391 Y38.338 E14.46810
G1 X42.594 Y38.135 E14.48928
G1 X42.823 Y37.869 E14.51503
G1 X43.111 Y37.468 E14.55130
G1 X43.383 Y36.974 E14.59276
G1 X43.608 Y36.389 E14.63884
G1 X43.729 Y35.910 E14.67512
G1 X43.774 Y35.623 E14.69648
G1 X43.809 Y35.075 E14.73684
G1 X43.809 Y31.765 E14.98003
G1 X42.423 Y31.765 E15.08183
G1 X42.423 Y29.365 E15.25820
G1 X58.763 Y29.365 E16.45896
G1 X59.223 Y29.365 F7800.000
G1 E13.45896 F2400.00000
G92 E0
G1 Z0.550 F7800.000
G1 X44.323 Y31.498 F7800.000
G1 Z0.350 F7800.000
G1 E3.00000 F2400.00000
G1 X44.323 Y35.040 E3.55189 F120.000
G1 X44.286 Y35.668 E3.64991
G1 X44.159 Y36.320 E3.75346
G1 X43.972 Y36.892 E3.84720
G1 X43.701 Y37.472 E3.94693
G1 X43.365 Y38.002 E4.04467
G1 X42.968 Y38.488 E4.14244
G1 X42.741 Y38.707 E4.19157
G1 X42.273 Y39.103 E4.28716
G1 X41.732 Y39.447 E4.38697
G1 X41.164 Y39.714 E4.48480
G1 X40.891 Y39.802 E4.52945
G1 E1.52945 F2400.00000
G92 E0
G1 Z0.550 F7800.000
G1 X43.227 Y30.565 F7800.000
G1 Z0.350 F7800.000
G1 E3.00000 F2400.00000
G1 X59.627 Y30.565 E5.55520 F120.000
G1 X59.955 Y30.497 E5.60747
G1 X60.023 Y30.169 E5.65974
G1 X60.023 Y14.850 E8.04644
G1 X60.008 Y14.693 E8.07114
G1 X59.907 Y14.570 E8.09584
G1 X57.707 Y12.369 E8.58070
G1 Z0.350 F7800.000
G1 Z0.650 F7800.000
G1 E5.58070 F2400.00000
G92 E0
G1 Z0.850 F7800.000
G1 X29.214 Y67.020 F7800.000
G1 Z0.650 F7800.000
G1 E3.00000 F2400.00000
G1 X29.214 Y52.445 E3.83758 F1200.000
G1 X26.795 Y50.027 E4.03413
G1 X28.100 Y48.722 E4.14020
G1 X31.059 Y51.681 E4.38069
G1 X31.059 Y68.865 E5.36826
G1 X30.049 Y68.865 E5.42631
G1 X30.049 Y72.865 E5.65618
G1 X28.824 Y72.865 E5.72660
G1 X28.824 Y68.865 E5.95648
G1 X15.225 Y68.865 E6.73799
G1 X15.213 Y72.806 E6.96446
G1 X15.122 Y73.527 E7.00624
G1 X15.043 Y73.882 E7.02714
G1 X14.818 Y74.573 E7.06891
G1 X14.674 Y74.907 E7.08980
G1 X14.324 Y75.544 E7.13158
G1 X14.119 Y75.845 E7.15248
G1 X13.656 Y76.405 E7.19425
G1 X13.126 Y76.902 E7.23603
G1 X12.839 Y77.125 E7.25692
G1 X12.225 Y77.515 E7.29870
G1 X11.567 Y77.824 E7.34047
G1 X11.014 Y78.009 E7.37401
G1 X11.014 Y76.336 E7.47016
G1 X11.225 Y76.257 E7.48311
G1 X11.694 Y75.999 E7.51385
G1 X12.114 Y75.694 E7.54374
G1 X12.326 Y75.507 E7.55999
G1 X12.682 Y75.128 E7.58986
G1 X12.993 Y74.700 E7.62027
G1 X13.244 Y74.244 E7.65015
G1 X13.356 Y73.985 E7.66637
G1 X13.509 Y73.518 E7.69461
G1 X13.616 Y72.972 E7.72659
G1 X13.648 Y72.461 E7.75603
G1 X13.648 Y68.865 E7.96266
G1 X12.814 Y68.865 E8.01060
G1 X12.814 Y67.020 E8.11666
G1 X29.154 Y67.020 E9.05571
G1 X28.837 Y66.643 F7800.000
G1 X28.837 Y52.602 E9.70224 F600.000
G1 X26.262 Y50.027 E9.86990
G1 X28.100 Y48.188 E9.98963
G1 X31.436 Y51.525 E10.20688
G1 X31.436 Y69.243 E11.02272
G1 X30.426 Y69.243 E11.06923
G1 X30.426 Y69.643 E11.08765
G1 X30.426 Y73.243 E11.29454 F1200.000
G1 X30.098 Y73.243 E11.31341
G1 X28.775 Y73.243 E11.37433 F600.000
G1 X28.447 Y73.243 E11.39320 F1200.000
G1 X28.447 Y69.643 E11.60009
G1 X28.447 Y69.243 E11.61851 F600.000
G1 X15.602 Y69.243 E12.20994
G1 X15.602 Y69.643 E12.22836
G1 X15.602 Y72.439 E12.38910 F1200.000
G1 X15.554 Y73.215 E12.43378
G1 X15.493 Y73.598 E12.45604
G1 X15.300 Y74.348 E12.50053
G1 X15.169 Y74.712 E12.52279
G1 X14.839 Y75.413 E12.56729
G1 X14.642 Y75.746 E12.58955
G1 X14.187 Y76.373 E12.63405
G1 X13.657 Y76.937 E12.67855
G1 X13.061 Y77.431 E12.72304
G1 X12.407 Y77.846 E12.76754
G1 X11.706 Y78.175 E12.81204
G1 X10.972 Y78.414 E12.85642
G1 X10.637 Y78.482 E12.87608
G1 X10.637 Y78.335 E12.88453
G1 X10.637 Y76.242 E12.98090 F600.000
G1 X10.637 Y76.074 E12.99056 F1200.000
G1 X11.067 Y75.913 E13.01699
G1 X11.491 Y75.680 E13.04478
G1 X11.878 Y75.399 E13.07227
G1 X12.064 Y75.236 E13.08648
G1 X12.391 Y74.887 E13.11397
G1 X12.674 Y74.497 E13.14165
G1 X12.905 Y74.078 E13.16914
G1 X13.003 Y73.851 E13.18333
G1 X13.143 Y73.423 E13.20925
G1 X13.241 Y72.924 E13.23848
G1 X13.271 Y72.449 E13.26582
G1 X13.271 Y69.643 E13.42710
G1 X13.271 Y69.243 E13.44551 F600.000
G1 X12.437 Y69.243 E13.48393
G1 X12.437 Y66.643 E13.60365
G1 X28.777 Y66.643 E14.35605
G1 X29.237 Y66.643 F7800.000
G1 X30.117 Y66.342 F7800.000
G1 X30.854 Y65.605 E14.41594 F900.000
G1 X29.419 Y64.670 E14.51435
G1 X30.854 Y63.236 E14.63097
G1 X29.419 Y62.301 E14.72938
G1 X30.854 Y60.866 E14.84601
G1 X29.419 Y59.931 E14.94442
G1 X30.854 Y58.496 E15.06104
G1 X29.419 Y57.562 E15.15945
G1 X30.854 Y56.127 E15.27608
G1 X29.419 Y55.192 E15.37449
G1 X30.854 Y53.757 E15.49111
G1 X29.419 Y52.823 E15.58952
G1 X30.677 Y51.565 E15.69175
G1 X29.492 Y50.380 E15.78804
G1 X28.439 Y51.433 E15.87358
G1 X27.255 Y50.248 E15.96987
G1 X28.307 Y49.195 E16.05542
G1 E13.05542 F2400.00000
G92 E0
G1 Z0.850 F7800.000
G1 X26.660 Y67.195 F7800.000
G1 Z0.650 F7800.000
G1 E3.00000 F2400.00000
G1 X26.705 Y67.713 E3.06082 F1200.000
G1 X26.122 Y68.173 F7800.000
G1 X26.167 Y68.690 E3.12165 F1200.000
G1 X25.429 Y68.660 F7800.000
G1 X25.828 Y68.262 E3.15403 F900.000
G1 X24.495 Y67.225 E3.25108
G1 X23.060 Y68.660 E3.36770
G1 X22.125 Y67.225 E3.46611
G1 X20.690 Y68.660 E3.58273
G1 X19.756 Y67.225 E3.68115
G1 X18.321 Y68.660 E3.79777
G1 X17.386 Y67.225 E3.89618
G1 X15.951 Y68.660 E4.01280
G1 X15.017 Y69.594 F7800.000
G1 X13.853 Y70.758 E4.10740 F900.000
G1 X15.010 Y71.971 E4.20372
G1 X13.804 Y73.177 E4.30176
G1 X14.299 Y75.052 E4.41320
G1 X12.024 Y77.327 E4.59807
G1 E1.59807 F2400.00000
G92 E0
G1 Z0.850 F7800.000
G1 X13.582 Y68.660 F7800.000
G1 Z0.650 F7800.000
G1 E3.00000 F2400.00000
G1 X15.017 Y67.225 E3.11662 F900.000
G1 E0.11662 F2400.00000
G92 E0
G1 Z0.850 F7800.000
G1 X27.202 Y67.213 F7800.000
G1 Z0.650 F7800.000
G1 E3.00000 F2400.00000
G1 X27.036 Y67.501 E3.02255 F1200.000
G1 X27.036 Y68.469 E3.08811
G1 X27.761 Y67.213 E3.18636
G1 X28.320 Y67.213 E3.22421
G1 X27.477 Y68.673 E3.33834
G1 X28.036 Y68.673 E3.37619
G1 X28.879 Y67.213 E3.49032
G1 X29.832 Y66.531 F7800.000
G1 X28.595 Y68.673 E3.65777 F1200.000
G1 X29.066 Y68.826 F7800.000
G1 X30.391 Y66.531 E3.83719 F1200.000
G1 X30.817 Y66.761 E3.86998
G1 X29.066 Y69.794 E4.10707
G1 X29.807 Y69.479 E4.16158
G1 X29.066 Y70.762 E4.26190
G1 X29.807 Y70.447 E4.31640
G1 X29.066 Y71.731 E4.41672
G1 X29.807 Y71.416 E4.47122
G1 X29.091 Y72.655 E4.56814
G1 X29.807 Y72.384 E4.61996
G1 X29.640 Y72.673 E4.64252
G1 E1.64252 F2400.00000
G92 E0
G1 Z0.850 F7800.000
G1 X30.273 Y68.673 F7800.000
G1 Z0.650 F7800.000
G1 E3.00000 F2400.00000
G1 X30.817 Y67.730 E3.07372 F1200.000
G1 E0.07372 F2400.00000
G92 E0
G1 Z0.850 F7800.000
G1 X29.400 Y34.350 F7800.000
G1 Z0.650 F7800.000
G1 E3.00000 F2400.00000
G1 X15.801 Y34.350 E3.78152 F1200.000
G1 X15.790 Y38.291 E4.00799
G1 X15.698 Y39.012 E4.04976
G1 X15.619 Y39.367 E4.07066
G1 X15.394 Y40.058 E4.11243
G1 X15.250 Y40.392 E4.13333
G1 X14.900 Y41.029 E4.17511
G1 X14.695 Y41.330 E4.19600
G1 X14.232 Y41.890 E4.23778
G1 X13.702 Y42.387 E4.27955
G1 X13.415 Y42.610 E4.30044
G1 X12.801 Y43.000 E4.34222
G1 X12.144 Y43.309 E4.38400
G1 X11.590 Y43.494 E4.41753
G1 X11.590 Y41.821 E4.51368
G1 X11.801 Y41.742 E4.52663
G1 X12.270 Y41.484 E4.55738
G1 X12.691 Y41.179 E4.58726
G1 X12.903 Y40.992 E4.60351
G1 X13.259 Y40.613 E4.63339
G1 X13.570 Y40.185 E4.66379
G1 X13.820 Y39.729 E4.69367
G1 X13.932 Y39.470 E4.70989
G1 X14.085 Y39.003 E4.73814
G1 X14.192 Y38.457 E4.77011
G1 X14.224 Y37.946 E4.79956
G1 X14.224 Y34.350 E5.00618
G1 X13.390 Y34.350 E5.05413
G1 X13.390 Y32.505 E5.16019
G1 X29.790 Y32.505 E6.10268
G1 X29.790 Y17.930 E6.94026
G1 X27.372 Y15.512 E7.13682
G1 X28.676 Y14.207 E7.24288
G1 X31.635 Y17.166 E7.48337
G1 X31.635 Y34.350 E8.47094
G1 X30.625 Y34.350 E8.52899
G1 X30.625 Y38.350 E8.75887
G1 X29.400 Y38.350 E8.82928
G1 X29.400 Y34.410 E9.05571
G1 X29.023 Y34.728 F7800.000
G1 X16.178 Y34.728 E9.64715 F600.000
G1 X16.178 Y35.128 E9.66557
G1 X16.178 Y37.924 E9.82630 F1200.000
G1 X16.130 Y38.700 E9.87098
G1 X16.069 Y39.083 E9.89324
G1 X15.877 Y39.833 E9.93774
G1 X15.745 Y40.197 E9.96000
G1 X15.416 Y40.898 E10.00450
G1 X15.001 Y41.552 E10.04899
G1 X14.763 Y41.858 E10.07125
G1 X14.233 Y42.422 E10.11575
G1 X13.637 Y42.916 E10.16025
G1 X12.983 Y43.331 E10.20475
G1 X12.282 Y43.660 E10.24924
G1 X11.548 Y43.899 E10.29362
G1 X11.213 Y43.967 E10.31328
G1 X11.213 Y43.820 E10.32174
G1 X11.213 Y41.727 E10.41810 F600.000
G1 X11.213 Y41.559 E10.42777 F1200.000
G1 X11.644 Y41.398 E10.45419
G1 X12.067 Y41.165 E10.48198
G1 X12.454 Y40.884 E10.50948
G1 X12.640 Y40.721 E10.52368
G1 X12.967 Y40.372 E10.55118
G1 X13.250 Y39.982 E10.57885
G1 X13.481 Y39.563 E10.60635
G1 X13.579 Y39.336 E10.62054
G1 X13.719 Y38.908 E10.64646
G1 X13.817 Y38.409 E10.67568
G1 X13.847 Y37.934 E10.70303
G1 X13.847 Y35.128 E10.86430
G1 X13.847 Y34.728 E10.88272 F600.000
G1 X13.013 Y34.728 E10.92113
G1 X13.013 Y32.128 E11.04085
G1 X29.413 Y32.128 E11.79601
G1 X29.413 Y18.087 E12.44254
G1 X26.838 Y15.512 E12.61021
G1 X28.676 Y13.674 E12.72993
G1 X32.013 Y17.010 E12.94718
G1 X32.013 Y34.728 E13.76302
G1 X31.003 Y34.728 E13.80953
G1 X31.003 Y35.128 E13.82795
G1 X31.003 Y38.728 E14.03484 F1200.000
G1 X30.674 Y38.728 E14.05371
G1 X29.351 Y38.728 E14.11464 F600.000
G1 X29.023 Y38.728 E14.13350 F1200.000
G1 X29.023 Y35.128 E14.34039
G1 X29.023 Y34.788 E14.35605 F600.000
G1 X29.023 Y34.328 F7800.000
G1 E11.35605 F2400.00000
G92 E0
G1 Z0.850 F7800.000
G1 X27.281 Y33.198 F7800.000
G1 Z0.650 F7800.000
G1 E3.00000 F2400.00000
G1 X27.236 Y32.680 E3.06082 F1200.000
G1 X26.698 Y33.658 F7800.000
G1 X26.743 Y34.175 E3.12165 F1200.000
G1 E0.12165 F2400.00000
G92 E0
G1 Z0.850 F7800.000
G1 X24.401 Y34.145 F7800.000
G1 Z0.650 F7800.000
G1 E3.00000 F2400.00000
G1 X25.836 Y32.710 E3.11662 F900.000
