; generated by Slic3r 1.2.9 on 2018-03-08 at 18:30:51

; external perimeters extrusion width = 0.40mm
; perimeters extrusion width = 0.48mm
; infill extrusion width = 0.48mm
; solid infill extrusion width = 0.48mm
; top infill extrusion width = 0.48mm

M107
M190 S50 ; set bed temperature
M104 S220 ; set temperature
G28 ; home all axes
G1 Z5 F5000 ; lift nozzle

M109 S220 ; wait for temperature to be reached
G21 ; set units to millimeters
G90 ; use absolute coordinates
M82 ; use absolute distances for extrusion
G92 E0
G1 Z0.350 F7800.000
G1 E-3.00000 F2400.00000
G92 E0
G1 Z0.550 F7800.000
G1 X28.007 Y32.643 F7800.000
G1 Z0.350 F7800.000
G1 E3.00000 F2400.00000
G1 X28.366 Y32.346 E3.03425 F120.000
G1 X28.551 Y32.221 E3.05068
G1 X28.965 Y31.993 E3.08538
G1 X29.388 Y31.826 E3.11881
G1 X29.839 Y31.710 E3.15306
G1 X30.302 Y31.651 E3.18731
G1 X30.527 Y31.644 E3.20385
G1 X30.992 Y31.674 E3.23810
G1 X31.450 Y31.761 E3.27235 F120.000
G1 X31.664 Y31.823 E3.28878
G1 X32.099 Y31.995 E3.32313
G1 X32.509 Y32.221 E3.35749
G1 X32.696 Y32.348 E3.37416
G1 X32.876 Y32.487 E3.39083
G1 X33.217 Y32.807 E3.42519
G1 X33.514 Y33.166 E3.45944
G1 X33.639 Y33.351 E3.47587
G1 X33.866 Y33.764 E3.51047
G1 X33.957 Y33.973 E3.52724
G1 X34.034 Y34.187 E3.54391
G1 X34.150 Y34.639 E3.57826
G1 X34.209 Y35.102 E3.61252
G1 X34.209 Y35.557 E3.64594
G1 X34.150 Y36.021 E3.68030
G1 X34.034 Y36.472 E3.71455
G1 X33.866 Y36.896 E3.74808
G1 X33.639 Y37.309 E3.78268
G1 X33.515 Y37.493 E3.79900
G1 X33.216 Y37.853 E3.83336
G1 X32.876 Y38.173 E3.86772
G1 X32.700 Y38.309 E3.88404
G1 X32.305 Y38.559 E3.91840
G1 X31.882 Y38.759 E3.95275
G1 X31.672 Y38.834 E3.96918
G1 X31.216 Y38.951 E4.00378
G1 X30.997 Y38.986 E4.02010
G1 X30.525 Y39.016 E4.05481
G1 X30.303 Y39.009 E4.07113
G1 X29.839 Y38.950 E4.10549
G1 X29.388 Y38.834 E4.13974
G1 X29.173 Y38.757 E4.15651
G1 X28.964 Y38.666 E4.17328
G1 X28.555 Y38.442 E4.20754
G1 X28.181 Y38.170 E4.24155
G1 X27.841 Y37.851 E4.27580
G1 X27.693 Y37.683 E4.29223
G1 X27.416 Y37.301 E4.32693
G1 X27.303 Y37.110 E4.34325
G1 X27.101 Y36.682 E4.37795
G1 X27.026 Y36.472 E4.39438
G1 X26.910 Y36.021 E4.42864
G1 X26.851 Y35.558 E4.46289
G1 X26.851 Y35.102 E4.49642
G1 X26.910 Y34.639 E4.53067
G1 X27.026 Y34.188 E4.56493
G1 X27.101 Y33.978 E4.58135
G1 X27.301 Y33.555 E4.61571
G1 X27.550 Y33.161 E4.64996
G1 X27.687 Y32.984 E4.66639
G1 X27.966 Y32.687 E4.69634
G1 E1.69634 F2400.00000
G92 E0
G1 Z0.550 F7800.000
G1 X31.048 Y31.981 F7800.000
G1 Z0.350 F7800.000
G1 E3.00000 F2400.00000
G1 X33.887 Y34.820 E3.30124 F120.000
G1 X33.941 Y35.647 E3.36344
G1 X30.213 Y31.919 E3.75898
G1 X29.554 Y32.034 E3.80914
G1 X33.826 Y36.306 E4.26238
G1 X33.620 Y36.873 E4.30767
G1 X28.987 Y32.240 E4.79924
G1 X28.500 Y32.526 E4.84165
G1 X33.334 Y37.360 E5.35461
G1 X32.964 Y37.764 E5.39568
G1 X28.096 Y32.896 E5.91220
G1 X27.728 Y33.301 E5.95328
G1 X32.559 Y38.132 E6.46594
G1 X32.069 Y38.416 E6.50841
G1 X27.444 Y33.791 E6.99918
G1 X27.234 Y34.355 E7.04431
G1 X31.505 Y38.626 E7.49751
G1 X30.840 Y38.734 E7.54807
G1 X27.120 Y35.014 E7.94288
G1 X27.173 Y35.841 E8.00509
G1 X30.019 Y38.687 E8.30706
G1 X28.573 Y38.014 F7800.000
G1 X27.846 Y37.287 E8.38412 F120.000
G1 E5.38412 F2400.00000
G92 E0
G1 Z0.550 F7800.000
G1 X32.472 Y32.632 F7800.000
G1 Z0.350 F7800.000
G1 E3.00000 F2400.00000
G1 X33.187 Y33.347 E3.07590 F120.000
G1 Z0.35 F7800.000
G1 Z0.354 X33.701 Y33.314 E3.08987 F600.000
G1 Z0.360 X33.929 Y33.729 E3.11168
G1 Z0.366 X34.103 Y34.166 E3.13332
G1 Z0.372 X34.221 Y34.626 E3.15519
G1 Z0.378 X34.280 Y35.093 E3.17686
G1 Z0.384 X34.280 Y35.563 E3.19850
G1 Z0.390 X34.221 Y36.034 E3.22037
G1 Z0.396 X34.103 Y36.494 E3.24224
G1 Z0.399 X34.024 Y36.713 E3.25297
G1 Z0.402 X33.931 Y36.927 E3.26369
G1 Z0.408 X33.701 Y37.346 E3.28571
G1 Z0.411 X33.572 Y37.536 E3.29629
G1 Z0.417 X33.269 Y37.902 E3.31817
G1 Z0.423 X32.923 Y38.227 E3.34004
G1 Z0.426 X32.741 Y38.368 E3.35062
G1 Z0.432 X32.340 Y38.623 E3.37249
G1 Z0.438 X31.910 Y38.825 E3.39436
G1 Z0.441 X31.690 Y38.904 E3.40514
G1 Z0.447 X31.231 Y39.022 E3.42696
G1 Z0.450 X31.004 Y39.058 E3.43754
G1 Z0.456 X30.530 Y39.087 E3.45941
G1 Z0.462 X30.056 Y39.058 E3.48129
G1 Z0.465 X29.829 Y39.022 E3.49187
G1 Z0.471 X29.370 Y38.904 E3.51369
G1 Z0.474 X29.150 Y38.825 E3.52447
G1 Z0.480 X28.720 Y38.623 E3.54634
G1 Z0.486 X28.322 Y38.371 E3.56801
G1 Z0.489 X28.137 Y38.227 E3.57879
G1 Z0.495 X27.791 Y37.902 E3.60066
G1 Z0.501 X27.488 Y37.536 E3.62253
G1 Z0.504 X27.357 Y37.343 E3.63326
G1 Z0.507 X27.239 Y37.143 E3.64398
G1 Z0.513 X27.035 Y36.710 E3.66600
G1 Z0.516 X26.956 Y36.490 E3.67678
G1 Z0.522 X26.839 Y36.034 E3.69845
G1 Z0.528 X26.780 Y35.567 E3.72013
G1 Z0.531 X26.772 Y35.330 E3.73105
G1 Z0.534 X26.780 Y35.093 E3.74197
G1 Z0.540 X26.839 Y34.626 E3.76365
G1 Z0.546 X26.956 Y34.170 E3.78532
G1 Z0.549 X27.035 Y33.950 E3.79611
G1 Z0.555 X27.237 Y33.520 E3.81797
G1 Z0.561 X27.489 Y33.122 E3.83965
G1 Z0.564 X27.633 Y32.937 E3.85043
G1 Z0.570 X27.958 Y32.591 E3.87230
G1 Z0.576 X28.320 Y32.291 E3.89397
G1 Z0.579 X28.514 Y32.159 E3.90476
G1 Z0.585 X28.929 Y31.931 E3.92657
G1 Z0.588 X29.147 Y31.836 E3.93749
G1 Z0.591 X29.370 Y31.756 E3.94842
G1 Z0.597 X29.826 Y31.639 E3.97009
G1 Z0.603 X30.297 Y31.580 E3.99196
G1 Z0.606 X30.531 Y31.573 E4.00274
G1 Z0.612 X31.001 Y31.602 E4.02441
G1 Z0.618 X31.467 Y31.691 E4.04628 F600.000
G1 Z0.621 X31.692 Y31.757 E4.05707
G1 Z0.627 X32.130 Y31.930 E4.07874
G1 Z0.633 X32.542 Y32.157 E4.10042
G1 Z0.639 X32.923 Y32.433 E4.12205
G1 Z0.645 X33.269 Y32.758 E4.14393
G1 Z0.650 X33.525 Y33.067 E4.16241
G1 Z0.65 F7800.000
G1 Z0.654 X33.677 Y33.329 E4.17621 F600.000
G1 Z0.660 X33.906 Y33.745 E4.19806
G1 Z0.666 X34.078 Y34.181 E4.21966
G1 Z0.672 X34.193 Y34.631 E4.24104
G1 Z0.678 X34.252 Y35.099 E4.26275
G1 Z0.684 X34.252 Y35.561 E4.28403
G1 Z0.690 X34.193 Y36.029 E4.30574
G1 Z0.696 X34.078 Y36.479 E4.32712
G1 Z0.699 X33.998 Y36.703 E4.33810
G1 Z0.702 X33.906 Y36.915 E4.34874
G1 Z0.708 X33.677 Y37.331 E4.37059
G1 Z0.711 X33.549 Y37.520 E4.38109
G1 Z0.717 X33.249 Y37.883 E4.40280
G1 Z0.723 X32.905 Y38.206 E4.42451
G1 Z0.726 X32.725 Y38.345 E4.43501
G1 Z0.732 X32.327 Y38.598 E4.45672
G1 Z0.738 X31.900 Y38.799 E4.47842
G1 Z0.741 X31.679 Y38.878 E4.48926
G1 Z0.747 X31.226 Y38.994 E4.51078
G1 Z0.750 X31.001 Y39.030 E4.52128
G1 Z0.756 X30.527 Y39.059 E4.54313
G1 Z0.759 X30.292 Y39.052 E4.55396
G1 Z0.765 X29.831 Y38.993 E4.57534
G1 Z0.771 X29.378 Y38.877 E4.59691
G1 Z0.777 X28.939 Y38.703 E4.61862
G1 Z0.780 X28.736 Y38.600 E4.62912
G1 Z0.786 X28.335 Y38.345 E4.65097
G1 Z0.789 X28.155 Y38.206 E4.66147
G1 Z0.795 X27.811 Y37.883 E4.68318
G1 Z0.801 X27.515 Y37.525 E4.70456
G1 Z0.804 X27.381 Y37.328 E4.71554
G1 Z0.807 X27.263 Y37.129 E4.72618
G1 Z0.813 X27.061 Y36.700 E4.74803
G1 Z0.816 X26.984 Y36.485 E4.75853
G1 Z0.822 X26.867 Y36.029 E4.78025
G1 Z0.828 X26.808 Y35.568 E4.80163
G1 Z0.831 X26.800 Y35.330 E4.81260
G1 Z0.834 X26.808 Y35.092 E4.82357
G1 Z0.840 X26.867 Y34.631 E4.84495
G1 Z0.846 X26.982 Y34.181 E4.86633
G1 Z0.849 X27.061 Y33.960 E4.87717
G1 Z0.855 X27.262 Y33.533 E4.89887
G1 Z0.861 X27.511 Y33.141 E4.92025
G1 Z0.864 X27.654 Y32.955 E4.93108
G1 Z0.870 X27.977 Y32.611 E4.95279
G1 Z0.876 X28.335 Y32.315 E4.97417
G1 Z0.879 X28.529 Y32.183 E4.98500
G1 Z0.885 X28.939 Y31.957 E5.00652
G1 Z0.888 X29.157 Y31.862 E5.01750
G1 Z0.891 X29.375 Y31.784 E5.02814
G1 Z0.897 X29.831 Y31.667 E5.04985
G1 Z0.903 X30.299 Y31.608 E5.07155
G1 Z0.906 X30.534 Y31.601 E5.08238
G1 Z0.912 X30.997 Y31.630 E5.10376
G1 Z0.918 X31.461 Y31.718 E5.12547 F600.000
G1 Z0.921 X31.679 Y31.782 E5.13597
G1 Z0.927 X32.118 Y31.956 E5.15768
G1 Z0.933 X32.531 Y32.183 E5.17939
G1 Z0.939 X32.905 Y32.454 E5.20067
G1 Z0.945 X33.249 Y32.777 E5.22238
G1 Z0.950 X33.503 Y33.085 E5.24079
M106 S255
G1 Z0.95 F7800.000
G1 Z0.954 X33.654 Y33.344 E5.25443 F600.000
G1 Z0.960 X33.880 Y33.757 E5.27611
G1 Z0.966 X34.049 Y34.183 E5.29722
G1 Z0.972 X34.166 Y34.636 E5.31877
G1 Z0.978 X34.224 Y35.101 E5.34032
G1 Z0.984 X34.224 Y35.559 E5.36143
G1 Z0.990 X34.166 Y36.024 E5.38298
G1 Z0.996 X34.049 Y36.477 E5.40453
G1 Z1.002 X33.880 Y36.903 E5.42564
G1 Z1.008 X33.655 Y37.313 E5.44719
G1 Z1.014 X33.380 Y37.692 E5.46872
G1 Z1.017 X33.223 Y37.869 E5.47961
G1 Z1.023 X32.889 Y38.182 E5.50069
G1 Z1.029 X32.511 Y38.457 E5.52225
G1 Z1.032 X32.316 Y38.572 E5.53266
G1 Z1.038 X31.890 Y38.772 E5.55434
G1 Z1.041 X31.667 Y38.852 E5.56523
G1 Z1.047 X31.221 Y38.966 E5.58646
G1 Z1.050 X30.997 Y39.002 E5.59688
G1 Z1.056 X30.530 Y39.031 E5.61843
G1 Z1.062 X30.063 Y39.002 E5.63998
G1 Z1.065 X29.839 Y38.966 E5.65040
G1 Z1.071 X29.393 Y38.852 E5.67163
G1 Z1.074 X29.167 Y38.771 E5.68266
G1 Z1.077 X28.957 Y38.680 E5.69321
G1 Z1.083 X28.547 Y38.455 E5.71476
G1 Z1.089 X28.171 Y38.182 E5.73616
G1 Z1.095 X27.837 Y37.869 E5.75725
G1 Z1.098 X27.680 Y37.692 E5.76814
G1 Z1.104 X27.403 Y37.311 E5.78982
G1 Z1.107 X27.288 Y37.116 E5.80023
G1 Z1.113 X27.087 Y36.690 E5.82193
G1 Z1.116 X27.011 Y36.477 E5.83234
G1 Z1.122 X26.894 Y36.023 E5.85389
G1 Z1.128 X26.837 Y35.569 E5.87498
G1 Z1.131 X26.829 Y35.330 E5.88600
G1 Z1.134 X26.837 Y35.091 E5.89702
G1 Z1.140 X26.894 Y34.636 E5.91811
G1 Z1.146 X27.008 Y34.193 E5.93920
G1 Z1.149 X27.088 Y33.970 E5.95008
G1 Z1.155 X27.287 Y33.547 E5.97162
G1 Z1.161 X27.532 Y33.160 E5.99271
G1 Z1.164 X27.676 Y32.973 E6.00360
G1 Z1.170 X27.996 Y32.632 E6.02513
G1 Z1.176 X28.349 Y32.340 E6.04622
G1 Z1.179 X28.544 Y32.206 E6.05711
G1 Z1.185 X28.948 Y31.984 E6.07833
G1 Z1.188 X29.168 Y31.888 E6.08936
G1 Z1.191 X29.383 Y31.811 E6.09991
G1 Z1.197 X29.836 Y31.694 E6.12146
G1 Z1.203 X30.300 Y31.636 E6.14300
G1 Z1.206 X30.537 Y31.629 E6.15388
G1 Z1.212 X30.994 Y31.658 E6.17497
G1 Z1.218 X31.454 Y31.746 E6.19652 F600.000
G1 Z1.221 X31.671 Y31.809 E6.20694
G1 Z1.227 X32.106 Y31.981 E6.22849
G1 Z1.233 X32.507 Y32.201 E6.24957
G1 Z1.239 X32.887 Y32.476 E6.27114
G1 Z1.245 X33.228 Y32.796 E6.29269
G1 Z1.250 X33.482 Y33.103 E6.31102
G1 Z1.25 F7800.000
G1 Z1.254 X33.630 Y33.359 E6.32450 F600.000
G1 Z1.260 X33.849 Y33.757 E6.34542
G1 Z1.266 X34.026 Y34.204 E6.36755
G1 Z1.272 X34.138 Y34.642 E6.38834
G1 Z1.278 X34.196 Y35.102 E6.40973
G1 Z1.284 X34.196 Y35.558 E6.43068
G1 Z1.290 X34.138 Y36.018 E6.45207
G1 Z1.296 X34.026 Y36.456 E6.47286
G1 Z1.299 X33.945 Y36.683 E6.48394
G1 Z1.302 X33.855 Y36.891 E6.49441
G1 Z1.308 X33.630 Y37.301 E6.51594
G1 Z1.311 X33.504 Y37.487 E6.52628
G1 Z1.317 X33.208 Y37.844 E6.54766
G1 Z1.323 X32.869 Y38.162 E6.56904
G1 Z1.326 X32.692 Y38.300 E6.57938
G1 Z1.332 X32.299 Y38.549 E6.60077
G1 Z1.338 X31.879 Y38.746 E6.62215
G1 Z1.341 X31.668 Y38.822 E6.63249
G1 Z1.347 X31.218 Y38.938 E6.65387
G1 Z1.353 X30.770 Y38.995 E6.67466
G1 Z1.359 X30.302 Y38.996 E6.69621
G1 Z1.365 X29.842 Y38.938 E6.71759
G1 Z1.371 X29.404 Y38.826 E6.73838
G1 Z1.374 X29.177 Y38.745 E6.74947
G1 Z1.377 X28.969 Y38.655 E6.75994
G1 Z1.383 X28.562 Y38.431 E6.78132
G1 Z1.389 X28.189 Y38.160 E6.80256
G1 Z1.395 X27.859 Y37.851 E6.82335
G1 Z1.398 X27.702 Y37.674 E6.83429
G1 Z1.404 X27.427 Y37.296 E6.85581
G1 Z1.407 X27.313 Y37.102 E6.86615
G1 Z1.413 X27.114 Y36.679 E6.88768
G1 Z1.416 X27.038 Y36.468 E6.89801
G1 Z1.422 X26.922 Y36.018 E6.91940
G1 Z1.428 X26.865 Y35.570 E6.94019
G1 Z1.431 X26.857 Y35.330 E6.95128
G1 Z1.434 X26.864 Y35.102 E6.96174
G1 Z1.440 X26.922 Y34.642 E6.98313
G1 Z1.446 X27.034 Y34.204 E7.00392
G1 Z1.449 X27.114 Y33.980 E7.01486
G1 Z1.455 X27.311 Y33.560 E7.03623
G1 Z1.461 X27.553 Y33.179 E7.05702
G1 Z1.464 X27.698 Y32.991 E7.06797
G1 Z1.470 X28.016 Y32.652 E7.08934
G1 Z1.476 X28.363 Y32.364 E7.11013
G1 Z1.479 X28.559 Y32.230 E7.12107
G1 Z1.485 X28.969 Y32.005 E7.14259
G1 Z1.488 X29.177 Y31.915 E7.15305
G1 Z1.491 X29.404 Y31.834 E7.16414
G1 Z1.497 X29.842 Y31.722 E7.18493
G1 Z1.503 X30.302 Y31.664 E7.20630
G1 Z1.506 X30.540 Y31.657 E7.21724
G1 Z1.512 X30.990 Y31.686 E7.23803
G1 Z1.518 X31.447 Y31.773 E7.25942 F600.000
G1 Z1.521 X31.662 Y31.836 E7.26976
G1 Z1.527 X32.097 Y32.008 E7.29129
G1 Z1.530 X32.297 Y32.110 E7.30162
G1 Z1.536 X32.692 Y32.360 E7.32315
G1 Z1.539 X32.869 Y32.498 E7.33349
G1 Z1.545 X33.208 Y32.816 E7.35488
G1 Z1.550 X33.460 Y33.121 E7.37312
G1 Z1.55 F7800.000
G1 Z1.554 X33.606 Y33.375 E7.38644 F600.000
G1 Z1.560 X33.822 Y33.767 E7.40707
G1 Z1.566 X34.000 Y34.216 E7.42929
G1 Z1.572 X34.110 Y34.647 E7.44979
G1 Z1.578 X34.167 Y35.089 E7.47029
G1 Z1.584 X34.167 Y35.571 E7.49252
G1 Z1.590 X34.110 Y36.013 E7.51302
G1 Z1.596 X34.000 Y36.444 E7.53352
G1 Z1.602 X33.830 Y36.879 E7.55503
G1 Z1.608 X33.606 Y37.286 E7.57640
G1 Z1.611 X33.481 Y37.470 E7.58665
G1 Z1.617 X33.187 Y37.825 E7.60787
G1 Z1.623 X32.851 Y38.140 E7.62908
G1 Z1.626 X32.662 Y38.286 E7.64007
G1 Z1.632 X32.286 Y38.524 E7.66057
G1 Z1.638 X31.869 Y38.720 E7.68179
G1 Z1.641 X31.659 Y38.796 E7.69205
G1 Z1.647 X31.210 Y38.911 E7.71341
G1 Z1.650 X30.990 Y38.946 E7.72367
G1 Z1.656 X30.530 Y38.975 E7.74489
G1 Z1.662 X30.070 Y38.946 E7.76611
G1 Z1.665 X29.850 Y38.911 E7.77637
G1 Z1.671 X29.416 Y38.800 E7.79701
G1 Z1.674 X29.191 Y38.720 E7.80801
G1 Z1.680 X28.771 Y38.523 E7.82936
G1 Z1.683 X28.580 Y38.409 E7.83961
G1 Z1.689 X28.207 Y38.138 E7.86084
G1 Z1.695 X27.882 Y37.834 E7.88133
G1 Z1.698 X27.723 Y37.656 E7.89233
G1 Z1.704 X27.451 Y37.280 E7.91368
G1 Z1.707 X27.337 Y37.089 E7.92393
G1 Z1.713 X27.140 Y36.669 E7.94530
G1 Z1.716 X27.064 Y36.459 E7.95555
G1 Z1.722 X26.950 Y36.013 E7.97678
G1 Z1.728 X26.893 Y35.571 E7.99727
G1 Z1.731 X26.885 Y35.330 E8.00839
G1 Z1.734 X26.893 Y35.089 E8.01952
G1 Z1.740 X26.950 Y34.647 E8.04002
G1 Z1.746 X27.060 Y34.216 E8.06052
G1 Z1.749 X27.140 Y33.991 E8.07151
G1 Z1.755 X27.336 Y33.574 E8.09272
G1 Z1.761 X27.574 Y33.198 E8.11321
G1 Z1.764 X27.720 Y33.009 E8.12421
G1 Z1.770 X28.035 Y32.673 E8.14542
G1 Z1.776 X28.378 Y32.389 E8.16591
G1 Z1.779 X28.575 Y32.254 E8.17691
G1 Z1.785 X28.967 Y32.038 E8.19753
G1 Z1.788 X29.188 Y31.941 E8.20867
G1 Z1.791 X29.401 Y31.864 E8.21905
G1 Z1.797 X29.847 Y31.750 E8.24027
G1 Z1.803 X30.304 Y31.692 E8.26148
G1 Z1.806 X30.543 Y31.685 E8.27247
G1 Z1.812 X30.987 Y31.714 E8.29297
G1 Z1.818 X31.440 Y31.800 E8.31419 F600.000
G1 Z1.821 X31.653 Y31.862 E8.32445
G1 Z1.827 X32.085 Y32.033 E8.34582
G1 Z1.830 X32.283 Y32.134 E8.35607
G1 Z1.836 X32.675 Y32.383 E8.37744
G1 Z1.839 X32.851 Y32.519 E8.38769
G1 Z1.845 X33.187 Y32.835 E8.40892
G1 Z1.850 X33.439 Y33.139 E8.42708
G1 Z1.85 F7800.000
G1 Z1.854 X33.583 Y33.390 E8.44025 F600.000
G1 Z1.860 X33.796 Y33.776 E8.46057
G1 Z1.866 X33.969 Y34.209 E8.48205
G1 Z1.872 X34.083 Y34.652 E8.50311
G1 Z1.878 X34.140 Y35.106 E8.52417
G1 Z1.884 X34.140 Y35.554 E8.54479
G1 Z1.890 X34.083 Y36.008 E8.56586
G1 Z1.896 X33.974 Y36.433 E8.58606
G1 Z1.899 X33.893 Y36.662 E8.59723
G1 Z1.902 X33.796 Y36.884 E8.60840
G1 Z1.908 X33.584 Y37.268 E8.62860
G1 Z1.914 X33.315 Y37.638 E8.64964
G1 Z1.917 X33.156 Y37.817 E8.66069
G1 Z1.923 X32.836 Y38.117 E8.68089
G1 Z1.929 X32.465 Y38.386 E8.70195
G1 Z1.932 X32.275 Y38.498 E8.71213
G1 Z1.938 X31.859 Y38.694 E8.73331
G1 Z1.941 X31.633 Y38.774 E8.74436
G1 Z1.947 X31.205 Y38.883 E8.76470
G1 Z1.950 X30.986 Y38.918 E8.77488
G1 Z1.956 X30.527 Y38.947 E8.79609
G1 Z1.959 X30.306 Y38.940 E8.80626
G1 Z1.965 X29.852 Y38.883 E8.82733
G1 Z1.971 X29.427 Y38.774 E8.84753
G1 Z1.974 X29.198 Y38.693 E8.85872
G1 Z1.977 X28.993 Y38.604 E8.86901
G1 Z1.983 X28.592 Y38.384 E8.89007
G1 Z1.989 X28.224 Y38.117 E8.91099
G1 Z1.995 X27.904 Y37.817 E8.93119
G1 Z1.998 X27.745 Y37.638 E8.94224
G1 Z2.004 X27.474 Y37.265 E8.96342
G1 Z2.007 X27.362 Y37.075 E8.97360
G1 Z2.013 X27.166 Y36.659 E8.99480
G1 Z2.016 X27.091 Y36.451 E9.00498
G1 Z2.022 X26.977 Y36.008 E9.02604
G1 Z2.028 X26.922 Y35.572 E9.04624
G1 Z2.031 X26.913 Y35.330 E9.05741
G1 Z2.034 X26.922 Y35.088 E9.06858
G1 Z2.040 X26.977 Y34.652 E9.08879
G1 Z2.046 X27.086 Y34.227 E9.10899
G1 Z2.049 X27.166 Y34.001 E9.12004
G1 Z2.055 X27.361 Y33.587 E9.14108
G1 Z2.061 X27.595 Y33.217 E9.16128
G1 Z2.064 X27.741 Y33.027 E9.17233
G1 Z2.070 X28.054 Y32.693 E9.19338
G1 Z2.076 X28.392 Y32.413 E9.21358
G1 Z2.079 X28.590 Y32.277 E9.22463
G1 Z2.085 X28.976 Y32.064 E9.24495
G1 Z2.088 X29.199 Y31.967 E9.25614
G1 Z2.091 X29.409 Y31.891 E9.26644
G1 Z2.097 X29.852 Y31.777 E9.28750
G1 Z2.103 X30.306 Y31.720 E9.30854
