; generated by Slic3r 1.2.9 on 2018-03-09 at 19:00:37

; external perimeters extrusion width = 0.40mm
; perimeters extrusion width = 0.48mm
; infill extrusion width = 0.48mm
; solid infill extrusion width = 0.48mm
; top infill extrusion width = 0.48mm
; support material extrusion width = 0.40mm

M107
M190 S50 ; set bed temperature
M104 S220 ; set temperature
G28 ; home all axes
G1 Z5 F5000 ; lift nozzle

M109 S220 ; wait for temperature to be reached
G21 ; set units to millimeters
G90 ; use absolute coordinates
M82 ; use absolute distances for extrusion
G92 E0
G1 Z0.350 F7800.000
G1 E-3.00000 F2400.00000
G92 E0
G1 Z0.550 F7800.000
G1 X2.654 Y63.613 F7800.000
G1 Z0.350 F7800.000
G1 E3.00000 F2400.00000
G1 X87.985 Y6.056 E10.56382 F120.000
G1 X88.169 Y6.329 E10.58798
G1 X2.838 Y63.886 E18.15179
G1 X2.687 Y63.663 E18.17154
G1 E15.17154 F2400.00000
G92 E0
G1 Z0.550 F7800.000
G1 X6.555 Y60.336 F7800.000
G1 Z0.350 F7800.000
G1 E3.00000 F2400.00000
G1 X4.717 Y57.611 E3.24154 F120.000
G1 X4.521 Y57.258 E3.27123
G1 X4.398 Y56.884 E3.30012
G1 X4.387 Y56.551 E3.32459
G1 X4.408 Y56.458 E3.33166
G1 X4.481 Y56.371 E3.33995
G1 X4.588 Y56.336 E3.34824
G1 X4.683 Y56.352 E3.35531
G1 X4.987 Y56.487 E3.37978
G1 X5.287 Y56.741 E3.40867
G1 X5.542 Y57.055 E3.43835
G1 X7.380 Y59.780 E3.67989
G1 X31.426 Y43.560 E5.81137
G1 X29.588 Y40.835 E6.05291
G1 X29.392 Y40.482 E6.08259
G1 X29.269 Y40.108 E6.11148
G1 X29.258 Y39.776 E6.13595
G1 X29.279 Y39.682 E6.14302
G1 X29.352 Y39.596 E6.15131
G1 X29.459 Y39.560 E6.15960
G1 X29.554 Y39.576 E6.16667
G1 X29.859 Y39.711 E6.19114
G1 X30.159 Y39.965 E6.22004
G1 X30.413 Y40.279 E6.24972
G1 X32.251 Y43.004 E6.49126
G1 X56.297 Y26.784 E8.62273
G1 X54.459 Y24.059 E8.86428
G1 X54.263 Y23.706 E8.89396
G1 X54.140 Y23.333 E8.92285
G1 X54.129 Y23.000 E8.94732
G1 X54.150 Y22.906 E8.95439
G1 X54.223 Y22.820 E8.96268
G1 X54.330 Y22.785 E8.97097
G1 X54.425 Y22.800 E8.97804
G1 X54.730 Y22.935 E9.00251
G1 X55.030 Y23.189 E9.03140
G1 X55.284 Y23.503 E9.06109
G1 X57.122 Y26.228 E9.30263
G1 X81.168 Y10.008 E11.43410
G1 X79.330 Y7.283 E11.67564
G1 X79.134 Y6.930 E11.70533
G1 X79.011 Y6.557 E11.73422
G1 X79.000 Y6.224 E11.75869
G1 X79.021 Y6.130 E11.76576
G1 X79.094 Y6.044 E11.77405
G1 X79.231 Y6.010 E11.78444
G1 X79.478 Y6.092 E11.80356
G1 X79.593 Y6.153 E11.81310
G1 X79.901 Y6.413 E11.84273
G1 X80.155 Y6.727 E11.87241
G1 X81.993 Y9.452 E12.11396
G1 X88.130 Y5.313 E12.65794
G1 X88.913 Y6.473 E12.76082
G1 X2.693 Y64.629 E20.40336
G1 X1.910 Y63.469 E20.50624
G1 X6.505 Y60.369 E20.91354
G1 X6.886 Y60.112 F7800.000
G1 E17.91354 F2400.00000
G92 E0
G1 Z0.550 F7800.000
G1 X88.998 Y6.778 F7800.000
G1 Z0.350 F7800.000
G1 E3.00000 F2400.00000
G1 X96.267 Y17.555 E3.95532 F120.000
G1 X96.396 Y17.869 E3.98018
G1 X96.159 Y18.111 E4.00505
G1 X10.768 Y75.708 E11.57411
G1 X10.455 Y75.836 E11.59897
G1 X10.213 Y75.600 E11.62384
G1 X2.944 Y64.822 E12.57916
G1 E9.57916 F2400.00000
G92 E0
G1 Z0.550 F7800.000
G1 X7.117 Y60.280 F7800.000
G1 Z0.350 F7800.000
G1 E3.00000 F2400.00000
G1 X4.809 Y56.859 E3.64292 F120.000
G1 E0.64292 F2400.00000
G92 E0
G1 Z0.550 F7800.000
G1 X29.681 Y40.083 F7800.000
G1 Z0.350 F7800.000
G1 E3.00000 F2400.00000
G1 X31.988 Y43.504 E3.64292 F120.000
G1 E0.64292 F2400.00000
G92 E0
G1 Z0.550 F7800.000
G1 X56.859 Y26.728 F7800.000
G1 Z0.350 F7800.000
G1 E3.00000 F2400.00000
G1 X54.552 Y23.307 E3.64292 F120.000
G1 E0.64292 F2400.00000
G92 E0
G1 Z0.550 F7800.000
G1 X79.423 Y6.531 F7800.000
G1 Z0.350 F7800.000
G1 E3.00000 F2400.00000
G1 X81.730 Y9.952 E3.64293 F120.000
G1 Z0.350 F7800.000
G1 Z0.650 F7800.000
G1 E0.64293 F2400.00000
G92 E0
G1 Z0.850 F7800.000
G1 X2.998 Y64.545 F7800.000
G1 Z0.650 F7800.000
G1 E3.00000 F2400.00000
G1 X88.720 Y6.724 E7.76119 F600.000
G1 X96.213 Y17.833 E8.37821
G1 X10.491 Y75.654 E13.13940
G1 X3.031 Y64.594 E13.75366
G1 X2.774 Y64.213 F7800.000
G1 E10.75366 F2400.00000
G92 E0
G1 Z0.850 F7800.000
G1 X6.497 Y60.709 F7800.000
G1 Z0.650 F7800.000
G1 E3.00000 F2400.00000
G1 X4.503 Y57.753 E3.20491 F1200.000
G1 X4.300 Y57.424 E3.22717
G1 X4.132 Y57.087 E3.24878
G1 X3.997 Y56.729 E3.27077
G1 X3.915 Y56.347 E3.29323
G1 X3.914 Y55.991 E3.31366 F1200.000
G1 X3.956 Y55.861 E3.32156
G1 X4.053 Y55.726 E3.33106
G1 X4.163 Y55.697 E3.33761
G1 X4.341 Y55.706 E3.34789
G1 X4.670 Y55.838 E3.36824
G1 X4.998 Y56.061 E3.39106 F1200.000
G1 X5.275 Y56.316 E3.41269
G1 X5.524 Y56.598 E3.43430
G1 X5.754 Y56.910 E3.45656
G1 X7.748 Y59.866 E3.66147
G1 X31.368 Y43.934 E5.29885
G1 X29.378 Y40.983 E5.50337
G1 X29.003 Y40.312 E5.54758
G1 X28.899 Y40.041 E5.56425
G1 X28.786 Y39.571 E5.59200
G1 X28.784 Y39.235 E5.61132 F1200.000
G1 X28.847 Y39.045 E5.62283
G1 X28.921 Y38.957 E5.62942
G1 X29.031 Y38.922 E5.63602
G1 X29.230 Y38.934 E5.64753
G1 X29.541 Y39.062 E5.66684
G1 X29.935 Y39.342 E5.69459 F1200.000
G1 X30.147 Y39.540 E5.71126
G1 X30.629 Y40.140 E5.75548
G1 X32.619 Y43.090 E5.96000
G1 X56.239 Y27.158 E7.59738
G1 X54.249 Y24.207 E7.80190
G1 X53.874 Y23.536 E7.84611
G1 X53.770 Y23.265 E7.86278
G1 X53.657 Y22.795 E7.89053
G1 X53.655 Y22.459 E7.90985 F1200.000
G1 X53.719 Y22.269 E7.92136
G1 X53.793 Y22.182 E7.92795
G1 X53.902 Y22.146 E7.93455
G1 X54.101 Y22.158 E7.94605
G1 X54.412 Y22.286 E7.96537
G1 X54.806 Y22.566 E7.99312 F1200.000
G1 X55.018 Y22.764 E8.00979
G1 X55.500 Y23.364 E8.05400
G1 X57.490 Y26.314 E8.25852
G1 X81.110 Y10.382 E9.89590
G1 X79.116 Y7.426 E10.10081
G1 X78.913 Y7.096 E10.12307
G1 X78.745 Y6.760 E10.14468
G1 X78.613 Y6.408 E10.16631
G1 X78.529 Y6.019 E10.18914
G1 X78.529 Y5.665 E10.20949 F1200.000
G1 X78.580 Y5.519 E10.21840
G1 X78.662 Y5.404 E10.22653
G1 X78.812 Y5.368 E10.23535
G1 X78.953 Y5.376 E10.24351
G1 X79.283 Y5.510 E10.26398
G1 X79.612 Y5.734 E10.28681 F1200.000
G1 X79.889 Y5.989 E10.30843
G1 X80.138 Y6.270 E10.33005
G1 X80.367 Y6.582 E10.35230
G1 X82.361 Y9.538 E10.55721
G1 X88.055 Y5.698 E10.95194
G1 X88.528 Y6.399 E11.00053
G1 X2.768 Y64.245 E16.94548
G1 X2.295 Y63.544 E16.99407
G1 X6.447 Y60.743 E17.28190
G1 X5.973 Y60.608 F7800.000
G1 X5.750 Y60.276 E17.30032 F600.000
G1 X4.186 Y57.958 E17.46100 F1200.000
G1 X3.970 Y57.607 E17.48467
G1 X3.786 Y57.238 E17.50838
G1 X3.636 Y56.841 E17.53278
G1 X3.575 Y56.591 E17.54756
G1 X3.540 Y56.410 E17.55817
G1 X3.528 Y56.113 E17.57523
G1 X3.540 Y55.931 E17.58573
G1 X3.625 Y55.676 E17.60115
G1 X3.766 Y55.478 E17.61513
G1 X3.838 Y55.419 E17.62050
G1 X4.031 Y55.336 E17.63255
G1 X4.143 Y55.318 E17.63906
G1 X4.409 Y55.332 E17.65437
G1 X4.599 Y55.392 E17.66585
G1 X4.866 Y55.512 E17.68267
G1 X5.234 Y55.765 E17.70835
G1 X5.545 Y56.052 E17.73263
G1 X5.818 Y56.361 E17.75633
G1 X6.062 Y56.692 E17.78001
G1 X7.626 Y59.010 E17.94069
G1 X7.849 Y59.342 E17.95911 F600.000
G1 X30.844 Y43.832 E19.23629
G1 X30.621 Y43.500 E19.25471
G1 X29.059 Y41.184 E19.41525 F1200.000
G1 X28.762 Y40.677 E19.44900
G1 X28.657 Y40.463 E19.46274
G1 X28.538 Y40.153 E19.48179
G1 X28.411 Y39.629 E19.51278
G1 X28.399 Y39.337 E19.52956
G1 X28.411 Y39.162 E19.53967
G1 X28.503 Y38.887 E19.55634
G1 X28.560 Y38.790 E19.56278
G1 X28.710 Y38.643 E19.57483
G1 X28.902 Y38.560 E19.58687
G1 X29.013 Y38.543 E19.59332
G1 X29.302 Y38.561 E19.60999
G1 X29.469 Y38.616 E19.62010
G1 X29.735 Y38.736 E19.63688
G1 X30.174 Y39.050 E19.66787
G1 X30.416 Y39.276 E19.68691
G1 X30.576 Y39.454 E19.70065
G1 X30.935 Y39.919 E19.73441
G1 X32.497 Y42.235 E19.89495
G1 X32.721 Y42.566 E19.91337 F600.000
G1 X55.715 Y27.056 E21.19055
G1 X55.492 Y26.724 E21.20897
G1 X53.930 Y24.408 E21.36952 F1200.000
G1 X53.633 Y23.901 E21.40327
G1 X53.528 Y23.687 E21.41701
G1 X53.409 Y23.377 E21.43605
G1 X53.282 Y22.853 E21.46704
G1 X53.270 Y22.562 E21.48382
G1 X53.282 Y22.386 E21.49393
G1 X53.374 Y22.111 E21.51060
G1 X53.431 Y22.015 E21.51705
G1 X53.581 Y21.867 E21.52909
G1 X53.773 Y21.784 E21.54114
G1 X53.884 Y21.767 E21.54758
G1 X54.173 Y21.785 E21.56425
G1 X54.340 Y21.840 E21.57436
G1 X54.607 Y21.960 E21.59114
G1 X55.045 Y22.274 E21.62214
G1 X55.287 Y22.500 E21.64118
G1 X55.447 Y22.678 E21.65492
G1 X55.806 Y23.143 E21.68867
G1 X57.368 Y25.459 E21.84922
G1 X57.592 Y25.790 E21.86763 F600.000
G1 X80.587 Y10.280 E23.14481
G1 X80.363 Y9.949 E23.16323
G1 X78.799 Y7.631 E23.32391 F1200.000
G1 X78.583 Y7.280 E23.34759
G1 X78.399 Y6.911 E23.37129
G1 X78.250 Y6.516 E23.39557
G1 X78.153 Y6.079 E23.42125
G1 X78.142 Y5.787 E23.43807
G1 X78.157 Y5.588 E23.44955
G1 X78.242 Y5.344 E23.46439
G1 X78.379 Y5.151 E23.47801
G1 X78.452 Y5.092 E23.48339
G1 X78.534 Y5.047 E23.48877
G1 X78.768 Y4.990 E23.50263
G1 X79.038 Y5.007 E23.51814
G1 X79.212 Y5.064 E23.52865
G1 X79.479 Y5.185 E23.54554
G1 X79.848 Y5.438 E23.57122
G1 X80.158 Y5.724 E23.59550
G1 X80.432 Y6.033 E23.61920
G1 X80.676 Y6.365 E23.64288
G1 X82.239 Y8.683 E23.80356
G1 X82.463 Y9.015 E23.82198 F600.000
G1 X88.157 Y5.174 E24.13824
G1 X96.769 Y17.941 E24.84735
G1 X10.383 Y76.209 E29.64538
G1 X1.771 Y63.442 E30.35450
G1 X5.923 Y60.641 E30.58512
G1 X6.305 Y60.384 F7800.000
G1 X6.907 Y60.943 F7800.000
G1 X2.705 Y63.777 E31.21244 F900.000
G1 E28.21244 F2400.00000
G92 E0
G1 Z0.850 F7800.000
G1 X6.520 Y59.738 F7800.000
G1 Z0.650 F7800.000
G1 E3.00000 F2400.00000
G1 X6.768 Y59.491 E3.02211 F600.000
G1 X7.341 Y59.568 E3.05859
G1 X6.651 Y60.258 E3.12015
G1 X6.913 Y60.646 E3.14971
G1 X7.452 Y60.107 E3.19781
G1 X7.714 Y60.496 E3.22737
G1 X7.448 Y60.762 E3.25113
G1 X7.810 Y60.333 F7800.000
G1 X31.778 Y44.167 E6.82939 F900.000
G1 X32.319 Y43.986 F7800.000
G1 X32.585 Y43.720 E6.85409 F600.000
G1 X32.313 Y43.316 E6.88606
G1 X31.774 Y43.855 E6.93606
G1 X31.501 Y43.451 E6.96803
G1 X32.191 Y42.761 E7.03203
G1 X31.610 Y42.666 E7.07068
G1 X31.360 Y42.916 E7.09383
G1 X31.161 Y42.781 F7800.000
G1 X30.830 Y42.781 E7.11828 F1200.000
G1 X30.490 Y42.278 E7.16311
G1 X31.822 Y42.278 E7.26148
G1 X31.493 Y41.775 E7.30589
G1 X30.150 Y41.775 E7.40502
G1 X29.811 Y41.271 E7.44985
G1 X31.154 Y41.271 E7.54897
G1 X30.814 Y40.768 E7.59380
G1 X29.476 Y40.768 E7.69259
G1 X29.196 Y40.265 E7.73510
G1 X30.469 Y40.265 E7.82907
G1 X30.050 Y39.761 E7.87744
G1 X29.031 Y39.761 E7.95263
G1 X28.979 Y39.258 E7.98999
G1 X29.338 Y39.258 E8.01648
G1 E5.01648 F2400.00000
G92 E0
G1 Z0.850 F7800.000
G1 X32.682 Y43.557 F7800.000
G1 Z0.650 F7800.000
G1 E3.00000 F2400.00000
G1 X56.649 Y27.391 E6.57826 F900.000
G1 X57.190 Y27.210 F7800.000
G1 X57.456 Y26.944 E6.60297 F600.000
G1 X57.184 Y26.540 E6.63493
G1 X56.645 Y27.079 E6.68493
G1 X56.372 Y26.675 E6.71690
G1 X57.062 Y25.986 E6.78090
G1 X56.481 Y25.891 E6.81955
G1 X56.231 Y26.140 E6.84270
G1 X56.032 Y26.006 F7800.000
G1 X55.701 Y26.006 E6.86715 F1200.000
G1 X55.361 Y25.502 E6.91198
G1 X56.694 Y25.502 E7.01035
G1 X56.364 Y24.999 E7.05476
G1 X55.022 Y24.999 E7.15388
G1 X54.682 Y24.496 E7.19871
G1 X56.025 Y24.496 E7.29783
G1 X55.685 Y23.992 E7.34266
G1 X54.347 Y23.992 E7.44145
G1 X54.067 Y23.489 E7.48397
G1 X55.340 Y23.489 E7.57793
G1 X54.921 Y22.985 E7.62631
G1 X53.901 Y22.985 E7.70160
G1 X53.850 Y22.482 E7.73895
G1 X54.209 Y22.482 E7.76544
G1 E4.76544 F2400.00000
G92 E0
G1 Z0.850 F7800.000
G1 X57.553 Y26.782 F7800.000
G1 Z0.650 F7800.000
G1 E3.00000 F2400.00000
G1 X81.520 Y10.615 E6.57826 F900.000
G1 X82.061 Y10.435 F7800.000
G1 X82.327 Y10.168 E6.60203 F600.000
G1 X82.065 Y9.780 E6.63164
G1 X81.526 Y10.319 E6.67978
G1 X81.264 Y9.930 E6.70939
G1 X81.954 Y9.240 E6.77099
G1 X81.383 Y9.160 E6.80742
G1 X81.135 Y9.408 E6.82954
G1 X80.950 Y9.248 F7800.000
G1 X80.602 Y9.248 E6.85564 F1200.000
G1 X80.242 Y8.742 E6.90217
G1 X81.565 Y8.742 E7.00123
G1 X81.243 Y8.235 E7.04618
G1 X79.901 Y8.235 E7.14675
G1 X79.559 Y7.728 E7.19253
G1 X80.902 Y7.728 E7.29310
G1 X80.560 Y7.222 E7.33887
G1 X79.219 Y7.222 E7.43928
G1 X78.934 Y6.715 E7.48284
G1 X80.215 Y6.715 E7.57882
G1 X79.805 Y6.208 E7.62768
G1 X78.772 Y6.208 E7.70499
G1 X78.715 Y5.702 E7.74318
G1 X79.079 Y5.702 E7.77044
G1 E4.77044 F2400.00000
G92 E0
G1 Z0.850 F7800.000
G1 X82.424 Y10.006 F7800.000
G1 Z0.650 F7800.000
G1 E3.00000 F2400.00000
G1 X88.118 Y6.165 E3.85011 F900.000
G1 E0.85011 F2400.00000
G92 E0
G1 Z0.850 F7800.000
G1 X6.793 Y59.303 F7800.000
G1 Z0.650 F7800.000
G1 E3.00000 F2400.00000
G1 X6.847 Y58.923 E3.02742 F1200.000
G1 X6.433 Y58.309 E3.08028
G1 X6.254 Y59.574 E3.17148
G1 X5.796 Y59.277 E3.21048
G1 X6.019 Y57.695 E3.32456
G1 X5.605 Y57.081 E3.37742
G1 X5.382 Y58.664 E3.49149
G1 X4.968 Y58.050 E3.54435
G1 X5.183 Y56.524 E3.65434
G1 X4.739 Y56.124 E3.69702
G1 X4.557 Y57.414 E3.79004
G1 X4.202 Y56.379 F7800.000
G1 X4.270 Y55.896 E3.82482 F1200.000
G1 Z0.950 F7800.000
G1 E0.82482 F2400.00000
G92 E0
G1 Z1.150 F7800.000
G1 X2.998 Y64.545 F7800.000
G1 Z0.950 F7800.000
G1 E3.00000 F2400.00000
G1 X88.720 Y6.724 E7.76119 F600.000
G1 X96.213 Y17.833 E8.37821
G1 X10.491 Y75.654 E13.13940
G1 X3.031 Y64.594 E13.75366
G1 X2.774 Y64.213 F7800.000
G1 E10.75366 F2400.00000
G92 E0
G1 Z1.150 F7800.000
G1 X6.229 Y60.890 F7800.000
G1 Z0.950 F7800.000
G1 E3.00000 F2400.00000
G1 X4.026 Y57.601 E3.22748 F1200.000
G1 X3.849 Y57.286 E3.24827
G1 X3.625 Y56.784 E3.27985
G1 X3.551 Y56.582 E3.29221
G1 X3.452 Y56.211 E3.31431
G1 X3.411 Y55.791 E3.33855
G1 X3.439 Y55.533 E3.35347
G1 X3.488 Y55.368 E3.36337
G1 X3.571 Y55.240 E3.37211
G1 X3.662 Y55.158 E3.37918
G1 X3.773 Y55.104 E3.38624
G1 X3.922 Y55.074 E3.39499
G1 X4.247 Y55.129 E3.41393
G1 X4.359 Y55.167 E3.42070
G1 X4.710 Y55.352 E3.44352
G1 X5.022 Y55.586 E3.46596
G1 X5.305 Y55.848 E3.48809
G1 X5.562 Y56.124 E3.50979
G1 X5.792 Y56.411 E3.53088
G1 X8.016 Y59.685 E3.75836
G1 X31.100 Y44.114 E5.35857
G1 X28.897 Y40.826 E5.58604
G1 X28.718 Y40.505 E5.60713
G1 X28.557 Y40.164 E5.62883
G1 X28.421 Y39.803 E5.65097
G1 X28.321 Y39.425 E5.67346
G1 X28.281 Y39.025 E5.69659
G1 X28.309 Y38.771 E5.71125
G1 X28.370 Y38.568 E5.72346
G1 X28.524 Y38.384 E5.73724
G1 X28.767 Y38.300 E5.75198
G1 X28.978 Y38.320 E5.76420
G1 X29.224 Y38.389 E5.77886
G1 X29.580 Y38.575 E5.80198
G1 X29.893 Y38.810 E5.82447
G1 X30.176 Y39.072 E5.84662
G1 X30.433 Y39.349 E5.86832
G1 X30.663 Y39.635 E5.88941
G1 X32.887 Y42.909 E6.11688
G1 X55.971 Y27.339 E7.71709
G1 X53.768 Y24.050 E7.94457
G1 X53.589 Y23.730 E7.96565
G1 X53.428 Y23.388 E7.98735
G1 X53.292 Y23.028 E8.00950
G1 X53.192 Y22.649 E8.03199
G1 X53.152 Y22.249 E8.05511
G1 X53.180 Y21.995 E8.06977
G1 X53.241 Y21.792 E8.08199
G1 X53.395 Y21.608 E8.09576
G1 X53.638 Y21.524 E8.11051
G1 X53.849 Y21.544 E8.12272
G1 X54.095 Y21.613 E8.13738
G1 X54.451 Y21.800 E8.16051
G1 X54.764 Y22.034 E8.18300
G1 X55.047 Y22.296 E8.20514
G1 X55.304 Y22.573 E8.22684
G1 X55.534 Y22.859 E8.24793
G1 X57.758 Y26.133 E8.47541
G1 X80.842 Y10.563 E10.07561
G1 X78.640 Y7.274 E10.30309
G1 X78.460 Y6.954 E10.32418
G1 X78.300 Y6.612 E10.34588
G1 X78.163 Y6.252 E10.36802
G1 X78.065 Y5.882 E10.39003
G1 X78.023 Y5.479 E10.41330
G1 X78.030 Y5.362 E10.42004
G1 X78.107 Y5.024 E10.43997
G1 X78.229 Y4.867 E10.45137
G1 X78.327 Y4.801 E10.45820
G1 X78.449 Y4.760 E10.46556
G1 X78.591 Y4.753 E10.47373
G1 X78.863 Y4.802 E10.48965
G1 X78.980 Y4.842 E10.49674
G1 X79.319 Y5.022 E10.51881
G1 X79.537 Y5.180 E10.53426
G1 X79.922 Y5.524 E10.56394
G1 X80.170 Y5.791 E10.58489
G1 X80.636 Y6.406 E10.62924
G1 X82.628 Y9.359 E10.83390
G1 X88.055 Y5.698 E11.21015
G1 X88.528 Y6.399 E11.25874
G1 X2.768 Y64.245 E17.20369
G1 X2.295 Y63.544 E17.25228
G1 X6.179 Y60.924 E17.52152
G1 X5.706 Y60.788 F7800.000
G1 X3.704 Y57.799 E17.68716 F600.000
G1 X3.512 Y57.455 E17.70528
G1 X3.275 Y56.926 E17.73198
G1 X3.180 Y56.656 E17.74517
G1 X3.080 Y56.278 E17.76766 F1200.000
G1 X3.031 Y55.788 E17.79593
G1 X3.067 Y55.467 E17.81454
G1 X3.148 Y55.197 E17.83070
G1 X3.282 Y54.992 E17.84478
G1 X3.449 Y54.842 E17.85768
G1 X3.651 Y54.744 E17.87059
G1 X3.891 Y54.696 E17.88467
G1 X4.017 Y54.700 E17.89187
G1 X4.344 Y54.763 E17.91102
G1 X4.508 Y54.819 E17.92101
G1 X4.912 Y55.033 E17.94725
G1 X5.232 Y55.272 E17.97019
G1 X5.572 Y55.580 E17.99135 F600.000
G1 X5.848 Y55.878 E18.01003
G1 X6.095 Y56.186 E18.02823
G1 X8.117 Y59.162 E18.19387
G1 X30.577 Y44.012 E19.44138
G1 X28.576 Y41.023 E19.60702
G1 X28.382 Y40.678 E19.62523
G1 X28.210 Y40.311 E19.64391
G1 X28.051 Y39.880 E19.66503
G1 X27.950 Y39.499 E19.68772 F1200.000
G1 X27.918 Y39.263 E19.70139
G1 X27.902 Y39.016 E19.71562
