; generated by Slic3r 1.2.9 on 2018-03-09 at 20:31:30

; external perimeters extrusion width = 0.40mm
; perimeters extrusion width = 0.48mm
; infill extrusion width = 0.48mm
; solid infill extrusion width = 0.48mm
; top infill extrusion width = 0.48mm
; support material extrusion width = 0.40mm

M107
M190 S50 ; set bed temperature
M104 S220 ; set temperature
G28 ; home all axes
G1 Z5 F5000 ; lift nozzle

M109 S220 ; wait for temperature to be reached
G21 ; set units to millimeters
G90 ; use absolute coordinates
M82 ; use absolute distances for extrusion
G92 E0
G1 Z0.350 F7800.000
G1 E-3.00000 F2400.00000
G92 E0
G1 Z0.550 F7800.000
G1 X45.080 Y19.700 F7800.000
G1 Z0.350 F7800.000
G1 E3.00000 F2400.00000
G1 X49.797 Y24.417 E3.49024 F120.000
G1 X20.331 Y53.883 E6.55249
G1 X15.614 Y49.166 E7.04274
G1 X45.038 Y19.742 E10.10058
G1 X45.080 Y20.457 F7800.000
G1 X49.040 Y24.417 E10.51210 F120.000
G1 X20.331 Y53.126 E13.49563
G1 X16.371 Y49.166 E13.90715
G1 X45.038 Y20.500 E16.88627
G1 X45.363 Y20.174 F7800.000
G1 E13.88627 F2400.00000
G92 E0
G1 Z0.550 F7800.000
G1 X44.373 Y18.528 F7800.000
G1 Z0.350 F7800.000
G1 E3.00000 F2400.00000
G1 X50.262 Y24.417 E3.61205 F120.000
G1 X20.331 Y54.348 E6.72262
G1 X14.442 Y48.459 E7.33466
G1 X44.330 Y18.570 E10.44082
G1 E7.44082 F2400.00000
G92 E0
G1 Z0.550 F7800.000
G1 X40.553 Y21.590 F7800.000
G1 Z0.350 F7800.000
G1 E3.00000 F2400.00000
G1 X44.373 Y17.770 E3.39702 F120.000
G1 X51.020 Y24.417 E4.08778
G1 X20.331 Y55.105 E7.27707
G1 X13.684 Y48.459 E7.96784
G1 X18.636 Y43.507 E8.48243
G1 X16.312 Y41.183 E8.72398
G1 X16.052 Y40.873 E8.75366
G1 X15.860 Y40.530 E8.78255
G1 X15.786 Y40.206 E8.80702
G1 X15.810 Y40.056 E8.81816
G1 X15.889 Y39.977 E8.82634
G1 X16.038 Y39.953 E8.83749
G1 X16.363 Y40.028 E8.86196
G1 X16.706 Y40.220 E8.89085
G1 X17.015 Y40.479 E8.92053
G1 X19.340 Y42.804 E9.16207
G1 X39.849 Y22.294 E11.29355
G1 X37.525 Y19.970 E11.53509
G1 X37.265 Y19.660 E11.56477
G1 X37.073 Y19.317 E11.59366
G1 X36.999 Y18.993 E11.61813
G1 X37.002 Y18.896 E11.62520
G1 X37.057 Y18.798 E11.63350
G1 X37.185 Y18.738 E11.64388
G1 X37.443 Y18.772 E11.66301
G1 X37.567 Y18.809 E11.67254
G1 X37.919 Y19.006 E11.70218
G1 X38.228 Y19.266 E11.73186
G1 X40.510 Y21.548 E11.96899
G1 X40.836 Y21.873 F7800.000
G1 X40.390 Y22.131 F7800.000
G1 X37.472 Y19.214 E12.61192 F120.000
G1 E9.61192 F2400.00000
G92 E0
G1 Z0.550 F7800.000
G1 X44.653 Y19.187 F7800.000
G1 Z0.350 F7800.000
G1 E3.00000 F2400.00000
G1 X15.101 Y48.739 E9.51157 F120.000
G1 E6.51157 F2400.00000
G92 E0
G1 Z0.550 F7800.000
G1 X19.177 Y43.345 F7800.000
G1 Z0.350 F7800.000
G1 E3.00000 F2400.00000
G1 X16.259 Y40.427 E3.64292 F120.000
G1 Z0.350 F7800.000
G1 Z0.650 F7800.000
G1 E0.64292 F2400.00000
G92 E0
G1 Z0.850 F7800.000
G1 X45.080 Y20.065 F7800.000
G1 Z0.650 F7800.000
G1 E3.00000 F2400.00000
G1 X49.432 Y24.417 E3.35370 F1200.000
G1 X20.331 Y53.518 E5.71882
G1 X15.979 Y49.166 E6.07251
G1 X45.038 Y20.108 E8.43419
G1 X45.080 Y20.599 F7800.000
G1 X48.898 Y24.417 E8.68284 F600.000
G1 X20.331 Y52.984 E10.54311
G1 X16.513 Y49.166 E10.79176
G1 X45.038 Y20.641 E12.64927
G1 X45.363 Y20.316 F7800.000
G1 E9.64927 F2400.00000
G92 E0
G1 Z0.850 F7800.000
G1 X40.930 Y21.605 F7800.000
G1 Z0.650 F7800.000
G1 E3.00000 F2400.00000
G1 X44.373 Y18.162 E3.27978 F1200.000
G1 X50.628 Y24.417 E3.78813
G1 X20.331 Y54.713 E6.25043
G1 X14.077 Y48.459 E6.75878
G1 X18.650 Y43.885 E7.13052
G1 X16.134 Y41.368 E7.33504
G1 X15.638 Y40.781 E7.37925
G1 X15.484 Y40.535 E7.39592
G1 X15.284 Y40.095 E7.42367
G1 X15.218 Y39.766 E7.44299 F1200.000
G1 X15.243 Y39.567 E7.45450
G1 X15.299 Y39.467 E7.46109
G1 X15.400 Y39.411 E7.46769
G1 X15.598 Y39.385 E7.47919
G1 X15.928 Y39.451 E7.49851
G1 X16.367 Y39.651 E7.52626 F1200.000
G1 X16.613 Y39.805 E7.54293
G1 X17.201 Y40.302 E7.58714
G1 X19.717 Y42.818 E7.79166
G1 X39.864 Y22.672 E9.42904
G1 X37.342 Y20.150 E9.63395
G1 X37.080 Y19.866 E9.65621
G1 X36.851 Y19.567 E9.67782
G1 X36.653 Y19.247 E9.69945
G1 X36.497 Y18.882 E9.72228
G1 X36.430 Y18.534 E9.74263 F1200.000
G1 X36.455 Y18.357 E9.75290
G1 X36.505 Y18.255 E9.75945
G1 X36.656 Y18.186 E9.76896
G1 X36.792 Y18.169 E9.77685
G1 X37.141 Y18.238 E9.79728
G1 X37.500 Y18.391 E9.81975 F1200.000
G1 X37.826 Y18.592 E9.84173
G1 X38.125 Y18.821 E9.86335
G1 X38.409 Y19.084 E9.88560
G1 X40.888 Y21.562 E10.08707
G1 X40.930 Y21.071 F7800.000
G1 X44.373 Y17.629 E10.31124 F600.000
G1 X51.161 Y24.417 E10.75328
G1 X20.331 Y55.247 E12.76090
G1 X13.543 Y48.459 E13.20295
G1 X18.117 Y43.885 E13.50080
G1 X17.834 Y43.602 E13.51921
G1 X15.859 Y41.627 E13.67976 F1200.000
G1 X15.471 Y41.186 E13.71351
G1 X15.327 Y40.995 E13.72725
G1 X15.151 Y40.714 E13.74629
G1 X14.926 Y40.224 E13.77729
G1 X14.859 Y39.939 E13.79407
G1 X14.837 Y39.765 E13.80418
G1 X14.875 Y39.477 E13.82085
G1 X14.913 Y39.372 E13.82729
G1 X15.031 Y39.199 E13.83934
G1 X15.204 Y39.080 E13.85138
G1 X15.310 Y39.042 E13.85783
G1 X15.597 Y39.005 E13.87450
G1 X15.772 Y39.027 E13.88461
G1 X16.056 Y39.094 E13.90139
G1 X16.546 Y39.318 E13.93238
G1 X16.827 Y39.494 E13.95142
G1 X17.018 Y39.638 E13.96516
G1 X17.459 Y40.026 E13.99891
G1 X19.434 Y42.002 E14.15946
G1 X19.717 Y42.284 E14.17788 F600.000
G1 X39.330 Y22.672 E15.45506
G1 X39.047 Y22.389 E15.47348
G1 X37.070 Y20.412 E15.63416 F1200.000
G1 X36.791 Y20.109 E15.65783
G1 X36.540 Y19.782 E15.68154
G1 X36.318 Y19.422 E15.70582
G1 X36.140 Y19.012 E15.73149
G1 X36.073 Y18.727 E15.74832
G1 X36.050 Y18.529 E15.75979
G1 X36.087 Y18.265 E15.77510
G1 X36.126 Y18.159 E15.78162
G1 X36.245 Y17.986 E15.79366
G1 X36.317 Y17.926 E15.79904
G1 X36.538 Y17.825 E15.81302
G1 X36.804 Y17.791 E15.82844
G1 X36.985 Y17.814 E15.83893
G1 X37.274 Y17.882 E15.85599
G1 X37.445 Y17.951 E15.86661
G1 X37.679 Y18.058 E15.88138
G1 X38.041 Y18.281 E15.90579
G1 X38.368 Y18.532 E15.92949
G1 X38.671 Y18.811 E15.95317
G1 X40.648 Y20.788 E16.11385
G1 X40.888 Y21.029 E16.12951 F600.000
G1 X41.213 Y21.354 F7800.000
G1 X39.956 Y21.199 F7800.000
G1 X39.784 Y20.831 E16.15393 F1200.000
G1 X39.528 Y21.370 E16.18982
G1 X38.834 Y19.881 E16.28868
G1 X38.148 Y20.583 F7800.000
G1 X37.183 Y18.515 E16.42605 F1200.000
G1 X36.731 Y18.632 E16.45417
G1 X37.077 Y19.373 E16.50337
G1 X37.901 Y18.966 F7800.000
G1 X39.097 Y21.533 E16.67385 F1200.000
G1 E13.67385 F2400.00000
G92 E0
G1 Z0.850 F7800.000
G1 X45.231 Y19.618 F7800.000
G1 Z0.650 F7800.000
G1 E3.00000 F2400.00000
G1 X49.879 Y24.266 E3.81360 F900.000
G1 X49.978 Y24.417 E3.83593
G1 X49.879 Y24.568 E3.85827
G1 X20.482 Y53.965 E9.00387
G1 X20.331 Y54.064 E9.02620
G1 X20.180 Y53.965 E9.04854
G1 X15.532 Y49.317 E9.86214
G1 X14.894 Y49.038 F7800.000
G1 X44.938 Y18.994 E12.30393 F900.000
G1 E9.30393 F2400.00000
G92 E0
G1 Z0.850 F7800.000
G1 X40.217 Y21.345 F7800.000
G1 Z0.650 F7800.000
G1 E3.00000 F2400.00000
G1 X39.608 Y21.955 E3.04953 F900.000
G1 E0.04953 F2400.00000
G92 E0
G1 Z0.850 F7800.000
G1 X19.082 Y42.480 F7800.000
G1 Z0.650 F7800.000
G1 E3.00000 F2400.00000
G1 X18.312 Y43.250 E3.06259 F900.000
G1 X18.712 Y42.384 F7800.000
G1 X18.590 Y42.048 E3.09187 F1200.000
G1 X18.240 Y42.627 E3.14717
G1 X17.708 Y41.166 E3.27421
G1 X16.757 Y41.634 F7800.000
G1 X16.071 Y39.751 E3.43793 F1200.000
G1 X15.509 Y39.746 E3.48389
G1 X15.674 Y40.200 E3.52337
G1 X16.834 Y40.305 F7800.000
G1 X17.638 Y42.515 E3.71553 F1200.000
G1 Z0.950 F7800.000
G1 E0.71553 F2400.00000
G92 E0
G1 Z1.150 F7800.000
G1 X45.080 Y20.065 F7800.000
G1 Z0.950 F7800.000
G1 E3.00000 F2400.00000
G1 X49.432 Y24.417 E3.35370 F1200.000
G1 X20.331 Y53.518 E5.71882
G1 X15.979 Y49.166 E6.07251
G1 X45.038 Y20.108 E8.43419
G1 X45.080 Y20.599 F7800.000
G1 X48.898 Y24.417 E8.68284 F600.000
G1 X20.331 Y52.984 E10.54311
G1 X16.513 Y49.166 E10.79176
G1 X45.038 Y20.641 E12.64927
G1 X45.363 Y20.316 F7800.000
G1 E9.64927 F2400.00000
G92 E0
G1 Z1.150 F7800.000
G1 X41.158 Y21.377 F7800.000
G1 Z0.950 F7800.000
G1 E3.00000 F2400.00000
G1 X44.373 Y18.162 E3.26131 F1200.000
G1 X50.628 Y24.417 E3.76965
G1 X20.331 Y54.713 E6.23196
G1 X14.077 Y48.459 E6.74030
G1 X18.423 Y44.112 E7.09356
G1 X15.905 Y41.594 E7.29823
G1 X15.390 Y41.019 E7.34257
G1 X15.172 Y40.720 E7.36382
G1 X14.969 Y40.393 E7.38596
G1 X14.802 Y40.048 E7.40797
G1 X14.684 Y39.661 E7.43124
G1 X14.669 Y39.267 E7.45391
G1 X14.695 Y39.153 E7.46059
G1 X14.770 Y39.021 E7.46932
G1 X14.854 Y38.937 E7.47614
G1 X15.022 Y38.851 E7.48701
G1 X15.233 Y38.830 E7.49923
G1 X15.479 Y38.850 E7.51336
G1 X15.879 Y38.969 E7.53734
G1 X16.113 Y39.079 E7.55223
G1 X16.557 Y39.343 E7.58191
G1 X16.858 Y39.563 E7.60331
G1 X17.138 Y39.800 E7.62440
G1 X19.946 Y42.589 E7.85188
G1 X39.635 Y22.900 E9.45209
G1 X36.845 Y20.092 E9.67956
G1 X36.608 Y19.812 E9.70065
G1 X36.385 Y19.507 E9.72235
G1 X36.183 Y19.180 E9.74448
G1 X36.013 Y18.828 E9.76692
G1 X35.901 Y18.461 E9.78900
G1 X35.876 Y18.186 E9.80486
G1 X35.897 Y17.987 E9.81635
G1 X35.948 Y17.861 E9.82415
G1 X36.022 Y17.763 E9.83122
G1 X36.119 Y17.690 E9.83819
G1 X36.268 Y17.630 E9.84744
G1 X36.501 Y17.619 E9.86084
G1 X36.715 Y17.641 E9.87322
G1 X37.094 Y17.757 E9.89597
G1 X37.441 Y17.925 E9.91816
G1 X37.626 Y18.036 E9.93052
G1 X38.068 Y18.348 E9.96166
G1 X38.640 Y18.859 E10.00570
G1 X41.115 Y21.335 E10.20692
G1 X41.158 Y20.844 F7800.000
G1 X44.373 Y17.629 E10.41628 F600.000
G1 X51.161 Y24.417 E10.85833
G1 X20.331 Y55.247 E12.86595
G1 X13.543 Y48.459 E13.30799
G1 X17.890 Y44.112 E13.59104
G1 X15.631 Y41.853 E13.73813
G1 X15.097 Y41.257 E13.77500
G1 X14.859 Y40.931 E13.79355
G1 X14.621 Y40.539 E13.81468
G1 X14.450 Y40.186 E13.83720 F1200.000
G1 X14.314 Y39.742 E13.86391
G1 X14.291 Y39.570 E13.87388
G1 X14.292 Y39.237 E13.89304
G1 X14.312 Y39.107 E13.90058
G1 X14.349 Y38.999 E13.90717
G1 X14.467 Y38.791 E13.92088
G1 X14.623 Y38.634 E13.93361
G1 X14.830 Y38.517 E13.94728
G1 X14.943 Y38.480 E13.95410
G1 X15.230 Y38.451 E13.97069
G1 X15.548 Y38.477 E13.98902
G1 X16.013 Y38.615 E14.01690
G1 X16.346 Y38.778 E14.03821
G1 X16.765 Y39.028 E14.06066 F600.000
G1 X17.091 Y39.266 E14.07926
G1 X17.393 Y39.521 E14.09746
G1 X19.945 Y42.057 E14.26310
G1 X39.102 Y22.899 E15.51061
G1 X36.567 Y20.347 E15.67625
G1 X36.312 Y20.046 E15.69445
G1 X36.072 Y19.718 E15.71313
G1 X35.834 Y19.326 E15.73426
G1 X35.660 Y18.966 E15.75724 F1200.000
G1 X35.529 Y18.533 E15.78322
G1 X35.497 Y18.184 E15.80339
G1 X35.527 Y17.894 E15.82010
G1 X35.617 Y17.673 E15.83386
G1 X35.753 Y17.494 E15.84676
G1 X35.931 Y17.359 E15.85963
G1 X36.168 Y17.264 E15.87426
G1 X36.517 Y17.241 E15.89438
G1 X36.791 Y17.270 E15.91020
G1 X37.232 Y17.404 E15.93672
G1 X37.585 Y17.576 E15.95929
G1 X37.832 Y17.720 E15.97244 F600.000
G1 X38.304 Y18.052 E15.99901
G1 X38.899 Y18.585 E16.03580
G1 X41.115 Y20.801 E16.18013
G1 X41.441 Y21.127 F7800.000
G1 E13.18013 F2400.00000
G92 E0
G1 Z1.150 F7800.000
G1 X37.481 Y20.484 F7800.000
G1 Z0.950 F7800.000
G1 E3.00000 F2400.00000
G1 X37.789 Y20.226 E3.03436 F1200.000
G1 X37.103 Y20.099 E3.09402
G1 X38.475 Y18.948 E3.24712
G1 X38.070 Y18.586 E3.29359
G1 X36.757 Y19.687 E3.44009
G1 X36.436 Y19.254 E3.48616
G1 X37.619 Y18.262 E3.61820
G1 X37.121 Y17.977 E3.66721
G1 X36.186 Y18.762 E3.77157
G1 X36.106 Y18.127 E3.82626
G1 X36.421 Y17.862 E3.86148
G1 E0.86148 F2400.00000
G92 E0
G1 Z1.150 F7800.000
G1 X38.247 Y20.080 F7800.000
G1 Z0.950 F7800.000
G1 E3.00000 F2400.00000
G1 X41.537 Y23.370 E3.26739 F900.000
G1 X41.655 Y21.118 E3.39696
G1 X42.722 Y22.185 E3.48365
G1 X43.907 Y21.000 E3.57994
G1 X42.840 Y19.934 E3.66664
G1 X44.025 Y18.749 E3.76293
G1 X44.943 Y19.667 E3.83759
G1 E0.83759 F2400.00000
G92 E0
G1 Z1.150 F7800.000
G1 X39.286 Y23.488 F7800.000
G1 Z0.950 F7800.000
G1 E3.00000 F2400.00000
G1 X40.352 Y24.555 E3.08669 F900.000
G1 X39.168 Y25.739 E3.18299
G1 X38.101 Y24.673 E3.26968
G1 X36.916 Y25.857 E3.36597
G1 X37.983 Y26.924 E3.45267
G1 X36.798 Y28.109 E3.54896
G1 X35.731 Y27.042 E3.63565
G1 X34.547 Y28.227 E3.73194
G1 X35.613 Y29.294 E3.81864
G1 X34.428 Y30.478 E3.91493
G1 X33.362 Y29.412 E4.00162
G1 X32.177 Y30.596 E4.09791
G1 X33.244 Y31.663 E4.18461
G1 X32.059 Y32.848 E4.28090
G1 X30.992 Y31.781 E4.36759
G1 X29.807 Y32.966 E4.46388
G1 X30.874 Y34.033 E4.55058
G1 X29.689 Y35.217 E4.64687
G1 X28.623 Y34.151 E4.73356
G1 X27.438 Y35.336 E4.82985
G1 X28.505 Y36.402 E4.91655
G1 X27.320 Y37.587 E5.01284
G1 X26.253 Y36.520 E5.09953
G1 X25.068 Y37.705 E5.19582
G1 X26.135 Y38.772 E5.28252
G1 X24.950 Y39.957 E5.37881
G1 X23.884 Y38.890 E5.46550
G1 X22.699 Y40.075 E5.56179
G1 X23.766 Y41.141 E5.64849
G1 X22.581 Y42.326 E5.74478
G1 X21.514 Y41.259 E5.83147
G1 X20.329 Y42.444 E5.92777
G1 X21.396 Y43.511 E6.01446
G1 X20.211 Y44.696 E6.11075
G1 X16.922 Y41.406 E6.37810
G1 E3.37810 F2400.00000
G92 E0
G1 Z1.150 F7800.000
G1 X17.960 Y44.814 F7800.000
G1 Z0.950 F7800.000
G1 E3.00000 F2400.00000
G1 X19.026 Y45.880 E3.08669 F900.000
G1 X17.842 Y47.065 E3.18299
G1 X16.775 Y45.998 E3.26968
G1 X15.590 Y47.183 E3.36597
G1 X16.657 Y48.250 E3.45266
G1 X15.532 Y49.317 F7800.000
G1 X20.180 Y53.965 E4.26626 F900.000
G1 X20.331 Y54.064 E4.28860
G1 X20.482 Y53.965 E4.31093
G1 X49.879 Y24.568 E9.45653
G1 X49.978 Y24.417 E9.47887
G1 X49.879 Y24.266 E9.50120
G1 X45.231 Y19.618 E10.31480
G1 E7.31480 F2400.00000
G92 E0
G1 Z1.150 F7800.000
G1 X15.228 Y39.065 F7800.000
G1 Z0.950 F7800.000
G1 E3.00000 F2400.00000
G1 X14.883 Y39.355 E3.03844 F1200.000
G1 X14.975 Y39.979 E3.09222
G1 X15.913 Y39.192 E3.19663
G1 X16.416 Y39.471 E3.24569
G1 X15.225 Y40.471 E3.37831
G1 X15.547 Y40.902 E3.42419
G1 X16.862 Y39.798 E3.57062
G1 X17.259 Y40.167 E3.61678
G1 X15.892 Y41.313 E3.76888
G1 X16.570 Y41.445 E3.82781
G1 X16.263 Y41.704 E3.86207
M106 S150.45
G1 Z1.250 F7800.000
G1 E0.86207 F2400.00000
G92 E0
G1 Z1.450 F7800.000
G1 X45.080 Y20.065 F7800.000
G1 Z1.250 F7800.000
G1 E3.00000 F2400.00000
G1 X49.432 Y24.417 E3.35370 F1200.000
G1 X20.331 Y53.518 E5.71882
G1 X15.979 Y49.166 E6.07251
G1 X45.038 Y20.108 E8.43419
G1 X45.080 Y20.599 F7800.000
G1 X48.898 Y24.417 E8.68284 F600.000
G1 X20.331 Y52.984 E10.54311
G1 X16.513 Y49.166 E10.79176
G1 X45.038 Y20.641 E12.64927
G1 X45.363 Y20.316 F7800.000
G1 E9.64927 F2400.00000
G92 E0
G1 Z1.450 F7800.000
G1 X41.314 Y21.221 F7800.000
G1 Z1.250 F7800.000
G1 E3.00000 F2400.00000
G1 X44.373 Y18.162 E3.24858 F1200.000
G1 X50.628 Y24.417 E3.75693
G1 X20.331 Y54.713 E6.21923
G1 X14.077 Y48.459 E6.72758
G1 X18.266 Y44.270 E7.06804
G1 X15.486 Y41.478 E7.29444
G1 X15.009 Y40.914 E7.33688
G1 X14.692 Y40.459 E7.36873
G1 X14.410 Y39.934 E7.40302
G1 X14.281 Y39.564 E7.42552
G1 X14.252 Y39.427 E7.43359
G1 X14.227 Y39.044 E7.45566
G1 X14.274 Y38.830 E7.46825
G1 X14.377 Y38.641 E7.48063
G1 X14.473 Y38.545 E7.48840
G1 X14.599 Y38.469 E7.49685
G1 X14.764 Y38.415 E7.50685
G1 X14.973 Y38.392 E7.51891
G1 X15.259 Y38.419 E7.53544
G1 X15.395 Y38.448 E7.54342
G1 X15.792 Y38.589 E7.56762
G1 X16.116 Y38.754 E7.58854
G1 X16.437 Y38.953 E7.61024
G1 X17.037 Y39.411 E7.65361
G1 X17.580 Y39.913 E7.69608
G1 X20.101 Y42.434 E7.90101
G1 X39.480 Y23.055 E9.47598
G1 X36.958 Y20.534 E9.68090
G1 X36.454 Y19.988 E9.72364
G1 X36.141 Y19.591 E9.75267
G1 X35.907 Y19.249 E9.77651
G1 X35.753 Y18.984 E9.79411
G1 X35.556 Y18.541 E9.82195
G1 X35.465 Y18.204 E9.84202
G1 X35.441 Y17.869 E9.86132
G1 X35.487 Y17.624 E9.87564
G1 X35.551 Y17.486 E9.88440
G1 X35.636 Y17.377 E9.89235
G1 X35.758 Y17.281 E9.90125
G1 X35.920 Y17.216 E9.91129
G1 X36.073 Y17.184 E9.92027
G1 X36.269 Y17.183 E9.93153
G1 X36.580 Y17.229 E9.94962
G1 X37.000 Y17.374 E9.97515
G1 X37.513 Y17.652 E10.00866
G1 X37.962 Y17.965 E10.04012
G1 X38.399 Y18.329 E10.07284
G1 X38.791 Y18.697 E10.10375
G1 X41.272 Y21.178 E10.30538
G1 X41.314 Y20.687 F7800.000
G1 X44.373 Y17.629 E10.50455 F600.000
G1 X51.161 Y24.417 E10.94659
G1 X20.331 Y55.247 E12.95422
G1 X13.543 Y48.459 E13.39626
G1 X17.733 Y44.269 E13.66909
G1 X15.208 Y41.733 E13.83386
G1 X14.710 Y41.144 E13.86938
G1 X14.374 Y40.662 E13.89642
G1 X14.201 Y40.366 E13.91221
G1 X14.061 Y40.079 E13.92691
G1 X13.917 Y39.666 E13.94706
G1 X13.889 Y39.535 E13.95326
M106 S255
G1 X13.845 Y39.132 E13.97653 F1200.000
G1 X13.852 Y38.993 E13.98454
G1 X13.912 Y38.720 E14.00061
G1 X13.954 Y38.613 E14.00721
G1 X14.078 Y38.406 E14.02106
G1 X14.239 Y38.246 E14.03412
G1 X14.441 Y38.124 E14.04765
