; generated by Slic3r 1.2.9 on 2018-03-08 at 21:05:13

; external perimeters extrusion width = 0.40mm
; perimeters extrusion width = 0.48mm
; infill extrusion width = 0.48mm
; solid infill extrusion width = 0.48mm
; top infill extrusion width = 0.48mm

M107
M190 S50 ; set bed temperature
M104 S220 ; set temperature
G28 ; home all axes
G1 Z5 F5000 ; lift nozzle

M109 S220 ; wait for temperature to be reached
G21 ; set units to millimeters
G90 ; use absolute coordinates
M82 ; use absolute distances for extrusion
G92 E0
G1 Z0.350 F7800.000
G1 E-3.00000 F2400.00000
G92 E0
G1 Z0.550 F7800.000
G1 X22.746 Y29.860 F7800.000
G1 Z0.350 F7800.000
G1 E3.00000 F2400.00000
G1 X20.546 Y29.860 E3.16167 F120.000
G1 X20.546 Y28.531 E3.25931
G1 X38.274 Y28.531 E4.56213
G1 X38.274 Y29.860 E4.65977
G1 X36.074 Y29.860 E4.82144
G1 X36.074 Y45.010 E5.93480
G1 X34.746 Y45.010 E6.03245
G1 X34.746 Y29.860 E7.14580
G1 X24.074 Y29.860 E7.92999
G1 X24.074 Y45.010 E9.04335
G1 X22.746 Y45.010 E9.14099
G1 X22.746 Y29.920 E10.24994
G1 X22.210 Y30.395 F7800.000
G1 X20.010 Y30.395 E10.41161 F120.000
G1 X20.010 Y27.995 E10.58798
G1 X21.413 Y27.995 E10.69105
G1 X21.413 Y23.709 E11.00608
G1 X21.448 Y23.306 E11.03576
G1 X21.554 Y22.928 E11.06465
G1 X21.731 Y22.646 E11.08912
G1 X21.820 Y22.563 E11.09804
G1 X21.951 Y22.550 E11.10770
G1 X22.018 Y22.580 E11.11313
G1 X22.089 Y22.646 E11.12020
G1 X22.266 Y22.928 E11.14467
G1 X22.372 Y23.306 E11.17356
G1 X22.407 Y23.709 E11.20324
G1 X22.407 Y27.995 E11.51827
G1 X36.413 Y27.995 E12.54745
G1 X36.413 Y23.709 E12.86248
G1 X36.448 Y23.303 E12.89238
G1 X36.551 Y22.933 E12.92064
G1 X36.731 Y22.646 E12.94555
G1 X36.801 Y22.580 E12.95262
G1 X36.910 Y22.549 E12.96091
G1 X37.019 Y22.580 E12.96920
G1 X37.094 Y22.651 E12.97684
G1 X37.263 Y22.918 E13.00005
G1 X37.372 Y23.306 E13.02968
G1 X37.407 Y23.709 E13.05936
G1 X37.407 Y27.995 E13.37439
G1 X38.810 Y27.995 E13.47747
G1 X38.810 Y30.395 E13.65383
G1 X36.610 Y30.395 E13.81550
G1 X36.610 Y45.546 E14.92886
G1 X34.210 Y45.546 E15.10522
G1 X34.210 Y30.395 E16.21858
G1 X24.610 Y30.395 E16.92405
G1 X24.610 Y45.546 E18.03741
G1 X22.210 Y45.546 E18.21377
G1 X22.210 Y30.455 E19.32272
G1 X22.210 Y29.995 F7800.000
G1 X20.813 Y29.195 F7800.000
G1 X23.013 Y29.195 E19.66549 F120.000
G1 X24.449 Y29.554 E19.89608
G1 E16.89608 F2400.00000
G92 E0
G1 Z0.550 F7800.000
G1 X21.910 Y28.263 F7800.000
G1 Z0.350 F7800.000
G1 E3.00000 F2400.00000
G1 X21.910 Y23.137 E3.79873 F120.000
G1 E0.79873 F2400.00000
G92 E0
G1 Z0.550 F7800.000
G1 X36.907 Y23.132 F7800.000
G1 Z0.350 F7800.000
G1 E3.00000 F2400.00000
G1 X36.910 Y28.263 E3.79950 F120.000
G1 X36.449 Y29.554 F7800.000
G1 X35.013 Y29.195 E4.03009 F120.000
G1 X23.807 Y29.195 E5.77617
G1 X23.410 Y29.295 E5.83986
G1 X23.410 Y44.743 E8.24674
G1 E5.24674 F2400.00000
G92 E0
G1 Z0.550 F7800.000
G1 X35.410 Y44.743 F7800.000
G1 Z0.350 F7800.000
G1 E3.00000 F2400.00000
G1 X35.410 Y29.295 E5.40688 F120.000
G1 X35.807 Y29.195 E5.47057
G1 X38.007 Y29.195 E5.81334
G1 Z0.650 F7800.000
G1 E2.81334 F2400.00000
G92 E0
G1 Z0.850 F7800.000
G1 X22.487 Y30.118 F7800.000
G1 Z0.650 F7800.000
G1 E3.00000 F2400.00000
G1 X20.287 Y30.118 E3.12643 F1200.000
G1 X20.287 Y28.273 E3.23249
G1 X21.156 Y28.273 E3.28240
G1 X21.156 Y23.707 E3.54478
G1 X21.171 Y23.320 E3.56704
G1 X21.220 Y22.947 E3.58865
G1 X21.306 Y22.587 E3.60995
G1 X21.467 Y22.200 E3.63405
G1 X21.652 Y21.924 E3.65308 F1200.000
G1 X21.781 Y21.825 E3.66246
G1 X21.910 Y21.777 E3.67038
G1 X22.042 Y21.826 E3.67850
G1 X22.155 Y21.911 E3.68659
G1 X22.360 Y22.207 E3.70729
G1 X22.511 Y22.575 E3.73016 F1200.000
G1 X22.600 Y22.947 E3.75215
G1 X22.649 Y23.320 E3.77376
G1 X22.664 Y23.707 E3.79602
G1 X22.664 Y28.273 E4.05840
G1 X36.156 Y28.273 E4.83374
G1 X36.156 Y23.707 E5.09612
G1 X36.171 Y23.320 E5.11838
G1 X36.220 Y22.947 E5.13999
G1 X36.307 Y22.581 E5.16161
G1 X36.455 Y22.212 E5.18444
G1 X36.653 Y21.917 E5.20487 F1200.000
G1 X36.857 Y21.788 E5.21875
G1 X36.937 Y21.786 E5.22337
G1 X37.167 Y21.917 E5.23859
G1 X37.365 Y22.212 E5.25901
G1 X37.511 Y22.575 E5.28148 F1200.000
G1 X37.600 Y22.947 E5.30347
G1 X37.649 Y23.320 E5.32509
G1 X37.664 Y23.707 E5.34734
G1 X37.664 Y28.273 E5.60972
G1 X38.533 Y28.273 E5.65963
G1 X38.533 Y30.118 E5.76569
G1 X36.333 Y30.118 E5.89212
G1 X36.333 Y45.569 E6.78006
G1 X34.487 Y45.569 E6.88612
G1 X34.487 Y30.118 E7.77406
G1 X24.333 Y30.118 E8.35763
G1 X24.333 Y45.569 E9.24557
G1 X22.487 Y45.569 E9.35163
G1 X22.487 Y30.178 E10.23612
G1 X22.110 Y30.495 F7800.000
G1 X19.910 Y30.495 E10.33742 F600.000
G1 X19.910 Y27.895 E10.45714
G1 X20.778 Y27.895 E10.49713
G1 X20.778 Y27.495 E10.51555
G1 X20.778 Y23.699 E10.73370 F1200.000
G1 X20.795 Y23.288 E10.75737
G1 X20.849 Y22.879 E10.78108
G1 X20.946 Y22.470 E10.80524
G1 X21.149 Y21.982 E10.83562
G1 X21.376 Y21.660 E10.85823
G1 X21.596 Y21.491 E10.87417
G1 X21.817 Y21.409 E10.88772
G1 X21.910 Y21.400 E10.89309
G1 X22.003 Y21.409 E10.89847
G1 X22.225 Y21.492 E10.91209
G1 X22.428 Y21.644 E10.92665
G1 X22.673 Y21.986 E10.95084
G1 X22.785 Y22.227 E10.96614
G1 X22.873 Y22.466 E10.98074
G1 X22.971 Y22.879 E11.00515
G1 X23.025 Y23.288 E11.02885
G1 X23.042 Y23.699 E11.05253
G1 X23.042 Y27.495 E11.27068
G1 X23.042 Y27.895 E11.28910 F600.000
G1 X35.778 Y27.895 E11.87558
G1 X35.778 Y27.495 E11.89400
G1 X35.778 Y23.699 E12.11215 F1200.000
G1 X35.795 Y23.288 E12.13582
G1 X35.849 Y22.879 E12.15953
G1 X35.946 Y22.468 E12.18381
G1 X36.110 Y22.052 E12.20948
G1 X36.265 Y21.802 E12.22637
G1 X36.377 Y21.658 E12.23687
G1 X36.479 Y21.567 E12.24474
G1 X36.711 Y21.437 E12.26004
G1 X36.801 Y21.412 E12.26541
G1 X36.975 Y21.408 E12.27542
G1 X37.113 Y21.439 E12.28352
G1 X37.341 Y21.567 E12.29854
G1 X37.443 Y21.658 E12.30641
G1 X37.555 Y21.802 E12.31690
G1 X37.711 Y22.055 E12.33396
G1 X37.784 Y22.225 E12.34458
G1 X37.873 Y22.466 E12.35935
G1 X37.971 Y22.879 E12.38376
G1 X38.025 Y23.288 E12.40746
G1 X38.042 Y23.699 E12.43114
G1 X38.042 Y27.495 E12.64929
G1 X38.042 Y27.895 E12.66771 F600.000
G1 X38.910 Y27.895 E12.70770
G1 X38.910 Y30.495 E12.82742
G1 X36.710 Y30.495 E12.92872
G1 X36.710 Y45.946 E13.64016
G1 X34.110 Y45.946 E13.75988
G1 X34.110 Y30.495 E14.47133
G1 X24.710 Y30.495 E14.90416
G1 X24.710 Y45.946 E15.61561
G1 X22.110 Y45.946 E15.73533
G1 X22.110 Y30.555 E16.44401
G1 X22.110 Y30.095 F7800.000
G1 X21.920 Y29.913 F7800.000
G1 X23.355 Y28.478 E16.56063 F900.000
G1 X22.459 Y27.005 F7800.000
G1 X21.361 Y28.103 E16.64988 F900.000
G1 X20.986 Y28.478 F7800.000
G1 X20.493 Y28.971 E16.68995 F900.000
G1 E13.68995 F2400.00000
G92 E0
G1 Z0.850 F7800.000
G1 X35.203 Y28.478 F7800.000
G1 Z0.650 F7800.000
G1 E3.00000 F2400.00000
G1 X33.768 Y29.913 E3.11662 F900.000
G1 X32.833 Y28.478 E3.21504
G1 X31.398 Y29.913 E3.33166
G1 X30.464 Y28.478 E3.43007
G1 X29.029 Y29.913 E3.54669
G1 X28.094 Y28.478 E3.64511
G1 X26.659 Y29.913 E3.76173
G1 X25.725 Y28.478 E3.86014
G1 X22.693 Y31.510 E4.10658
G1 X24.127 Y32.445 E4.20499
G1 X22.693 Y33.880 E4.32161
G1 X24.127 Y34.814 E4.42003
G1 X22.693 Y36.249 E4.53665
G1 X24.127 Y37.184 E4.63506
G1 X22.693 Y38.619 E4.75168
G1 X24.127 Y39.553 E4.85010
G1 X22.693 Y40.988 E4.96672
G1 X24.127 Y41.923 E5.06513
G1 X22.693 Y43.358 E5.18175
G1 X24.127 Y44.292 E5.28017
G1 X23.056 Y45.364 E5.36722
G1 E2.36722 F2400.00000
G92 E0
G1 Z0.850 F7800.000
G1 X34.904 Y45.364 F7800.000
G1 Z0.650 F7800.000
G1 E3.00000 F2400.00000
G1 X36.127 Y44.140 E3.09943 F900.000
G1 X34.693 Y43.206 E3.19784
G1 X36.127 Y41.771 E3.31446
G1 X34.693 Y40.836 E3.41288
G1 X36.127 Y39.401 E3.52950
G1 X34.693 Y38.466 E3.62791
G1 X36.127 Y37.032 E3.74453
G1 X34.693 Y36.097 E3.84295
G1 X36.127 Y34.662 E3.95957
G1 X34.693 Y33.727 E4.05798
G1 X36.127 Y32.292 E4.17461
G1 X34.693 Y31.358 E4.27302
G1 X37.572 Y28.478 E4.50708
G1 X36.361 Y27.320 E4.60339
G1 X37.227 Y26.453 E4.67381
G1 X37.239 Y26.302 F7800.000
G1 X37.412 Y25.931 E4.70725 F1200.000
G1 X36.719 Y26.169 E4.76718
G1 X37.412 Y24.683 E4.90132
G1 X36.408 Y24.340 F7800.000
G1 X37.259 Y22.516 E5.06603 F1200.000
G1 X36.874 Y22.092 E5.11283
G1 X36.549 Y22.790 E5.17585
G1 X37.406 Y23.448 F7800.000
G1 X36.408 Y25.587 E5.36904 F1200.000
G1 E2.36904 F2400.00000
G92 E0
G1 Z0.850 F7800.000
G1 X22.407 Y24.644 F7800.000
G1 Z0.650 F7800.000
G1 E3.00000 F2400.00000
G1 X21.792 Y26.117 E3.11228 F1200.000
G1 X22.407 Y25.924 E3.15757
G1 X22.247 Y26.307 E3.18679
G1 X21.413 Y25.746 F7800.000
G1 X22.398 Y23.384 E3.36685 F1200.000
G1 X21.859 Y22.116 F7800.000
G1 X21.521 Y22.928 E3.42873 F1200.000
G1 X21.737 Y22.411 E3.46816
G1 X22.238 Y22.489 E3.50384
G1 X21.413 Y24.466 E3.65455
G1 Z0.950 F7800.000
G1 E0.65455 F2400.00000
G92 E0
G1 Z1.150 F7800.000
G1 X22.487 Y30.118 F7800.000
G1 Z0.950 F7800.000
G1 E3.00000 F2400.00000
G1 X20.287 Y30.118 E3.12643 F1200.000
G1 X20.287 Y28.273 E3.23249
G1 X20.834 Y28.273 E3.26392
G1 X20.834 Y23.711 E3.52606
G1 X20.877 Y22.941 E3.57040
G1 X20.933 Y22.581 E3.59135
G1 X21.060 Y22.080 E3.62103
G1 X21.149 Y21.835 E3.63602
G1 X21.331 Y21.493 E3.65829
G1 X21.508 Y21.281 E3.67414
G1 X21.663 Y21.155 E3.68564
G1 X21.798 Y21.098 E3.69405
G1 X21.985 Y21.089 E3.70482
G1 X22.157 Y21.155 E3.71540
G1 X22.312 Y21.281 E3.72690
G1 X22.489 Y21.493 E3.74275
G1 X22.670 Y21.832 E3.76482
G1 X22.798 Y22.201 E3.78727
G1 X22.886 Y22.576 E3.80940
G1 X22.944 Y22.949 E3.83110
G1 X22.975 Y23.314 E3.85218
G1 X22.987 Y28.273 E4.13713
G1 X35.834 Y28.273 E4.87543
G1 X35.834 Y23.711 E5.13757
G1 X35.877 Y22.946 E5.18161
G1 X35.969 Y22.412 E5.21274
G1 X36.021 Y22.204 E5.22509
G1 X36.150 Y21.832 E5.24772
G1 X36.338 Y21.482 E5.27054
G1 X36.606 Y21.192 E5.29323
G1 X36.806 Y21.095 E5.30605
G1 X36.920 Y21.085 E5.31260
G1 X37.028 Y21.101 E5.31891
G1 X37.157 Y21.155 E5.32692
G1 X37.314 Y21.283 E5.33858
G1 X37.473 Y21.469 E5.35263
G1 X37.673 Y21.841 E5.37687
G1 X37.798 Y22.201 E5.39878
G1 X37.886 Y22.576 E5.42093
G1 X37.943 Y22.941 E5.44217
G1 X37.986 Y23.711 E5.48652
G1 X37.986 Y28.273 E5.74865
G1 X38.533 Y28.273 E5.78008
G1 X38.533 Y30.118 E5.88614
G1 X36.333 Y30.118 E6.01257
G1 X36.333 Y45.869 E6.91775
G1 X34.487 Y45.869 E7.02381
G1 X34.487 Y30.118 E7.92899
G1 X24.333 Y30.118 E8.51256
G1 X24.333 Y45.869 E9.41774
G1 X22.487 Y45.869 E9.52380
G1 X22.487 Y30.178 E10.42553
G1 X22.110 Y30.495 F7800.000
G1 X19.910 Y30.495 E10.52683 F600.000
G1 X19.910 Y27.895 E10.64655
G1 X20.457 Y27.895 E10.67174
G1 X20.457 Y23.701 E10.86488
G1 X20.501 Y22.902 E10.90175
G1 X20.563 Y22.505 E10.92022
G1 X20.683 Y22.033 E10.94267
G1 X20.803 Y21.681 E10.96401 F1200.000
G1 X21.017 Y21.281 E10.99006
G1 X21.241 Y21.012 E11.01023
G1 X21.467 Y20.828 E11.02694
G1 X21.691 Y20.734 E11.04091
G1 X21.830 Y20.710 E11.04901
G1 X22.026 Y20.712 E11.06030
G1 X22.126 Y20.733 E11.06616
G1 X22.353 Y20.828 E11.08031
G1 X22.579 Y21.012 E11.09702
G1 X22.803 Y21.281 E11.11719
G1 X23.016 Y21.680 E11.14317
G1 X23.147 Y22.057 E11.16611
G1 X23.257 Y22.503 E11.18727 F600.000
G1 X23.319 Y22.904 E11.20595
G1 X23.352 Y23.298 E11.22415
G1 X23.364 Y27.895 E11.43584
G1 X35.457 Y27.895 E11.99269
G1 X35.457 Y23.701 E12.18583
G1 X35.501 Y22.903 E12.22261
G1 X35.600 Y22.335 E12.24919
G1 X35.672 Y22.058 E12.26237
G1 X35.804 Y21.680 E12.28534 F1200.000
G1 X36.019 Y21.277 E12.31159
G1 X36.124 Y21.139 E12.32158
G1 X36.360 Y20.904 E12.34073
G1 X36.462 Y20.830 E12.34793
G1 X36.694 Y20.733 E12.36240
G1 X36.941 Y20.706 E12.37671
G1 X37.131 Y20.735 E12.38774
G1 X37.353 Y20.828 E12.40157
G1 X37.579 Y21.012 E12.41834
G1 X37.786 Y21.255 E12.43665
G1 X38.019 Y21.688 E12.46492
G1 X38.148 Y22.058 E12.48745
G1 X38.257 Y22.503 E12.50855 F600.000
G1 X38.319 Y22.902 E12.52710
G1 X38.363 Y23.701 E12.56397
G1 X38.363 Y27.895 E12.75711
G1 X38.910 Y27.895 E12.78229
G1 X38.910 Y30.495 E12.90201
G1 X36.710 Y30.495 E13.00331
G1 X36.710 Y46.246 E13.72857
G1 X34.110 Y46.246 E13.84829
G1 X34.110 Y30.495 E14.57355
G1 X24.710 Y30.495 E15.00639
G1 X24.710 Y46.246 E15.73165
G1 X22.110 Y46.246 E15.85137
G1 X22.110 Y30.555 E16.57386
G1 X22.110 Y30.095 F7800.000
G1 X20.685 Y29.913 F7800.000
G1 X20.493 Y29.720 E16.58951 F900.000
G1 E13.58951 F2400.00000
G92 E0
G1 Z1.150 F7800.000
G1 X23.989 Y28.478 F7800.000
G1 Z0.950 F7800.000
G1 E3.00000 F2400.00000
G1 X25.424 Y29.913 E3.11662 F900.000
G1 X26.359 Y28.478 E3.21504
G1 X27.794 Y29.913 E3.33166
G1 X28.728 Y28.478 E3.43007
G1 X30.163 Y29.913 E3.54669
G1 X31.098 Y28.478 E3.64511
G1 X32.533 Y29.913 E3.76173
G1 E0.76173 F2400.00000
G92 E0
G1 Z1.150 F7800.000
G1 X37.781 Y25.683 F7800.000
G1 Z0.950 F7800.000
G1 E3.00000 F2400.00000
G1 X36.447 Y24.348 E3.10842 F900.000
G1 X36.039 Y26.311 E3.22361
G1 X37.781 Y28.052 E3.36511
G1 X37.272 Y29.913 E3.47598
G1 X35.837 Y28.478 E3.59260
G1 X33.467 Y28.478 E3.72878
G1 X36.127 Y31.138 E3.94497
G1 X34.693 Y32.073 E4.04338
G1 X36.127 Y33.508 E4.16000
G1 X34.693 Y34.442 E4.25842
G1 X36.127 Y35.877 E4.37504
G1 X34.693 Y36.812 E4.47345
G1 X36.127 Y38.247 E4.59007
G1 X34.693 Y39.181 E4.68849
G1 X36.127 Y40.616 E4.80511
G1 X34.693 Y41.551 E4.90352
G1 X36.127 Y42.986 E5.02014
G1 X34.693 Y43.920 E5.11856
G1 X36.127 Y45.355 E5.23518
G1 E2.23518 F2400.00000
G92 E0
G1 Z1.150 F7800.000
G1 X24.127 Y45.203 F7800.000
G1 Z0.950 F7800.000
G1 E3.00000 F2400.00000
G1 X22.693 Y43.768 E3.11662 F900.000
G1 X24.127 Y42.833 E3.21504
G1 X22.693 Y41.398 E3.33166
G1 X24.127 Y40.464 E3.43007
G1 X22.693 Y39.029 E3.54669
G1 X24.127 Y38.094 E3.64511
G1 X22.693 Y36.659 E3.76173
G1 X24.127 Y35.725 E3.86014
G1 X22.693 Y34.290 E3.97676
G1 X24.127 Y33.355 E4.07518
G1 X22.693 Y31.920 E4.19180
G1 X24.127 Y30.986 E4.29021
G1 X21.039 Y27.898 E4.54119
G1 X22.779 Y27.268 E4.64752
G1 X21.039 Y25.528 E4.78891
G1 X22.233 Y24.352 E4.88521
G1 X22.773 Y24.892 E4.92913
G1 E1.92913 F2400.00000
G92 E0
G1 Z1.150 F7800.000
G1 X36.486 Y21.778 F7800.000
G1 Z0.950 F7800.000
G1 E3.00000 F2400.00000
G1 X36.943 Y21.321 E3.04443 F1200.000
G1 X37.344 Y21.610 E3.07841
G1 X36.141 Y22.812 E3.19535
G1 X36.061 Y23.582 E3.24855
G1 X37.559 Y22.085 E3.39417
G1 X37.693 Y22.639 E3.43343
G1 X36.171 Y24.162 E3.58149
G1 X36.911 Y24.111 E3.63252
G1 X37.752 Y23.270 E3.71428
G1 X37.772 Y23.940 E3.76037
G1 X37.542 Y24.169 E3.78268
G1 E0.78268 F2400.00000
G92 E0
G1 Z1.150 F7800.000
G1 X22.522 Y24.160 F7800.000
G1 Z0.950 F7800.000
G1 E3.00000 F2400.00000
G1 X22.770 Y23.951 E3.02414 F1200.000
G1 X22.769 Y23.293 E3.07315
G1 X21.814 Y24.094 E3.16592
G1 X21.040 Y24.083 E3.22353
G1 X22.707 Y22.685 E3.38550
G1 X22.580 Y22.132 E3.42775
G1 X21.063 Y23.405 E3.57520
G1 X21.147 Y22.675 E3.62995
G1 X22.368 Y21.651 E3.74857
G1 X21.973 Y21.322 E3.78681
G1 X21.551 Y21.676 E3.82779
M106 S198.9
G1 Z1.250 F7800.000
G1 E0.82779 F2400.00000
G92 E0
G1 Z1.450 F7800.000
G1 X22.487 Y30.118 F7800.000
G1 Z1.250 F7800.000
G1 E3.00000 F2400.00000
G1 X20.287 Y30.118 E3.12643 F1200.000
G1 X20.287 Y28.273 E3.23249
G1 X20.613 Y28.273 E3.25120
G1 X20.613 Y23.707 E3.51359
G1 X20.642 Y22.964 E3.55633
G1 X20.701 Y22.467 E3.58505
G1 X20.830 Y21.847 E3.62145
G1 X20.952 Y21.478 E3.64384
G1 X21.121 Y21.128 E3.66616
G1 X21.197 Y21.010 E3.67423
G1 X21.381 Y20.788 E3.69077
G1 X21.556 Y20.647 E3.70368
G1 X21.773 Y20.556 E3.71721
G1 X21.977 Y20.540 E3.72900
G1 X22.190 Y20.609 E3.74185
G1 X22.396 Y20.749 E3.75618
G1 X22.616 Y21.003 E3.77548
G1 X22.790 Y21.306 E3.79555
G1 X22.964 Y21.758 E3.82339
G1 X23.042 Y22.054 E3.84099
G1 X23.119 Y22.462 E3.86483
G1 X23.178 Y22.964 E3.89385
G1 X23.207 Y23.707 E3.93659
G1 X23.207 Y28.273 E4.19899
G1 X35.612 Y28.273 E4.91187
G1 X35.620 Y23.333 E5.19574
G1 X35.682 Y22.592 E5.23845
G1 X35.741 Y22.228 E5.25967
G1 X35.828 Y21.854 E5.28175
G1 X35.952 Y21.478 E5.30453
G1 X36.121 Y21.128 E5.32684
G1 X36.381 Y20.788 E5.35142
G1 X36.544 Y20.657 E5.36347
G1 X36.700 Y20.578 E5.37347
G1 X36.846 Y20.542 E5.38212
G1 X36.944 Y20.541 E5.38777
G1 X37.127 Y20.582 E5.39852
G1 X37.276 Y20.657 E5.40812
G1 X37.439 Y20.788 E5.42017
G1 X37.699 Y21.128 E5.44474
G1 X37.868 Y21.478 E5.46706
G1 X37.992 Y21.854 E5.48984
G1 X38.079 Y22.228 E5.51192
G1 X38.138 Y22.592 E5.53313
G1 X38.200 Y23.333 E5.57584
G1 X38.208 Y28.273 E5.85972
G1 X38.533 Y28.273 E5.87837
G1 X38.533 Y30.118 E5.98443
G1 X36.333 Y30.118 E6.11086
G1 X36.333 Y46.169 E7.03328
G1 X34.487 Y46.169 E7.13934
G1 X34.487 Y30.118 E8.06176
