; generated by Slic3r 1.2.9 on 2018-03-08 at 19:19:21

; external perimeters extrusion width = 0.40mm
; perimeters extrusion width = 0.48mm
; infill extrusion width = 0.48mm
; solid infill extrusion width = 0.48mm
; top infill extrusion width = 0.48mm

M107
M190 S50 ; set bed temperature
M104 S220 ; set temperature
G28 ; home all axes
G1 Z5 F5000 ; lift nozzle

M109 S220 ; wait for temperature to be reached
G21 ; set units to millimeters
G90 ; use absolute coordinates
M82 ; use absolute distances for extrusion
G92 E0
G1 Z0.350 F7800.000
G1 E-3.00000 F2400.00000
G92 E0
G1 Z0.550 F7800.000
G1 X21.046 Y30.168 F7800.000
G1 Z0.350 F7800.000
G1 E3.00000 F2400.00000
G1 X38.774 Y30.168 E4.30281 F120.000
G1 X38.774 Y31.497 E4.40046
G1 X21.046 Y31.497 E5.70327
G1 X21.046 Y30.228 E5.79651
G1 E2.79651 F2400.00000
G92 E0
G1 Z0.550 F7800.000
G1 X21.913 Y32.032 F7800.000
G1 Z0.350 F7800.000
G1 E3.00000 F2400.00000
G1 X20.510 Y32.032 E3.10313 F120.000
G1 X20.510 Y29.632 E3.27949
G1 X36.068 Y29.632 E4.42282
G1 X30.747 Y18.220 E5.34818
G1 X31.648 Y17.799 E5.42129
G1 X37.166 Y29.632 E6.38073
G1 X39.310 Y29.632 E6.53828
G1 X39.310 Y32.032 E6.71464
G1 X37.907 Y32.032 E6.81771
G1 X37.907 Y37.032 E7.18514
G1 X36.913 Y37.032 E7.25825
G1 X36.913 Y32.032 E7.62568
G1 X22.907 Y32.032 E8.65486
G1 X22.907 Y35.323 E8.89668
G1 X22.863 Y36.021 E8.94810
G1 X22.733 Y36.704 E8.99917
G1 X22.640 Y37.026 E9.02386
G1 X22.384 Y37.673 E9.07493
G1 X22.051 Y38.278 E9.12566
G1 X21.645 Y38.836 E9.17638
G1 X21.173 Y39.339 E9.22711
G1 X20.641 Y39.779 E9.27784
G1 X20.058 Y40.149 E9.32856
G1 X19.434 Y40.443 E9.37929
G1 X18.777 Y40.656 E9.43002
G1 X18.099 Y40.786 E9.48075
G1 X17.710 Y40.810 E9.50938
G1 X17.710 Y39.815 E9.58249
G1 X18.001 Y39.796 E9.60392
G1 X18.525 Y39.695 E9.64317
G1 X18.806 Y39.613 E9.66464
G1 X19.323 Y39.409 E9.70550
G1 X19.583 Y39.276 E9.72698
G1 X20.053 Y38.978 E9.76784
G1 X20.515 Y38.592 E9.81207
G1 X20.880 Y38.202 E9.85131
G1 X21.212 Y37.745 E9.89285
G1 X21.485 Y37.250 E9.93441
G1 X21.691 Y36.728 E9.97562
G1 X21.772 Y36.451 E9.99681
G1 X21.838 Y36.145 E10.01987
G1 X21.904 Y35.615 E10.05908
G1 X21.913 Y32.092 E10.31797
G1 X21.914 Y31.632 F7800.000
G1 X22.411 Y31.764 F7800.000
G1 X22.394 Y35.660 E10.92488 F120.000
G1 X22.366 Y35.958 E10.97160
G1 X22.249 Y36.588 E11.07133
G1 X22.164 Y36.879 E11.11859
G1 X21.934 Y37.461 E11.21614
G1 X21.631 Y38.011 E11.31396
G1 X21.262 Y38.519 E11.41179
G1 X20.832 Y38.976 E11.50961
G1 X20.349 Y39.377 E11.60742
G1 X19.818 Y39.713 E11.70523
G1 X19.249 Y39.976 E11.80301
G1 X18.653 Y40.175 E11.90079
G1 X17.978 Y40.305 E12.00797
G1 E9.00797 F2400.00000
G92 E0
G1 Z0.550 F7800.000
G1 X21.313 Y30.832 F7800.000
G1 Z0.350 F7800.000
G1 E3.00000 F2400.00000
G1 X38.507 Y30.832 E5.67877 F120.000
G1 X37.410 Y31.764 F7800.000
G1 X37.410 Y36.764 E6.45780 F120.000
G1 E3.45780 F2400.00000
G92 E0
G1 Z0.550 F7800.000
G1 X36.742 Y29.900 F7800.000
G1 Z0.350 F7800.000
G1 E3.00000 F2400.00000
G1 X31.311 Y18.252 E5.00239 F120.000
G1 Z0.650 F7800.000
G1 E2.00239 F2400.00000
G92 E0
G1 Z0.850 F7800.000
G1 X21.656 Y31.755 F7800.000
G1 Z0.650 F7800.000
G1 E3.00000 F2400.00000
G1 X20.787 Y31.755 E3.04991 F1200.000
G1 X20.787 Y29.909 E3.15597
G1 X35.914 Y29.909 E4.02530
G1 X30.631 Y18.580 E4.74374
G1 X31.998 Y17.942 E4.83044
G1 X37.579 Y29.909 E5.58931
G1 X39.033 Y29.909 E5.67286
G1 X39.033 Y31.755 E5.77892
G1 X38.164 Y31.755 E5.82883
G1 X38.164 Y36.755 E6.11617
G1 X36.656 Y36.755 E6.20287
G1 X36.656 Y31.755 E6.49022
G1 X23.164 Y31.755 E7.26556
G1 X23.164 Y35.314 E7.47010
G1 X23.118 Y36.053 E7.51267
G1 X22.982 Y36.763 E7.55419
G1 X22.759 Y37.450 E7.59571
G1 X22.448 Y38.112 E7.63775
G1 X22.273 Y38.408 E7.65748
G1 X21.843 Y38.999 E7.69953
G1 X21.348 Y39.526 E7.74105
G1 X20.792 Y39.987 E7.78257
G1 X20.182 Y40.374 E7.82409
G1 X19.528 Y40.681 E7.86561
G1 X18.841 Y40.905 E7.90713
G1 X18.131 Y41.040 E7.94865
G1 X17.987 Y41.049 E7.95694
G1 X17.987 Y39.531 E8.04416
G1 X18.206 Y39.504 E8.05682
G1 X18.720 Y39.372 E8.08736
G1 X19.131 Y39.212 E8.11264
G1 X19.460 Y39.051 E8.13369
G1 X19.905 Y38.769 E8.16398
G1 X20.245 Y38.491 E8.18926
G1 X20.507 Y38.238 E8.21016
G1 X20.771 Y37.924 E8.23373
G1 X20.997 Y37.605 E8.25623
G1 X21.252 Y37.142 E8.28657
G1 X21.416 Y36.734 E8.31186
G1 X21.524 Y36.384 E8.33291
G1 X21.623 Y35.864 E8.36331
G1 X21.656 Y35.350 E8.39291
G1 X21.656 Y31.815 E8.59609
G1 X21.278 Y32.132 F7800.000
G1 X20.410 Y32.132 E8.63607 F600.000
G1 X20.410 Y29.532 E8.75579
G1 X35.322 Y29.532 E9.44244
G1 X35.136 Y29.132 E9.46276
G1 X30.130 Y18.397 E10.14348 F1200.000
G1 X30.251 Y18.340 E10.15119
G1 X32.059 Y17.497 E10.24305 F600.000
G1 X32.181 Y17.441 E10.25076 F1200.000
G1 X37.633 Y29.132 E10.99213
G1 X37.819 Y29.532 E11.01245 F600.000
G1 X39.410 Y29.532 E11.08570
G1 X39.410 Y32.132 E11.20542
G1 X38.542 Y32.132 E11.24541
G1 X38.542 Y32.532 E11.26383
G1 X38.542 Y37.132 E11.52819 F1200.000
G1 X38.407 Y37.132 E11.53590
G1 X36.413 Y37.132 E11.62775 F600.000
G1 X36.278 Y37.132 E11.63546 F1200.000
G1 X36.278 Y32.532 E11.89982
G1 X36.278 Y32.132 E11.91824 F600.000
G1 X23.542 Y32.132 E12.50472
G1 X23.542 Y32.532 E12.52314
G1 X23.542 Y35.326 E12.68369 F1200.000
G1 X23.493 Y36.101 E12.72830
G1 X23.349 Y36.857 E12.77255
G1 X23.111 Y37.589 E12.81680
G1 X22.781 Y38.289 E12.86123
G1 X22.589 Y38.615 E12.88301
G1 X22.134 Y39.240 E12.92744
G1 X21.607 Y39.802 E12.97169
G1 X21.014 Y40.292 E13.01594
G1 X20.364 Y40.705 E13.06019
G1 X19.667 Y41.033 E13.10444
G1 X18.935 Y41.271 E13.14869
G1 X18.178 Y41.415 E13.19293
G1 X17.610 Y41.451 E13.22567
G1 X17.610 Y41.323 E13.23299
G1 X17.610 Y39.328 E13.32485 F600.000
G1 X17.610 Y39.199 E13.33230 F1200.000
G1 X18.135 Y39.132 E13.36271
G1 X18.605 Y39.012 E13.39059
G1 X18.979 Y38.866 E13.41367
G1 X19.275 Y38.722 E13.43260
G1 X19.683 Y38.462 E13.46040
G1 X19.995 Y38.209 E13.48347
G1 X20.231 Y37.980 E13.50235
G1 X20.472 Y37.693 E13.52392
G1 X20.677 Y37.404 E13.54427
G1 X20.910 Y36.980 E13.57209
G1 X21.061 Y36.608 E13.59516
G1 X21.158 Y36.293 E13.61409
G1 X21.248 Y35.817 E13.64193
G1 X21.278 Y35.338 E13.66949
G1 X21.278 Y32.532 E13.83076
G1 X21.278 Y32.192 E13.84642 F600.000
G1 X21.278 Y31.732 F7800.000
G1 X20.993 Y30.670 F7800.000
G1 X21.548 Y30.115 E13.89158 F900.000
G1 E10.89158 F2400.00000
G92 E0
G1 Z0.850 F7800.000
G1 X21.439 Y37.333 F7800.000
G1 Z0.650 F7800.000
G1 E3.00000 F2400.00000
G1 X22.919 Y35.853 E3.12028 F900.000
G1 X21.861 Y34.541 E3.21712
G1 X22.959 Y33.443 E3.30637
G1 X21.861 Y32.172 E3.40292
G1 X23.918 Y30.115 E3.57008
G1 X24.852 Y31.550 E3.66850
G1 X26.287 Y30.115 E3.78512
G1 X27.222 Y31.550 E3.88353
G1 X28.657 Y30.115 E4.00015
G1 X29.591 Y31.550 E4.09857
G1 X31.026 Y30.115 E4.21519
G1 X31.961 Y31.550 E4.31360
G1 X33.396 Y30.115 E4.43022
G1 X34.331 Y31.550 E4.52864
G1 X35.765 Y30.115 E4.64526
G1 X36.065 Y29.816 F7800.000
G1 X36.935 Y28.945 E4.71599 F900.000
G1 X38.135 Y30.115 F7800.000
G1 X36.700 Y31.550 E4.83261 F900.000
G1 X37.959 Y32.660 E4.92909
G1 X36.861 Y33.758 E5.01833
G1 X37.959 Y35.030 E5.11488
G1 X36.861 Y36.128 E5.20413
G1 E2.20413 F2400.00000
G92 E0
G1 Z0.850 F7800.000
G1 X36.181 Y27.329 F7800.000
G1 Z0.650 F7800.000
G1 E3.00000 F2400.00000
G1 X35.311 Y28.200 E3.07073 F900.000
G1 X34.558 Y26.584 E3.17320
G1 X35.428 Y25.713 E3.24394
G1 X33.804 Y24.968 F7800.000
G1 X34.674 Y24.097 E3.31467 F900.000
G1 X33.921 Y22.481 E3.41714
G1 X33.050 Y23.352 E3.48788
G1 X32.297 Y21.736 E3.59035
G1 X33.167 Y20.865 E3.66108
G1 X32.414 Y19.249 E3.76355
G1 X31.543 Y20.120 E3.83429
G1 E0.83429 F2400.00000
G92 E0
G1 Z0.850 F7800.000
G1 X19.417 Y39.354 F7800.000
G1 Z0.650 F7800.000
G1 E3.00000 F2400.00000
G1 X18.193 Y40.579 E3.09956 F900.000
G1 Z0.950 F7800.000
G1 E0.09956 F2400.00000
G92 E0
G1 Z1.150 F7800.000
G1 X21.334 Y31.755 F7800.000
G1 Z0.950 F7800.000
G1 E3.00000 F2400.00000
G1 X20.787 Y31.755 E3.03143 F1200.000
G1 X20.787 Y29.909 E3.13749
G1 X35.559 Y29.909 E3.98644
G1 X30.340 Y18.715 E4.69626
G1 X32.290 Y17.806 E4.81992
G1 X37.934 Y29.909 E5.58740
G1 X39.033 Y29.909 E5.65056
G1 X39.033 Y31.755 E5.75662
G1 X38.486 Y31.755 E5.78806
G1 X38.486 Y36.755 E6.07540
G1 X36.334 Y36.755 E6.19906
G1 X36.334 Y31.755 E6.48640
G1 X23.486 Y31.755 E7.22479
G1 X23.486 Y35.317 E7.42952
G1 X23.457 Y35.886 E7.46225
G1 X23.377 Y36.477 E7.49651
G1 X23.190 Y37.204 E7.53966
G1 X22.990 Y37.728 E7.57187
G1 X22.731 Y38.265 E7.60613
G1 X22.325 Y38.903 E7.64961
G1 X21.839 Y39.491 E7.69346
G1 X21.283 Y40.014 E7.73730
G1 X20.665 Y40.462 E7.78115
G1 X19.997 Y40.830 E7.82500
G1 X19.287 Y41.110 E7.86885
G1 X18.548 Y41.300 E7.91269
G1 X17.987 Y41.377 E7.94525
G1 X17.987 Y39.212 E8.06968
G1 X18.623 Y39.065 E8.10717
G1 X19.073 Y38.887 E8.13498
G1 X19.309 Y38.767 E8.15019
G1 X19.710 Y38.513 E8.17748
G1 X19.919 Y38.350 E8.19269
G1 X20.271 Y38.019 E8.22049
G1 X20.580 Y37.646 E8.24830
G1 X20.729 Y37.428 E8.26351
G1 X20.957 Y37.011 E8.29080
G1 X21.061 Y36.772 E8.30582
G1 X21.175 Y36.434 E8.32630
G1 X21.266 Y36.065 E8.34814
G1 X21.326 Y35.588 E8.37579
G1 X21.334 Y31.815 E8.59260
G1 X20.957 Y32.132 F7800.000
G1 X20.410 Y32.132 E8.61779 F600.000
G1 X20.410 Y29.532 E8.73751
G1 X34.967 Y29.532 E9.40782
G1 X29.838 Y18.533 E9.96665
G1 X32.472 Y17.305 E10.10047
G1 X38.174 Y29.532 E10.72171
G1 X39.410 Y29.532 E10.77862
G1 X39.410 Y32.132 E10.89834
G1 X38.863 Y32.132 E10.92353
G1 X38.863 Y37.132 E11.15376
G1 X35.957 Y37.132 E11.28757
G1 X35.957 Y32.132 E11.51781
G1 X23.863 Y32.132 E12.07468
G1 X23.863 Y35.327 E12.22180
G1 X23.833 Y35.921 E12.24919
G1 X23.748 Y36.544 E12.27811
G1 X23.660 Y36.937 E12.29667
G1 X23.548 Y37.324 E12.31525
G1 X23.336 Y37.877 E12.34250
G1 X23.064 Y38.443 E12.37141
G1 X22.858 Y38.790 E12.38998
G1 X22.631 Y39.125 E12.40865
G1 X22.382 Y39.446 E12.42731
G1 X22.114 Y39.750 E12.44598
G1 X21.827 Y40.036 E12.46465
G1 X21.523 Y40.304 E12.48331
G1 X21.203 Y40.553 E12.50198
G1 X20.868 Y40.781 E12.52065
G1 X20.519 Y40.987 E12.53931
G1 X20.158 Y41.171 E12.55798
G1 X19.786 Y41.332 E12.57664
G1 X19.404 Y41.469 E12.59531
G1 X19.015 Y41.582 E12.61398
G1 X18.619 Y41.671 E12.63264
G1 X18.219 Y41.734 E12.65131
G1 X17.610 Y41.779 E12.67942
G1 X17.610 Y38.867 E12.81351
G1 X18.078 Y38.816 E12.83517
G1 X18.506 Y38.706 E12.85554
G1 X18.917 Y38.543 E12.87591
G1 X19.122 Y38.439 E12.88646
G1 X19.492 Y38.204 E12.90668
G1 X19.673 Y38.063 E12.91723
G1 X19.996 Y37.760 E12.93760
G1 X20.278 Y37.420 E12.95796
G1 X20.407 Y37.230 E12.96851
G1 X20.618 Y36.845 E12.98874
G1 X20.709 Y36.636 E12.99923
G1 X20.813 Y36.328 E13.01419
G1 X20.895 Y35.996 E13.02995
G1 X20.950 Y35.558 E13.05028
G1 X20.957 Y32.192 E13.20526
G1 X20.957 Y31.732 F7800.000
G1 E10.20526 F2400.00000
G92 E0
G1 Z1.150 F7800.000
G1 X20.660 Y37.815 F7800.000
G1 Z0.950 F7800.000
G1 E3.00000 F2400.00000
G1 X21.944 Y39.099 E3.10436 F900.000
G1 X22.837 Y37.623 E3.20352
G1 X21.423 Y36.209 E3.31849
G1 X23.266 Y35.682 E3.42865
G1 X21.539 Y33.956 E3.56898
G1 X23.281 Y33.327 E3.67536
G1 X20.993 Y31.039 E3.86132
G1 X21.503 Y31.550 E3.90281
G1 X22.438 Y30.115 E4.00122
G1 X23.873 Y31.550 E4.11784
G1 X24.807 Y30.115 E4.21626
G1 X26.242 Y31.550 E4.33288
G1 X27.177 Y30.115 E4.43129
G1 X28.612 Y31.550 E4.54791
G1 X29.546 Y30.115 E4.64633
G1 X30.981 Y31.550 E4.76295
G1 X31.916 Y30.115 E4.86136
G1 X33.351 Y31.550 E4.97798
G1 X34.285 Y30.115 E5.07640
G1 X35.720 Y31.550 E5.19302
G1 E2.19302 F2400.00000
G92 E0
G1 Z1.150 F7800.000
G1 X38.281 Y36.479 F7800.000
G1 Z0.950 F7800.000
G1 E3.00000 F2400.00000
G1 X36.539 Y34.738 E3.14150 F900.000
G1 X38.281 Y34.110 E3.24788
G1 X36.539 Y32.369 E3.38938
G1 X38.281 Y31.740 E3.49576
G1 X35.301 Y28.761 E3.73791
G1 X36.641 Y27.731 E3.83502
G1 X33.231 Y24.321 E4.11217
G1 X34.570 Y23.291 E4.20928
G1 X31.160 Y19.881 E4.48642
G1 X31.853 Y18.204 E4.59069
G1 X32.500 Y18.851 E4.64328
G1 E1.64328 F2400.00000
G92 E0
G1 Z1.150 F7800.000
G1 X19.392 Y38.917 F7800.000
G1 Z0.950 F7800.000
G1 E3.00000 F2400.00000
G1 X20.701 Y40.226 E3.10637 F900.000
G1 X19.078 Y40.972 E3.20904
G1 X18.193 Y40.087 E3.28100
M106 S219.3
G1 Z1.250 F7800.000
G1 E0.28100 F2400.00000
G92 E0
G1 Z1.450 F7800.000
G1 X21.113 Y31.755 F7800.000
G1 Z1.250 F7800.000
G1 E3.00000 F2400.00000
G1 X20.787 Y31.755 E3.01870 F1200.000
G1 X20.787 Y29.909 E3.12476
G1 X35.315 Y29.909 E3.95967
G1 X30.139 Y18.809 E4.66355
G1 X32.490 Y17.712 E4.81266
G1 X38.178 Y29.909 E5.58608
G1 X39.033 Y29.909 E5.63520
G1 X39.033 Y31.755 E5.74126
G1 X38.707 Y31.755 E5.75996
G1 X38.707 Y36.755 E6.04731
G1 X36.113 Y36.755 E6.19642
G1 X36.113 Y31.755 E6.48377
G1 X23.707 Y31.755 E7.19670
G1 X23.707 Y35.323 E7.40176
G1 X23.695 Y35.728 E7.42501
G1 X23.657 Y36.121 E7.44775
G1 X23.595 Y36.512 E7.47048
G1 X23.399 Y37.278 E7.51593
G1 X23.108 Y38.013 E7.56138
G1 X22.928 Y38.366 E7.58411
G1 X22.504 Y39.034 E7.62956
G1 X22.000 Y39.643 E7.67500
G1 X21.424 Y40.184 E7.72045
G1 X20.784 Y40.649 E7.76589
G1 X20.091 Y41.030 E7.81134
G1 X19.356 Y41.321 E7.85679
G1 X18.590 Y41.518 E7.90223
G1 X17.987 Y41.600 E7.93719
G1 X17.987 Y38.995 E8.08689
G1 X18.561 Y38.854 E8.12083
G1 X19.195 Y38.579 E8.16055
G1 X19.772 Y38.187 E8.20063
G1 X20.265 Y37.694 E8.24070
G1 X20.657 Y37.117 E8.28078
G1 X20.930 Y36.486 E8.32034
G1 X21.050 Y36.017 E8.34811
G1 X21.113 Y35.359 E8.38610
G1 X21.113 Y31.815 E8.58980
G1 X20.735 Y32.132 F7800.000
G1 X20.410 Y32.132 E8.60478 F600.000
G1 X20.410 Y29.532 E8.72450
G1 X34.723 Y29.532 E9.38356
G1 X29.638 Y18.627 E9.93764
G1 X32.673 Y17.211 E10.09185
G1 X38.418 Y29.532 E10.71784
G1 X39.410 Y29.532 E10.76350
G1 X39.410 Y32.132 E10.88322
G1 X39.085 Y32.132 E10.89821
G1 X39.085 Y37.132 E11.12844
G1 X35.735 Y37.132 E11.28266
G1 X35.735 Y32.132 E11.51289
G1 X24.085 Y32.132 E12.04937
G1 X24.085 Y35.329 E12.19657
G1 X24.071 Y35.751 E12.21602
G1 X24.032 Y36.169 E12.23533
G1 X23.966 Y36.583 E12.25464
G1 X23.875 Y36.992 E12.27395
G1 X23.758 Y37.395 E12.29325
G1 X23.616 Y37.789 E12.31256
G1 X23.449 Y38.174 E12.33187
G1 X23.259 Y38.548 E12.35117
G1 X23.045 Y38.909 E12.37048
G1 X22.810 Y39.255 E12.38979
G1 X22.553 Y39.587 E12.40910
G1 X22.275 Y39.901 E12.42840
G1 X21.979 Y40.198 E12.44771
G1 X21.664 Y40.475 E12.46702
G1 X21.333 Y40.732 E12.48632
G1 X20.986 Y40.968 E12.50563
G1 X20.625 Y41.181 E12.52494
G1 X20.252 Y41.371 E12.54425
G1 X19.867 Y41.538 E12.56355
G1 X19.473 Y41.680 E12.58286
G1 X19.070 Y41.797 E12.60217
G1 X18.661 Y41.888 E12.62148
G1 X18.247 Y41.954 E12.64078
G1 X17.610 Y42.000 E12.67017
G1 X17.610 Y38.641 E12.82488
G1 X17.982 Y38.607 E12.84209
G1 X18.440 Y38.495 E12.86378
G1 X19.012 Y38.247 E12.89251
G1 X19.530 Y37.895 E12.92134
G1 X19.973 Y37.452 E12.95017
G1 X20.325 Y36.935 E12.97900
G1 X20.572 Y36.363 E13.00768
G1 X20.678 Y35.952 E13.02720
G1 X20.735 Y35.342 E13.05545
G1 X20.735 Y32.192 E13.20047
G1 X20.735 Y31.807 F7800.000
G1 X21.318 Y32.715 F7800.000
G1 X23.918 Y30.115 E13.41176 F900.000
G1 X24.852 Y31.550 E13.51018
G1 X26.287 Y30.115 E13.62680
G1 X27.222 Y31.550 E13.72521
G1 X28.657 Y30.115 E13.84183
G1 X29.591 Y31.550 E13.94025
G1 X31.026 Y30.115 E14.05687
G1 X31.961 Y31.550 E14.15528
G1 X33.396 Y30.115 E14.27190
G1 X34.331 Y31.550 E14.37032
G1 X35.765 Y30.115 E14.48694
G1 X34.903 Y28.608 E14.58672
G1 X36.590 Y26.921 E14.72387
G1 X37.344 Y28.537 E14.82634
G1 X35.656 Y30.224 E14.96348
G1 X36.318 Y31.932 F7800.000
G1 X38.135 Y30.115 E15.11116 F900.000
G1 X38.502 Y32.117 E15.22816
G1 X36.318 Y34.301 E15.40566
G1 X38.502 Y34.487 E15.53163
G1 X36.439 Y36.550 E15.69929
G1 E12.69929 F2400.00000
G92 E0
G1 Z1.450 F7800.000
G1 X34.149 Y26.992 F7800.000
G1 Z1.250 F7800.000
G1 E3.00000 F2400.00000
G1 X35.836 Y25.305 E3.13715 F900.000
G1 X35.083 Y23.689 E3.23962
G1 X33.395 Y25.376 E3.37676
G1 X32.642 Y23.760 E3.47923
G1 X34.329 Y22.073 E3.61638
G1 X33.576 Y20.457 E3.71885
G1 X31.888 Y22.144 E3.85600
G1 X31.135 Y20.528 E3.95847
G1 X32.822 Y18.841 E4.09561
G1 E1.09561 F2400.00000
G92 E0
G1 Z1.450 F7800.000
G1 X20.993 Y30.670 F7800.000
G1 Z1.250 F7800.000
G1 E3.00000 F2400.00000
G1 X21.548 Y30.115 E3.04516 F900.000
G1 X23.502 Y32.900 E3.24068
G1 X21.318 Y35.084 E3.41819
G1 X23.501 Y35.271 E3.54409
G1 X18.193 Y40.579 E3.97551
G1 X20.957 Y40.184 E4.13600
G1 X22.284 Y38.857 E4.24381
G1 Z1.550 F7800.000
G1 E1.24381 F2400.00000
G92 E0
G1 Z1.750 F7800.000
