; generated by Slic3r 1.2.9 on 2018-03-09 at 17:53:06

; external perimeters extrusion width = 0.40mm
; perimeters extrusion width = 0.48mm
; infill extrusion width = 0.48mm
; solid infill extrusion width = 0.48mm
; top infill extrusion width = 0.48mm
; support material extrusion width = 0.40mm

M107
M190 S50 ; set bed temperature
M104 S220 ; set temperature
G28 ; home all axes
G1 Z5 F5000 ; lift nozzle

M109 S220 ; wait for temperature to be reached
G21 ; set units to millimeters
G90 ; use absolute coordinates
M82 ; use absolute distances for extrusion
G92 E0
G1 Z0.350 F7800.000
G1 E-3.00000 F2400.00000
G92 E0
G1 Z0.550 F7800.000
G1 X4.868 Y76.613 F7800.000
G1 Z0.350 F7800.000
G1 E3.00000 F2400.00000
G1 X77.650 Y3.832 E10.56382 F120.000
G1 X86.226 Y12.408 E11.45511
G1 X13.444 Y85.190 E19.01893
G1 X4.911 Y76.656 E19.90581
G1 E16.90581 F2400.00000
G92 E0
G1 Z0.550 F7800.000
G1 X8.072 Y72.652 F7800.000
G1 Z0.350 F7800.000
G1 E3.00000 F2400.00000
G1 X5.748 Y70.328 E3.24154 F120.000
G1 X5.488 Y70.018 E3.27123
G1 X5.296 Y69.675 E3.30012
G1 X5.222 Y69.350 E3.32459
G1 X5.225 Y69.254 E3.33166
G1 X5.280 Y69.156 E3.33995
G1 X5.378 Y69.101 E3.34824
G1 X5.474 Y69.098 E3.35531
G1 X5.799 Y69.172 E3.37978
G1 X6.142 Y69.364 E3.40867
G1 X6.451 Y69.624 E3.43835
G1 X8.776 Y71.948 E3.67990
G1 X29.285 Y51.439 E5.81137
G1 X26.961 Y49.114 E6.05291
G1 X26.702 Y48.805 E6.08259
G1 X26.509 Y48.462 E6.11148
G1 X26.435 Y48.137 E6.13595
G1 X26.459 Y47.988 E6.14710
G1 X26.538 Y47.909 E6.15528
G1 X26.688 Y47.885 E6.16642
G1 X27.012 Y47.959 E6.19089
G1 X27.355 Y48.151 E6.21978
G1 X27.665 Y48.411 E6.24947
G1 X29.989 Y50.735 E6.49101
G1 X50.499 Y30.225 E8.62248
G1 X48.174 Y27.901 E8.86402
G1 X47.915 Y27.592 E8.89371
G1 X47.723 Y27.249 E8.92260
G1 X47.648 Y26.924 E8.94707
G1 X47.651 Y26.828 E8.95414
G1 X47.706 Y26.729 E8.96243
G1 X47.805 Y26.675 E8.97072
G1 X47.901 Y26.671 E8.97779
G1 X48.225 Y26.746 E9.00226
G1 X48.569 Y26.938 E9.03115
G1 X48.878 Y27.198 E9.06083
G1 X51.202 Y29.522 E9.30238
G1 X71.712 Y9.012 E11.43385
G1 X69.388 Y6.688 E11.67539
G1 X69.128 Y6.378 E11.70508
G1 X68.936 Y6.035 E11.73397
G1 X68.861 Y5.711 E11.75844
G1 X68.864 Y5.615 E11.76551
G1 X68.919 Y5.516 E11.77380
G1 X69.018 Y5.461 E11.78209
G1 X69.114 Y5.458 E11.78916
G1 X69.439 Y5.533 E11.81363
G1 X69.782 Y5.725 E11.84252
G1 X70.091 Y5.984 E11.87220
G1 X72.415 Y8.309 E12.11375
G1 X77.650 Y3.074 E12.65773
G1 X86.984 Y12.408 E13.62775
G1 X13.444 Y85.947 E21.27029
G1 X4.111 Y76.613 E22.24030
G1 X8.030 Y72.694 E22.64760
G1 X8.355 Y72.369 F7800.000
G1 X8.613 Y72.489 F7800.000
G1 X5.695 Y69.571 E23.29053 F120.000
G1 E20.29053 F2400.00000
G92 E0
G1 Z0.550 F7800.000
G1 X5.322 Y76.500 F7800.000
G1 Z0.350 F7800.000
G1 E3.00000 F2400.00000
G1 X13.558 Y84.735 E3.85888 F120.000
G1 X13.938 Y84.355 E3.89852
G1 X5.703 Y76.120 E4.75740
G1 X6.083 Y75.740 E4.79704
G1 X14.318 Y83.975 E5.65592
G1 X14.698 Y83.595 E5.69556
G1 X6.463 Y75.360 E6.55444
G1 X6.843 Y74.979 E6.59407
G1 X15.078 Y83.215 E7.45296
G1 X15.458 Y82.835 E7.49259
G1 X7.223 Y74.599 E8.35147
G1 X7.603 Y74.219 E8.39111
G1 X15.838 Y82.455 E9.24999
G1 X16.218 Y82.075 E9.28963
G1 X7.983 Y73.839 E10.14851
G1 X8.363 Y73.459 E10.18815
G1 X16.599 Y81.695 E11.04703
G1 X16.979 Y81.315 E11.08667
G1 X8.743 Y73.079 E11.94555
G1 X9.123 Y72.699 E11.98519
G1 X17.359 Y80.935 E12.84407
G1 X17.739 Y80.554 E12.88370
G1 X9.503 Y72.319 E13.74259
G1 X9.883 Y71.939 E13.78222
G1 X18.119 Y80.174 E14.64110
G1 X18.499 Y79.794 E14.68074
G1 X10.263 Y71.559 E15.53962
G1 X10.643 Y71.179 E15.57926
G1 X18.879 Y79.414 E16.43814
G1 X19.259 Y79.034 E16.47778
G1 X11.024 Y70.799 E17.33666
G1 X11.404 Y70.419 E17.37630
G1 X19.639 Y78.654 E18.23518
G1 X20.019 Y78.274 E18.27482
G1 X11.784 Y70.039 E19.13370
G1 X12.164 Y69.658 E19.17333
G1 X20.399 Y77.894 E20.03222
G1 X20.779 Y77.514 E20.07185
G1 X12.544 Y69.278 E20.93073
G1 X12.924 Y68.898 E20.97037
G1 X21.159 Y77.134 E21.82925
G1 X21.539 Y76.754 E21.86889
G1 X13.304 Y68.518 E22.72777
G1 X13.684 Y68.138 E22.76741
G1 X21.920 Y76.374 E23.62629
G1 X22.300 Y75.994 E23.66593
G1 X14.064 Y67.758 E24.52481
G1 X14.444 Y67.378 E24.56445
G1 X22.680 Y75.614 E25.42333
G1 X23.060 Y75.233 E25.46296
G1 X14.824 Y66.998 E26.32185
G1 X15.204 Y66.618 E26.36148
G1 X23.440 Y74.853 E27.22036
G1 X23.820 Y74.473 E27.26000
G1 X15.584 Y66.238 E28.11888
G1 X15.964 Y65.858 E28.15852
G1 X24.200 Y74.093 E29.01740
G1 X24.580 Y73.713 E29.05704
G1 X16.345 Y65.478 E29.91592
G1 X16.725 Y65.098 E29.95556
G1 X24.960 Y73.333 E30.81444
G1 X25.340 Y72.953 E30.85408
G1 X17.105 Y64.718 E31.71296
G1 X17.485 Y64.337 E31.75260
G1 X25.720 Y72.573 E32.61148
G1 X26.100 Y72.193 E32.65111
G1 X17.865 Y63.957 E33.50999
G1 X18.245 Y63.577 E33.54963
G1 X26.480 Y71.813 E34.40851
G1 X26.860 Y71.433 E34.44815
G1 X18.625 Y63.197 E35.30703
G1 X19.005 Y62.817 E35.34667
G1 X27.241 Y71.053 E36.20555
G1 X27.621 Y70.673 E36.24519
G1 X19.385 Y62.437 E37.10407
G1 X19.765 Y62.057 E37.14371
G1 X28.001 Y70.293 E38.00259
G1 X28.381 Y69.912 E38.04223
G1 X20.145 Y61.677 E38.90111
G1 X20.525 Y61.297 E38.94074
G1 X28.761 Y69.532 E39.79962
G1 X29.141 Y69.152 E39.83926
G1 X20.905 Y60.917 E40.69814
G1 X21.286 Y60.537 E40.73778
G1 X29.521 Y68.772 E41.59666
G1 X29.901 Y68.392 E41.63630
G1 X21.666 Y60.157 E42.49518
G1 X22.046 Y59.777 E42.53482
G1 X30.281 Y68.012 E43.39370
G1 X30.661 Y67.632 E43.43334
G1 X22.426 Y59.397 E44.29222
G1 X22.806 Y59.016 E44.33186
G1 X31.041 Y67.252 E45.19074
G1 X31.421 Y66.872 E45.23037
G1 X23.186 Y58.636 E46.08926
G1 X23.566 Y58.256 E46.12889
G1 X31.801 Y66.492 E46.98777
G1 X32.181 Y66.112 E47.02741
G1 X23.946 Y57.876 E47.88629
G1 X24.326 Y57.496 E47.92593
G1 X32.562 Y65.732 E48.78481
G1 X32.942 Y65.352 E48.82445
G1 X24.706 Y57.116 E49.68333
G1 X25.086 Y56.736 E49.72297
G1 X33.322 Y64.972 E50.58185
G1 X33.702 Y64.591 E50.62149
G1 X25.466 Y56.356 E51.48037
G1 X25.846 Y55.976 E51.52000
G1 X34.082 Y64.211 E52.37889
G1 X34.462 Y63.831 E52.41852
G1 X26.226 Y55.596 E53.27740
G1 X26.607 Y55.216 E53.31704
G1 X34.842 Y63.451 E54.17592
G1 X35.222 Y63.071 E54.21556
G1 X26.987 Y54.836 E55.07444
G1 X27.367 Y54.456 E55.11408
G1 X35.602 Y62.691 E55.97296
G1 X35.982 Y62.311 E56.01260
G1 X27.747 Y54.076 E56.87148
G1 X28.127 Y53.695 E56.91112
G1 X36.362 Y61.931 E57.77000
G1 X36.742 Y61.551 E57.80963
G1 X28.507 Y53.315 E58.66852
G1 X28.887 Y52.935 E58.70815
G1 X37.122 Y61.171 E59.56703
G1 X37.502 Y60.791 E59.60667
G1 X29.267 Y52.555 E60.46555
G1 X29.647 Y52.175 E60.50519
G1 X37.883 Y60.411 E61.36407
G1 X38.263 Y60.031 E61.40371
G1 X30.027 Y51.795 E62.26259
G1 X30.407 Y51.415 E62.30223
G1 X38.643 Y59.651 E63.16111
G1 X39.023 Y59.270 E63.20075
G1 X30.787 Y51.035 E64.05963
G1 X31.167 Y50.655 E64.09926
G1 X39.403 Y58.890 E64.95815
G1 X39.783 Y58.510 E64.99778
G1 X31.547 Y50.275 E65.85666
G1 X31.928 Y49.895 E65.89630
G1 X40.163 Y58.130 E66.75518
G1 X40.543 Y57.750 E66.79482
G1 X32.308 Y49.515 E67.65370
G1 X32.688 Y49.135 E67.69334
G1 X40.923 Y57.370 E68.55222
G1 X41.303 Y56.990 E68.59186
G1 X33.068 Y48.755 E69.45074
G1 X33.448 Y48.374 E69.49038
G1 X41.683 Y56.610 E70.34926
G1 X42.063 Y56.230 E70.38890
G1 X33.828 Y47.994 E71.24778
G1 X34.208 Y47.614 E71.28741
G1 X42.443 Y55.850 E72.14629
G1 X42.823 Y55.470 E72.18593
G1 X34.588 Y47.234 E73.04481
G1 X34.968 Y46.854 E73.08445
G1 X43.204 Y55.090 E73.94333
G1 X43.584 Y54.710 E73.98297
G1 X35.348 Y46.474 E74.84185
G1 X35.728 Y46.094 E74.88149
G1 X43.964 Y54.330 E75.74037
G1 X44.344 Y53.949 E75.78001
G1 X36.108 Y45.714 E76.63889
G1 X36.488 Y45.334 E76.67853
G1 X44.724 Y53.569 E77.53741
G1 X45.104 Y53.189 E77.57704
G1 X36.868 Y44.954 E78.43592
G1 X37.249 Y44.574 E78.47556
G1 X45.484 Y52.809 E79.33444
G1 X45.864 Y52.429 E79.37408
G1 X37.629 Y44.194 E80.23296
G1 X38.009 Y43.814 E80.27260
G1 X46.244 Y52.049 E81.13148
G1 X46.624 Y51.669 E81.17112
G1 X38.389 Y43.434 E82.03000
G1 X38.769 Y43.053 E82.06964
G1 X47.004 Y51.289 E82.92852
G1 X47.384 Y50.909 E82.96816
G1 X39.149 Y42.673 E83.82704
G1 X39.529 Y42.293 E83.86667
G1 X47.764 Y50.529 E84.72555
G1 X48.145 Y50.149 E84.76519
G1 X39.909 Y41.913 E85.62407
G1 X40.289 Y41.533 E85.66371
G1 X48.525 Y49.769 E86.52259
G1 X48.905 Y49.389 E86.56223
G1 X40.669 Y41.153 E87.42111
G1 X41.049 Y40.773 E87.46075
G1 X49.285 Y49.009 E88.31963
G1 X49.665 Y48.628 E88.35927
G1 X41.429 Y40.393 E89.21815
G1 X41.809 Y40.013 E89.25779
G1 X50.045 Y48.248 E90.11667
G1 X50.425 Y47.868 E90.15630
G1 X42.189 Y39.633 E91.01519
G1 X42.570 Y39.253 E91.05482
G1 X50.805 Y47.488 E91.91370
G1 X51.185 Y47.108 E91.95334
G1 X42.950 Y38.873 E92.81222
G1 X43.330 Y38.493 E92.85186
G1 X51.565 Y46.728 E93.71074
G1 X51.945 Y46.348 E93.75038
G1 X43.710 Y38.113 E94.60926
G1 X44.090 Y37.732 E94.64890
G1 X52.325 Y45.968 E95.50778
G1 X52.705 Y45.588 E95.54742
G1 X44.470 Y37.352 E96.40630
G1 X44.850 Y36.972 E96.44593
G1 X53.085 Y45.208 E97.30482
G1 X53.466 Y44.828 E97.34445
G1 X45.230 Y36.592 E98.20333
G1 X45.610 Y36.212 E98.24297
G1 X53.846 Y44.448 E99.10185
G1 X54.226 Y44.068 E99.14149
G1 X45.990 Y35.832 E100.00037
G1 X46.370 Y35.452 E100.04001
G1 X54.606 Y43.688 E100.89889
G1 X54.986 Y43.307 E100.93853
G1 X46.750 Y35.072 E101.79741
G1 X47.130 Y34.692 E101.83705
G1 X55.366 Y42.927 E102.69593
G1 X55.746 Y42.547 E102.73556
G1 X47.510 Y34.312 E103.59445
G1 X47.891 Y33.932 E103.63408
G1 X56.126 Y42.167 E104.49296
G1 X56.506 Y41.787 E104.53260
G1 X48.271 Y33.552 E105.39148
G1 X48.651 Y33.172 E105.43112
G1 X56.886 Y41.407 E106.29000
G1 X57.266 Y41.027 E106.32964
G1 X49.031 Y32.792 E107.18852
G1 X49.411 Y32.411 E107.22816
G1 X57.646 Y40.647 E108.08704
G1 X58.026 Y40.267 E108.12668
G1 X49.791 Y32.031 E108.98556
G1 X50.171 Y31.651 E109.02519
G1 X58.406 Y39.887 E109.88408
G1 X58.787 Y39.507 E109.92371
G1 X50.551 Y31.271 E110.78259
G1 X50.931 Y30.891 E110.82223
G1 X59.167 Y39.127 E111.68111
G1 X59.547 Y38.747 E111.72075
G1 X51.311 Y30.511 E112.57963
G1 X51.691 Y30.131 E112.61927
G1 X59.927 Y38.367 E113.47815
G1 X60.307 Y37.986 E113.51779
G1 X52.071 Y29.751 E114.37667
G1 X52.451 Y29.371 E114.41631
G1 X60.687 Y37.606 E115.27519
G1 X61.067 Y37.226 E115.31483
G1 X52.831 Y28.991 E116.17371
G1 X53.212 Y28.611 E116.21334
G1 X61.447 Y36.846 E117.07222
G1 X61.827 Y36.466 E117.11186
G1 X53.592 Y28.231 E117.97074
G1 X53.972 Y27.851 E118.01038
G1 X62.207 Y36.086 E118.86926
G1 X62.587 Y35.706 E118.90890
G1 X54.352 Y27.471 E119.76778
G1 X54.732 Y27.090 E119.80742
G1 X62.967 Y35.326 E120.66630
G1 X63.347 Y34.946 E120.70594
G1 X55.112 Y26.710 E121.56482
G1 X55.492 Y26.330 E121.60446
G1 X63.727 Y34.566 E122.46334
G1 X64.108 Y34.186 E122.50297
G1 X55.872 Y25.950 E123.36185
G1 X56.252 Y25.570 E123.40149
G1 X64.488 Y33.806 E124.26037
G1 X64.868 Y33.426 E124.30001
G1 X56.632 Y25.190 E125.15889
G1 X57.012 Y24.810 E125.19853
G1 X65.248 Y33.046 E126.05741
G1 X65.628 Y32.665 E126.09705
G1 X57.392 Y24.430 E126.95593
G1 X57.772 Y24.050 E126.99557
G1 X66.008 Y32.285 E127.85445
G1 X66.388 Y31.905 E127.89409
G1 X58.152 Y23.670 E128.75297
G1 X58.533 Y23.290 E128.79260
G1 X66.768 Y31.525 E129.65149
G1 X67.148 Y31.145 E129.69112
G1 X58.913 Y22.910 E130.55000
G1 X59.293 Y22.530 E130.58964
G1 X67.528 Y30.765 E131.44852
G1 X67.908 Y30.385 E131.48816
G1 X59.673 Y22.150 E132.34704
G1 X60.053 Y21.769 E132.38668
G1 X68.288 Y30.005 E133.24556
G1 X68.668 Y29.625 E133.28520
G1 X60.433 Y21.389 E134.14408
G1 X60.813 Y21.009 E134.18372
G1 X69.048 Y29.245 E135.04260
G1 X69.429 Y28.865 E135.08223
G1 X61.193 Y20.629 E135.94112
G1 X61.573 Y20.249 E135.98075
G1 X69.809 Y28.485 E136.83963
G1 X70.189 Y28.105 E136.87927
G1 X61.953 Y19.869 E137.73815
G1 X62.333 Y19.489 E137.77779
G1 X70.569 Y27.725 E138.63667
G1 X70.949 Y27.344 E138.67631
G1 X62.713 Y19.109 E139.53519
G1 X63.093 Y18.729 E139.57483
G1 X71.329 Y26.964 E140.43371
G1 X71.709 Y26.584 E140.47335
G1 X63.473 Y18.349 E141.33223
G1 X63.854 Y17.969 E141.37186
G1 X72.089 Y26.204 E142.23075
G1 X72.469 Y25.824 E142.27038
G1 X64.234 Y17.589 E143.12926
G1 X64.614 Y17.209 E143.16890
G1 X72.849 Y25.444 E144.02778
G1 X73.229 Y25.064 E144.06742
G1 X64.994 Y16.829 E144.92630
G1 X65.374 Y16.448 E144.96594
G1 X73.609 Y24.684 E145.82482
G1 X73.989 Y24.304 E145.86446
G1 X65.754 Y16.068 E146.72334
G1 X66.134 Y15.688 E146.76298
G1 X74.369 Y23.924 E147.62186
G1 X74.750 Y23.544 E147.66149
G1 X66.514 Y15.308 E148.52038
G1 X66.894 Y14.928 E148.56001
G1 X75.130 Y23.164 E149.41889
G1 X75.510 Y22.784 E149.45853
G1 X67.274 Y14.548 E150.31741
G1 X67.654 Y14.168 E150.35705
G1 X75.890 Y22.404 E151.21593
G1 X76.270 Y22.023 E151.25557
G1 X68.034 Y13.788 E152.11445
G1 X68.414 Y13.408 E152.15409
G1 X76.650 Y21.643 E153.01297
G1 X77.030 Y21.263 E153.05261
G1 X68.794 Y13.028 E153.91149
G1 X69.175 Y12.648 E153.95113
G1 X77.410 Y20.883 E154.81001
G1 X77.790 Y20.503 E154.84964
G1 X69.555 Y12.268 E155.70852
G1 X69.935 Y11.888 E155.74816
G1 X78.170 Y20.123 E156.60704
G1 X78.550 Y19.743 E156.64668
G1 X70.315 Y11.508 E157.50556
G1 X70.695 Y11.127 E157.54520
G1 X78.930 Y19.363 E158.40408
G1 X79.310 Y18.983 E158.44372
G1 X71.075 Y10.747 E159.30260
G1 X71.455 Y10.367 E159.34224
G1 X79.690 Y18.603 E160.20112
G1 X80.071 Y18.223 E160.24076
G1 X71.835 Y9.987 E161.09964
G1 X72.215 Y9.607 E161.13927
G1 X80.451 Y17.843 E161.99815
G1 X80.831 Y17.463 E162.03779
G1 X72.595 Y9.227 E162.89667
G1 X72.975 Y8.847 E162.93631
G1 X81.211 Y17.083 E163.79519
G1 X81.591 Y16.702 E163.83483
G1 X73.355 Y8.467 E164.69371
G1 X73.735 Y8.087 E164.73335
G1 X81.971 Y16.322 E165.59223
G1 X82.351 Y15.942 E165.63187
G1 X74.115 Y7.707 E166.49075
G1 X74.496 Y7.327 E166.53039
G1 X82.731 Y15.562 E167.38927
G1 X83.111 Y15.182 E167.42890
G1 X74.876 Y6.947 E168.28779
G1 X75.256 Y6.567 E168.32742
G1 X83.491 Y14.802 E169.18630
G1 X83.871 Y14.422 E169.22594
G1 X75.636 Y6.187 E170.08482
G1 X76.016 Y5.806 E170.12446
G1 X84.251 Y14.042 E170.98334
G1 X84.631 Y13.662 E171.02298
G1 X76.396 Y5.426 E171.88186
G1 X76.776 Y5.046 E171.92150
G1 X85.011 Y13.282 E172.78038
G1 X85.392 Y12.902 E172.82002
G1 X77.156 Y4.666 E173.67890
G1 X77.536 Y4.286 E173.71853
G1 X85.772 Y12.522 E174.57742
G1 E171.57742 F2400.00000
G92 E0
G1 Z0.550 F7800.000
G1 X72.253 Y8.850 F7800.000
G1 Z0.350 F7800.000
G1 E3.00000 F2400.00000
G1 X69.335 Y5.932 E3.64293 F120.000
G1 E0.64293 F2400.00000
G92 E0
G1 Z0.550 F7800.000
G1 X48.122 Y27.145 F7800.000
G1 Z0.350 F7800.000
G1 E3.00000 F2400.00000
G1 X51.040 Y30.063 E3.64292 F120.000
G1 E0.64292 F2400.00000
G92 E0
G1 Z0.550 F7800.000
G1 X29.827 Y51.276 F7800.000
G1 Z0.350 F7800.000
G1 E3.00000 F2400.00000
G1 X26.909 Y48.358 E3.64292 F120.000
G1 Z0.350 F7800.000
G1 Z0.650 F7800.000
G1 E0.64292 F2400.00000
G92 E0
G1 Z0.850 F7800.000
G1 X8.087 Y73.029 F7800.000
G1 Z0.650 F7800.000
G1 E3.00000 F2400.00000
G1 X5.570 Y70.513 E3.20452 F1200.000
G1 X5.074 Y69.925 E3.24873
G1 X4.920 Y69.679 E3.26540
G1 X4.720 Y69.240 E3.29315
G1 X4.654 Y68.910 E3.31247 F1200.000
G1 X4.680 Y68.712 E3.32398
G1 X4.735 Y68.612 E3.33057
G1 X4.836 Y68.556 E3.33717
G1 X5.034 Y68.530 E3.34868
G1 X5.364 Y68.596 E3.36799
G1 X5.803 Y68.796 E3.39574 F1200.000
G1 X6.049 Y68.950 E3.41241
G1 X6.637 Y69.446 E3.45663
G1 X9.153 Y71.963 E3.66115
G1 X29.300 Y51.816 E5.29853
G1 X26.783 Y49.300 E5.50305
G1 X26.287 Y48.712 E5.54726
G1 X26.133 Y48.466 E5.56393
G1 X25.933 Y48.027 E5.59168
G1 X25.867 Y47.697 E5.61100 F1200.000
G1 X25.893 Y47.499 E5.62251
G1 X25.949 Y47.398 E5.62910
G1 X26.049 Y47.342 E5.63570
G1 X26.247 Y47.317 E5.64720
G1 X26.577 Y47.383 E5.66652
G1 X27.017 Y47.583 E5.69427 F1200.000
G1 X27.262 Y47.737 E5.71094
G1 X27.850 Y48.233 E5.75515
G1 X30.367 Y50.749 E5.95967
G1 X50.513 Y30.603 E7.59706
G1 X47.997 Y28.087 E7.80158
G1 X47.500 Y27.499 E7.84579
G1 X47.346 Y27.253 E7.86246
G1 X47.146 Y26.813 E7.89021
G1 X47.080 Y26.484 E7.90953 F1200.000
G1 X47.106 Y26.285 E7.92103
G1 X47.162 Y26.185 E7.92763
G1 X47.262 Y26.129 E7.93422
G1 X47.461 Y26.103 E7.94573
G1 X47.790 Y26.170 E7.96505
G1 X48.230 Y26.369 E7.99280 F1200.000
G1 X48.476 Y26.523 E8.00947
G1 X49.063 Y27.020 E8.05368
G1 X51.580 Y29.536 E8.25820
G1 X71.726 Y9.390 E9.89558
G1 X69.205 Y6.869 E10.10049
G1 X68.942 Y6.584 E10.12275
G1 X68.713 Y6.286 E10.14436
G1 X68.516 Y5.965 E10.16599
G1 X68.360 Y5.600 E10.18882
