; generated by Slic3r 1.2.9 on 2018-03-11 at 18:12:55

; external perimeters extrusion width = 0.40mm
; perimeters extrusion width = 0.48mm
; infill extrusion width = 0.48mm
; solid infill extrusion width = 0.48mm
; top infill extrusion width = 0.48mm

M107
M190 S50 ; set bed temperature
M104 S220 ; set temperature
G28 ; home all axes
G1 Z5 F5000 ; lift nozzle

M109 S220 ; wait for temperature to be reached
G21 ; set units to millimeters
G90 ; use absolute coordinates
M82 ; use absolute distances for extrusion
G92 E0
G1 Z0.350 F7800.000
G1 E-3.00000 F2400.00000
G92 E0
G1 Z0.550 F7800.000
G1 X30.057 Y55.340 F7800.000
G1 Z0.350 F7800.000
G1 E3.00000 F2400.00000
G1 X57.160 Y28.237 E5.81663 F120.000
G1 X58.099 Y29.177 E5.91427
G1 X30.997 Y56.279 E8.73090
G1 X30.100 Y55.382 E8.82413
G1 X29.300 Y55.340 F7800.000
G1 X57.160 Y27.480 E11.71948 F120.000
G1 X58.857 Y29.177 E11.89585
G1 X30.997 Y57.037 E14.79119
G1 X29.342 Y55.382 E14.96315
G1 X29.686 Y55.236 F7800.000
G1 X30.716 Y55.620 F7800.000
G1 X57.440 Y28.896 E20.85150 F120.000
G1 E17.85150 F2400.00000
G92 E0
G1 Z0.550 F7800.000
G1 X29.264 Y44.536 F7800.000
G1 Z0.350 F7800.000
G1 E3.00000 F2400.00000
G1 X46.356 Y27.444 E4.77625 F120.000
G1 X33.062 Y14.151 E6.15778
G1 X38.068 Y9.145 E6.67797
G1 X53.503 Y24.580 E8.28208
G1 X26.400 Y51.683 E11.09870
G1 X10.965 Y36.248 E12.70281
G1 X15.971 Y31.242 E13.22300
G1 X29.222 Y44.493 E14.60013
G1 X29.264 Y43.778 F7800.000
G1 X45.598 Y27.444 E16.29765 F120.000
G1 X32.305 Y14.151 E17.67919
G1 X38.068 Y8.388 E18.27810
G1 X54.260 Y24.580 E19.96093
G1 X26.400 Y52.440 E22.85627
G1 X10.208 Y36.248 E24.53910
G1 X15.971 Y30.485 E25.13801
G1 X29.222 Y43.736 E26.51514
G1 X29.547 Y44.061 F7800.000
G1 X29.248 Y44.865 F7800.000
G1 X31.063 Y46.680 E26.70392 F120.000
G1 X31.442 Y46.301 E26.74335
G1 X29.627 Y44.486 E26.93213
G1 X30.006 Y44.107 E26.97156
G1 X31.821 Y45.922 E27.16034
G1 X32.200 Y45.543 E27.19976
G1 X30.385 Y43.728 E27.38854
G1 X30.764 Y43.349 E27.42797
G1 X32.579 Y45.164 E27.61675
G1 X32.958 Y44.784 E27.65618
G1 X31.143 Y42.970 E27.84496
G1 X31.522 Y42.590 E27.88439
G1 X33.337 Y44.405 E28.07317
G1 X33.716 Y44.026 E28.11260
G1 X31.901 Y42.211 E28.30138
G1 X32.280 Y41.832 E28.34081
G1 X34.095 Y43.647 E28.52959
G1 X34.474 Y43.268 E28.56901
G1 X32.659 Y41.453 E28.75779
G1 X33.039 Y41.074 E28.79722
G1 X34.853 Y42.889 E28.98600
G1 X35.233 Y42.510 E29.02543
G1 X33.418 Y40.695 E29.21421
G1 X33.797 Y40.316 E29.25364
G1 X35.612 Y42.131 E29.44242
G1 X35.991 Y41.752 E29.48185
G1 X34.176 Y39.937 E29.67063
G1 X34.555 Y39.558 E29.71006
G1 X36.370 Y41.373 E29.89884
G1 X36.749 Y40.994 E29.93826
G1 X34.934 Y39.179 E30.12705
G1 X35.313 Y38.800 E30.16647
G1 X37.128 Y40.615 E30.35525
G1 X37.507 Y40.236 E30.39468
G1 X35.692 Y38.421 E30.58346
G1 X36.071 Y38.042 E30.62289
G1 X37.886 Y39.857 E30.81167
G1 X38.265 Y39.478 E30.85110
G1 X36.450 Y37.663 E31.03988
G1 X36.829 Y37.284 E31.07931
G1 X38.644 Y39.099 E31.26809
G1 X39.023 Y38.719 E31.30752
G1 X37.208 Y36.905 E31.49630
G1 X37.587 Y36.525 E31.53572
G1 X39.402 Y38.340 E31.72450
G1 X39.781 Y37.961 E31.76393
G1 X37.966 Y36.146 E31.95271
G1 X38.345 Y35.767 E31.99214
G1 X40.160 Y37.582 E32.18092
G1 X40.539 Y37.203 E32.22035
G1 X38.724 Y35.388 E32.40913
G1 X39.104 Y35.009 E32.44856
G1 X40.919 Y36.824 E32.63734
G1 X41.298 Y36.445 E32.67677
G1 X39.483 Y34.630 E32.86555
G1 X39.862 Y34.251 E32.90497
G1 X41.677 Y36.066 E33.09376
G1 X42.056 Y35.687 E33.13318
G1 X40.241 Y33.872 E33.32196
G1 X40.620 Y33.493 E33.36139
G1 X42.435 Y35.308 E33.55017
G1 X42.814 Y34.929 E33.58960
G1 X40.999 Y33.114 E33.77838
G1 X41.378 Y32.735 E33.81781
G1 X43.193 Y34.550 E34.00659
G1 X43.572 Y34.171 E34.04602
G1 X41.757 Y32.356 E34.23480
G1 X42.136 Y31.977 E34.27423
G1 X43.951 Y33.792 E34.46301
G1 X44.330 Y33.413 E34.50243
G1 X42.515 Y31.598 E34.69122
G1 X42.894 Y31.219 E34.73064
G1 X44.709 Y33.034 E34.91942
G1 X45.088 Y32.654 E34.95885
G1 X43.273 Y30.839 E35.14763
G1 X43.652 Y30.460 E35.18706
G1 X45.467 Y32.275 E35.37584
G1 X45.846 Y31.896 E35.41527
G1 X44.031 Y30.081 E35.60405
G1 X44.410 Y29.702 E35.64348
G1 X46.225 Y31.517 E35.83226
G1 X46.604 Y31.138 E35.87169
G1 X44.790 Y29.323 E36.06047
G1 X45.169 Y28.944 E36.09989
G1 X46.984 Y30.759 E36.28868
G1 X47.363 Y30.380 E36.32810
G1 X45.548 Y28.565 E36.51688
G1 X45.927 Y28.186 E36.55631
G1 X47.742 Y30.001 E36.74509
G1 X48.121 Y29.622 E36.78452
G1 X46.306 Y27.807 E36.97330
G1 X46.685 Y27.428 E37.01273
G1 X48.500 Y29.243 E37.20151
G1 X48.879 Y28.864 E37.24094
G1 X33.784 Y13.769 E38.81096
G1 X34.163 Y13.390 E38.85039
G1 X49.258 Y28.485 E40.42042
G1 X49.637 Y28.106 E40.45985
G1 X34.543 Y13.011 E42.02987
G1 X34.922 Y12.632 E42.06930
G1 X50.016 Y27.727 E43.63933
G1 X50.395 Y27.348 E43.67876
G1 X35.301 Y12.253 E45.24878
G1 X35.680 Y11.874 E45.28821
G1 X50.774 Y26.968 E46.85824
G1 X51.153 Y26.589 E46.89766
G1 X36.059 Y11.495 E48.46769
G1 X36.438 Y11.116 E48.50712
G1 X51.532 Y26.210 E50.07714
G1 X51.911 Y25.831 E50.11657
G1 X36.817 Y10.737 E51.68660
G1 X37.196 Y10.358 E51.72603
G1 X52.290 Y25.452 E53.29605
G1 X52.669 Y25.073 E53.33548
G1 X37.575 Y9.979 E54.90551
G1 X37.954 Y9.600 E54.94494
G1 X53.049 Y24.694 E56.51496
G1 E53.51496 F2400.00000
G92 E0
G1 Z0.550 F7800.000
G1 X30.684 Y47.059 F7800.000
G1 Z0.350 F7800.000
G1 E3.00000 F2400.00000
G1 X15.589 Y31.964 E4.57003 F120.000
G1 X15.210 Y32.344 E4.60945
G1 X30.305 Y47.438 E6.17948
G1 X29.926 Y47.817 E6.21891
G1 X14.831 Y32.723 E7.78893
G1 X14.452 Y33.102 E7.82836
G1 X29.547 Y48.196 E9.39839
G1 X29.168 Y48.575 E9.43782
G1 X14.073 Y33.481 E11.00784
G1 X13.694 Y33.860 E11.04727
G1 X28.788 Y48.954 E12.61730
G1 X28.409 Y49.333 E12.65673
G1 X13.315 Y34.239 E14.22675
G1 X12.936 Y34.618 E14.26618
G1 X28.030 Y49.712 E15.83621
G1 X27.651 Y50.091 E15.87563
G1 X12.557 Y34.997 E17.44566
G1 X12.178 Y35.376 E17.48509
G1 X27.272 Y50.470 E19.05511
G1 X26.893 Y50.850 E19.09454
G1 X11.799 Y35.755 E20.66457
G1 X11.420 Y36.134 E20.70400
G1 X26.514 Y51.229 E22.27402
G1 Z0.650 F7800.000
G1 E19.27402 F2400.00000
G92 E0
G1 Z0.850 F7800.000
G1 X29.692 Y55.340 F7800.000
G1 Z0.650 F7800.000
G1 E3.00000 F2400.00000
G1 X57.160 Y27.872 E5.23243 F1200.000
G1 X58.465 Y29.177 E5.33849
G1 X30.997 Y56.645 E7.57091
G1 X29.734 Y55.382 E7.67353
G1 X29.158 Y55.340 F7800.000
G1 X57.160 Y27.338 E9.49696 F600.000
G1 X58.998 Y29.177 E9.61668
G1 X30.997 Y57.178 E11.44012
G1 X29.201 Y55.382 E11.55707
G1 X29.545 Y55.236 F7800.000
G1 E8.55707 F2400.00000
G92 E0
G1 Z0.850 F7800.000
G1 X29.264 Y44.171 F7800.000
G1 Z0.650 F7800.000
G1 E3.00000 F2400.00000
G1 X45.991 Y27.444 E4.35941 F1200.000
G1 X32.697 Y14.151 E5.43983
G1 X38.068 Y8.780 E5.87634
G1 X53.868 Y24.580 E7.16053
G1 X26.400 Y52.048 E9.39295
G1 X10.600 Y36.248 E10.67713
G1 X15.971 Y30.877 E11.11364
G1 X29.222 Y44.128 E12.19062
G1 X29.264 Y43.637 F7800.000
G1 X45.457 Y27.444 E13.24508 F600.000
G1 X32.163 Y14.151 E14.11075
G1 X38.068 Y8.246 E14.49524
G1 X54.402 Y24.580 E15.55891
G1 X26.400 Y52.582 E17.38234
G1 X10.066 Y36.248 E18.44602
G1 X15.971 Y30.343 E18.83050
G1 X29.222 Y43.595 E19.69341
G1 X29.547 Y43.920 F7800.000
G1 E16.69341 F2400.00000
G92 E0
G1 Z0.850 F7800.000
G1 X26.312 Y51.721 F7800.000
G1 Z0.650 F7800.000
G1 E3.00000 F2400.00000
G1 X53.527 Y24.506 E5.21191 F900.000
G1 X52.342 Y23.321 E5.30820
G1 X25.127 Y50.536 E7.52012
G1 X23.942 Y49.352 E7.61641
G1 X29.075 Y44.219 E8.03355
G1 X27.890 Y43.034 E8.12984
G1 X22.757 Y48.167 E8.54698
G1 X21.572 Y46.982 E8.64328
G1 X26.705 Y41.850 E9.06042
G1 X25.520 Y40.665 E9.15671
G1 X20.388 Y45.797 E9.57385
G1 X19.203 Y44.613 E9.67014
G1 X24.335 Y39.480 E10.08729
G1 X23.151 Y38.295 E10.18358
G1 X18.018 Y43.428 E10.60072
G1 X16.833 Y42.243 E10.69701
G1 X21.966 Y37.110 E11.11416
G1 X20.781 Y35.926 E11.21045
G1 X15.649 Y41.058 E11.62759
G1 X14.464 Y39.873 E11.72388
G1 X19.596 Y34.741 E12.14102
G1 X18.412 Y33.556 E12.23732
G1 X13.279 Y38.689 E12.65446
G1 X12.094 Y37.504 E12.75075
G1 X17.227 Y32.371 E13.16789
G1 E10.16789 F2400.00000
G92 E0
G1 Z0.850 F7800.000
G1 X34.191 Y15.407 F7800.000
G1 Z0.650 F7800.000
G1 E3.00000 F2400.00000
G1 X39.310 Y10.288 E3.41599 F900.000
G1 X40.495 Y11.473 E3.51229
G1 X35.376 Y16.592 E3.92828
G1 X36.561 Y17.776 E4.02457
G1 X41.679 Y12.658 E4.44056
G1 X42.864 Y13.843 E4.53686
G1 X37.746 Y18.961 E4.95285
G1 X38.930 Y20.146 E5.04914
G1 X44.049 Y15.028 E5.46513
G1 X45.234 Y16.212 E5.56143
G1 X40.115 Y21.331 E5.97742
G1 X41.300 Y22.515 E6.07371
G1 X46.418 Y17.397 E6.48970
G1 X47.603 Y18.582 E6.58600
G1 X42.485 Y23.700 E7.00199
G1 X43.670 Y24.885 E7.09828
G1 X48.788 Y19.767 E7.51427
G1 X49.973 Y20.951 E7.61057
G1 X44.854 Y26.070 E8.02656
G1 X46.039 Y27.255 E8.12285
G1 X51.157 Y22.136 E8.53884
G1 Z0.950 F7800.000
G1 E5.53884 F2400.00000
G92 E0
G1 Z1.150 F7800.000
G1 X29.692 Y55.340 F7800.000
G1 Z0.950 F7800.000
G1 E3.00000 F2400.00000
G1 X57.160 Y27.872 E5.23243 F1200.000
G1 X58.465 Y29.177 E5.33849
G1 X30.997 Y56.645 E7.57092
G1 X29.734 Y55.382 E7.67353
G1 X29.158 Y55.340 F7800.000
G1 X57.160 Y27.338 E9.49696 F600.000
G1 X58.998 Y29.177 E9.61668
G1 X30.997 Y57.178 E11.44012
G1 X29.201 Y55.382 E11.55708
G1 X29.545 Y55.236 F7800.000
G1 E8.55708 F2400.00000
G92 E0
G1 Z1.150 F7800.000
G1 X32.266 Y55.137 F7800.000
G1 Z0.950 F7800.000
G1 E3.00000 F2400.00000
G1 X31.214 Y54.084 E3.08554 F900.000
G1 X32.399 Y52.899 E3.18184
G1 X33.451 Y53.952 E3.26738
G1 X34.636 Y52.767 E3.36367
G1 X33.583 Y51.715 E3.44922
G1 X34.768 Y50.530 E3.54551
G1 X35.821 Y51.582 E3.63105
G1 X37.005 Y50.398 E3.72734
G1 X35.953 Y49.345 E3.81289
G1 X37.138 Y48.160 E3.90918
G1 X38.190 Y49.213 E3.99472
G1 X39.375 Y48.028 E4.09102
G1 X38.322 Y46.976 E4.17656
G1 X39.507 Y45.791 E4.27285
G1 X40.560 Y46.843 E4.35840
G1 X41.744 Y45.659 E4.45469
G1 X40.692 Y44.606 E4.54023
G1 X41.877 Y43.421 E4.63652
G1 X42.929 Y44.474 E4.72207
G1 X44.114 Y43.289 E4.81836
G1 X43.061 Y42.236 E4.90390
G1 X44.246 Y41.052 E5.00019
G1 X45.299 Y42.104 E5.08574
G1 X46.484 Y40.919 E5.18203
G1 X45.431 Y39.867 E5.26757
G1 X46.616 Y38.682 E5.36387
G1 X47.668 Y39.735 E5.44941
G1 X48.853 Y38.550 E5.54570
G1 X47.801 Y37.497 E5.63125
G1 X48.985 Y36.313 E5.72754
G1 X50.038 Y37.365 E5.81308
G1 X51.223 Y36.180 E5.90937
G1 X50.170 Y35.128 E5.99492
G1 X51.355 Y33.943 E6.09121
G1 X52.407 Y34.996 E6.17675
G1 X53.592 Y33.811 E6.27304
G1 X52.540 Y32.758 E6.35859
G1 X53.724 Y31.574 E6.45488
G1 X54.777 Y32.626 E6.54042
G1 X55.962 Y31.441 E6.63672
G1 X54.909 Y30.389 E6.72226
G1 X56.094 Y29.204 E6.81855
G1 X57.146 Y30.257 E6.90410
G1 E3.90410 F2400.00000
G92 E0
G1 Z1.150 F7800.000
G1 X29.264 Y44.171 F7800.000
G1 Z0.950 F7800.000
G1 E3.00000 F2400.00000
G1 X45.991 Y27.444 E4.35941 F1200.000
G1 X32.697 Y14.151 E5.43983
G1 X38.068 Y8.780 E5.87634
G1 X53.868 Y24.580 E7.16053
G1 X26.400 Y52.048 E9.39295
G1 X10.600 Y36.248 E10.67713
G1 X15.971 Y30.877 E11.11364
G1 X29.222 Y44.128 E12.19062
G1 X29.264 Y43.637 F7800.000
G1 X45.457 Y27.444 E13.24508 F600.000
G1 X32.163 Y14.151 E14.11075
G1 X38.068 Y8.246 E14.49524
G1 X54.402 Y24.580 E15.55891
G1 X26.400 Y52.582 E17.38234
G1 X10.066 Y36.248 E18.44602
G1 X15.971 Y30.343 E18.83050
G1 X29.222 Y43.595 E19.69341
G1 X29.547 Y43.920 F7800.000
G1 E16.69341 F2400.00000
G92 E0
G1 Z1.150 F7800.000
G1 X27.670 Y50.540 F7800.000
G1 Z0.950 F7800.000
G1 E3.00000 F2400.00000
G1 X12.122 Y34.992 E4.26366 F900.000
G1 X13.307 Y33.807 E4.35995
G1 X28.855 Y49.356 E5.62361
G1 X30.040 Y48.171 E5.71990
G1 X14.491 Y32.623 E6.98356
G1 X15.676 Y31.438 E7.07985
G1 X31.224 Y46.986 E8.34351
G1 X32.409 Y45.801 E8.43980
G1 X30.140 Y43.533 E8.62418
G1 X31.325 Y42.348 E8.72047
G1 X33.594 Y44.617 E8.90486
G1 X34.779 Y43.432 E9.00115
G1 X32.510 Y41.163 E9.18553
G1 X33.695 Y39.978 E9.28182
G1 X35.963 Y42.247 E9.46620
G1 X37.148 Y41.062 E9.56249
G1 X34.879 Y38.794 E9.74688
G1 X36.064 Y37.609 E9.84317
G1 X38.333 Y39.877 E10.02755
G1 X39.518 Y38.693 E10.12384
G1 X37.249 Y36.424 E10.30823
G1 X38.434 Y35.239 E10.40452
G1 X40.702 Y37.508 E10.58890
G1 X41.887 Y36.323 E10.68519
G1 X39.619 Y34.055 E10.86958
G1 X40.803 Y32.870 E10.96587
G1 X43.072 Y35.138 E11.15025
G1 X44.257 Y33.954 E11.24654
G1 X41.988 Y31.685 E11.43092
G1 X43.173 Y30.500 E11.52721
G1 X45.442 Y32.769 E11.71160
G1 X46.626 Y31.584 E11.80789
G1 X44.358 Y29.315 E11.99227
G1 X45.542 Y28.131 E12.08856
G1 X47.811 Y30.399 E12.27295
G1 X48.996 Y29.215 E12.36924
G1 X33.448 Y13.666 E13.63290
G1 X34.632 Y12.482 E13.72919
G1 X50.181 Y28.030 E14.99285
G1 X51.365 Y26.845 E15.08914
G1 X35.817 Y11.297 E16.35280
G1 X37.002 Y10.112 E16.44909
G1 X52.550 Y25.660 E17.71275
M106 S104.55
G1 Z1.250 F7800.000
G1 E14.71275 F2400.00000
G92 E0
G1 Z1.450 F7800.000
G1 X29.692 Y55.340 F7800.000
G1 Z1.250 F7800.000
G1 E3.00000 F2400.00000
G1 X57.160 Y27.872 E5.23243 F1200.000
G1 X58.465 Y29.177 E5.33849
G1 X30.997 Y56.645 E7.57091
G1 X29.734 Y55.382 E7.67353
G1 X29.158 Y55.340 F7800.000
G1 X57.160 Y27.338 E9.49696 F600.000
G1 X58.998 Y29.177 E9.61668
G1 X30.997 Y57.178 E11.44012
G1 X29.201 Y55.382 E11.55707
G1 X29.545 Y55.236 F7800.000
G1 E8.55707 F2400.00000
G92 E0
G1 Z1.450 F7800.000
G1 X29.264 Y44.171 F7800.000
G1 Z1.250 F7800.000
G1 E3.00000 F2400.00000
G1 X45.991 Y27.444 E4.35941 F1200.000
G1 X32.697 Y14.151 E5.43983
G1 X38.068 Y8.780 E5.87634
G1 X53.868 Y24.580 E7.16053
G1 X26.400 Y52.048 E9.39295
G1 X10.600 Y36.248 E10.67713
G1 X15.971 Y30.877 E11.11364
G1 X29.222 Y44.128 E12.19062
G1 X29.264 Y43.637 F7800.000
G1 X45.457 Y27.444 E13.24508 F600.000
G1 X32.163 Y14.151 E14.11075
G1 X38.068 Y8.246 E14.49524
G1 X54.402 Y24.580 E15.55891
G1 X26.400 Y52.582 E17.38234
G1 X10.066 Y36.248 E18.44602
G1 X15.971 Y30.343 E18.83050
G1 X29.222 Y43.595 E19.69341
G1 X29.547 Y43.920 F7800.000
G1 E16.69341 F2400.00000
G92 E0
G1 Z1.450 F7800.000
G1 X26.312 Y51.721 F7800.000
G1 Z1.250 F7800.000
G1 E3.00000 F2400.00000
G1 X53.527 Y24.506 E5.21191 F900.000
G1 X52.342 Y23.321 E5.30820
G1 X25.127 Y50.536 E7.52012
G1 X23.942 Y49.352 E7.61641
G1 X29.075 Y44.219 E8.03355
G1 X27.890 Y43.034 E8.12984
G1 X22.757 Y48.167 E8.54698
G1 X21.572 Y46.982 E8.64328
G1 X26.705 Y41.850 E9.06042
G1 X25.520 Y40.665 E9.15671
G1 X20.388 Y45.797 E9.57385
G1 X19.203 Y44.613 E9.67014
G1 X24.335 Y39.480 E10.08729
G1 X23.151 Y38.295 E10.18358
G1 X18.018 Y43.428 E10.60072
G1 X16.833 Y42.243 E10.69701
G1 X21.966 Y37.110 E11.11416
G1 X20.781 Y35.926 E11.21045
G1 X15.649 Y41.058 E11.62759
G1 X14.464 Y39.873 E11.72388
G1 X19.596 Y34.741 E12.14102
G1 X18.412 Y33.556 E12.23732
G1 X13.279 Y38.689 E12.65446
G1 X12.094 Y37.504 E12.75075
G1 X17.227 Y32.371 E13.16789
G1 E10.16789 F2400.00000
G92 E0
G1 Z1.450 F7800.000
G1 X34.191 Y15.407 F7800.000
G1 Z1.250 F7800.000
G1 E3.00000 F2400.00000
G1 X39.310 Y10.288 E3.41599 F900.000
G1 X40.495 Y11.473 E3.51229
G1 X35.376 Y16.592 E3.92828
G1 X36.561 Y17.776 E4.02457
G1 X41.679 Y12.658 E4.44056
G1 X42.864 Y13.843 E4.53686
G1 X37.746 Y18.961 E4.95285
G1 X38.930 Y20.146 E5.04914
G1 X44.049 Y15.028 E5.46513
G1 X45.234 Y16.212 E5.56142
G1 X40.115 Y21.331 E5.97742
G1 X41.300 Y22.515 E6.07371
G1 X46.418 Y17.397 E6.48970
G1 X47.603 Y18.582 E6.58599
G1 X42.485 Y23.700 E7.00199
G1 X43.670 Y24.885 E7.09828
G1 X48.788 Y19.767 E7.51427
G1 X49.973 Y20.951 E7.61056
G1 X44.854 Y26.070 E8.02656
G1 X46.039 Y27.255 E8.12285
G1 X51.157 Y22.136 E8.53884
M106 S94.35
G1 Z1.550 F7800.000
G1 E5.53884 F2400.00000
G92 E0
G1 Z1.750 F7800.000
G1 X29.692 Y55.340 F7800.000
G1 Z1.550 F7800.000
G1 E3.00000 F2400.00000
G1 X57.160 Y27.872 E5.23243 F1200.000
G1 X58.465 Y29.177 E5.33849
G1 X30.997 Y56.645 E7.57091
G1 X29.734 Y55.382 E7.67353
G1 X29.158 Y55.340 F7800.000
G1 X57.160 Y27.338 E9.49696 F600.000
G1 X58.998 Y29.177 E9.61668
G1 X30.997 Y57.178 E11.44012
G1 X29.201 Y55.382 E11.55707
G1 X29.545 Y55.236 F7800.000
G1 E8.55707 F2400.00000
G92 E0
G1 Z1.750 F7800.000
G1 X32.266 Y55.137 F7800.000
G1 Z1.550 F7800.000
G1 E3.00000 F2400.00000
G1 X31.214 Y54.084 E3.08554 F900.000
G1 X32.399 Y52.899 E3.18184
G1 X33.451 Y53.952 E3.26738
G1 X34.636 Y52.767 E3.36367
G1 X33.583 Y51.715 E3.44922
G1 X34.768 Y50.530 E3.54551
G1 X35.821 Y51.582 E3.63105
G1 X37.005 Y50.398 E3.72734
G1 X35.953 Y49.345 E3.81289
G1 X37.138 Y48.160 E3.90918
G1 X38.190 Y49.213 E3.99472
