; generated by Slic3r 1.2.9 on 2018-03-11 at 17:49:36

; external perimeters extrusion width = 0.40mm
; perimeters extrusion width = 0.48mm
; infill extrusion width = 0.48mm
; solid infill extrusion width = 0.48mm
; top infill extrusion width = 0.48mm
; support material extrusion width = 0.40mm

M107
M190 S50 ; set bed temperature
M104 S220 ; set temperature
G28 ; home all axes
G1 Z5 F5000 ; lift nozzle

M109 S220 ; wait for temperature to be reached
G21 ; set units to millimeters
G90 ; use absolute coordinates
M82 ; use absolute distances for extrusion
G92 E0
G1 Z0.350 F7800.000
G1 E-3.00000 F2400.00000
G92 E0
G1 Z0.550 F7800.000
G1 X55.672 Y28.599 F7800.000
G1 Z0.350 F7800.000
G1 E3.00000 F2400.00000
G1 X56.611 Y29.539 E3.09765 F120.000
G1 X29.509 Y56.641 E5.91427
G1 X28.569 Y55.702 E6.01192
G1 X55.629 Y28.642 E8.82413
G1 X55.672 Y27.842 F7800.000
G1 X57.369 Y29.539 E9.00050 F120.000
G1 X29.509 Y57.399 E11.89585
G1 X27.812 Y55.702 E12.07221
G1 X55.629 Y27.884 E14.96315
G1 X55.775 Y28.228 F7800.000
G1 X55.952 Y29.259 F7800.000
G1 X29.229 Y55.982 E20.85150 F120.000
G1 E17.85150 F2400.00000
G92 E0
G1 Z0.550 F7800.000
G1 X51.662 Y24.589 F7800.000
G1 Z0.350 F7800.000
G1 E3.00000 F2400.00000
G1 X46.833 Y29.418 E3.50182 F120.000
G1 X38.822 Y21.407 E4.33432
G1 X43.651 Y16.579 E4.83614
G1 X51.619 Y24.547 E5.66424
G1 X52.419 Y24.589 F7800.000
G1 X46.833 Y30.175 E6.24478 F120.000
G1 X38.065 Y21.407 E7.15600
G1 X43.651 Y15.821 E7.73654
G1 X52.377 Y24.547 E8.64336
G1 X52.033 Y24.693 F7800.000
G1 X51.207 Y24.703 F7800.000
G1 X43.537 Y17.033 E9.45851 F120.000
G1 X43.150 Y17.420 E9.49968
G1 X50.820 Y25.090 E10.31483
G1 X50.433 Y25.477 E10.35599
G1 X42.763 Y17.808 E11.17115
G1 X42.375 Y18.195 E11.21231
G1 X50.045 Y25.865 E12.02746
G1 X49.658 Y26.252 E12.06863
G1 X41.988 Y18.582 E12.88378
G1 X41.601 Y18.970 E12.92495
G1 X49.271 Y26.639 E13.74010
G1 X48.883 Y27.027 E13.78126
G1 X41.213 Y19.357 E14.59642
G1 X40.826 Y19.744 E14.63758
G1 X48.496 Y27.414 E15.45274
G1 X48.109 Y27.801 E15.49390
G1 X40.439 Y20.132 E16.30905
G1 X40.052 Y20.519 E16.35022
G1 X47.721 Y28.189 E17.16537
G1 X47.334 Y28.576 E17.20654
G1 X39.664 Y20.906 E18.02169
G1 X39.277 Y21.294 E18.06285
G1 X46.947 Y28.963 E18.87801
G1 E15.87801 F2400.00000
G92 E0
G1 Z0.550 F7800.000
G1 X29.388 Y46.863 F7800.000
G1 Z0.350 F7800.000
G1 E3.00000 F2400.00000
G1 X24.559 Y51.692 E3.50182 F120.000
G1 X16.549 Y43.681 E4.33432
G1 X21.377 Y38.852 E4.83614
G1 X29.345 Y46.821 E5.66424
G1 X30.145 Y46.863 F7800.000
G1 X24.559 Y52.449 E6.24478 F120.000
G1 X15.791 Y43.681 E7.15600
G1 X21.377 Y38.095 E7.73654
G1 X30.103 Y46.821 E8.64336
G1 X29.759 Y46.967 F7800.000
G1 X28.933 Y46.977 F7800.000
G1 X21.264 Y39.307 E9.45851 F120.000
G1 X20.876 Y39.694 E9.49968
G1 X28.546 Y47.364 E10.31483
G1 X28.159 Y47.751 E10.35599
G1 X20.489 Y40.082 E11.17115
G1 X20.102 Y40.469 E11.21231
G1 X27.771 Y48.139 E12.02747
G1 X27.384 Y48.526 E12.06863
G1 X19.714 Y40.856 E12.88378
G1 X19.327 Y41.243 E12.92495
G1 X26.997 Y48.913 E13.74010
G1 X26.609 Y49.301 E13.78127
G1 X18.940 Y41.631 E14.59642
G1 X18.552 Y42.018 E14.63759
G1 X26.222 Y49.688 E15.45274
G1 X25.835 Y50.075 E15.49391
G1 X18.165 Y42.405 E16.30906
G1 X17.778 Y42.793 E16.35022
G1 X25.447 Y50.463 E17.16538
G1 X25.060 Y50.850 E17.20654
G1 X17.390 Y43.180 E18.02170
G1 X17.003 Y43.567 E18.06286
G1 X24.673 Y51.237 E18.87801
G1 Z0.350 F7800.000
G1 X25.811 Y52.370 F7800.000
G1 X24.435 Y55.115 E19.10365 F120.000
G1 X25.234 Y55.913 E19.18660
G1 X28.214 Y49.968 E19.67532
G1 X31.241 Y51.100 F7800.000
G1 X33.221 Y47.149 E20.00009 F120.000
G1 X34.019 Y47.947 E20.08304
G1 X33.643 Y48.698 E20.14474
G1 X30.616 Y47.565 F7800.000
G1 X26.032 Y56.711 E20.89653 F120.000
G1 X26.991 Y57.188 F7800.000
G1 X27.418 Y56.337 E20.96653 F120.000
G1 E17.96653 F2400.00000
G92 E0
G1 Z0.550 F7800.000
G1 X28.838 Y53.502 F7800.000
G1 Z0.350 F7800.000
G1 E3.00000 F2400.00000
G1 X32.423 Y46.351 E3.58785 F120.000
G1 X31.625 Y45.553 E3.67080
G1 X31.037 Y46.726 E3.76721
G1 E0.76721 F2400.00000
G92 E0
G1 Z0.550 F7800.000
G1 X24.225 Y53.144 F7800.000
G1 Z0.350 F7800.000
G1 E3.00000 F2400.00000
G1 X23.637 Y54.317 E3.09641 F120.000
G1 E0.09641 F2400.00000
G92 E0
G1 Z0.550 F7800.000
G1 X45.694 Y31.826 F7800.000
G1 Z0.350 F7800.000
G1 E3.00000 F2400.00000
G1 X46.282 Y30.653 E3.09641 F120.000
G1 X47.432 Y30.749 F7800.000
G1 X46.492 Y32.624 E3.25051 F120.000
G1 X47.290 Y33.422 E3.33346
G1 X49.834 Y28.347 E3.75064
G1 X52.861 Y29.480 F7800.000
G1 X55.278 Y24.658 E4.14695 F120.000
G1 X53.094 Y24.235 F7800.000
G1 X53.681 Y23.062 E4.24335 F120.000
G1 X54.480 Y23.860 E4.32631
G1 X50.459 Y31.882 E4.98569
G1 X48.089 Y34.220 F7800.000
G1 X52.236 Y25.945 E5.66595 F120.000
G1 X55.264 Y27.077 F7800.000
G1 X56.076 Y25.456 E5.79918 F120.000
G1 X56.874 Y26.255 E5.88213
G1 X56.286 Y27.427 E5.97854
G1 Z0.650 F7800.000
G1 X57.228 Y26.852 F7800.000
G1 X53.409 Y23.034 E6.22719 F900.000
G1 X52.773 Y23.670 E6.26863
G1 X53.692 Y24.589 E6.32849
G1 X46.833 Y31.448 E6.77514
G1 X45.914 Y30.529 E6.83500
G1 X45.277 Y31.165 E6.87644
G1 X48.177 Y34.064 E7.06523
G1 X55.672 Y26.569 E7.55332
G1 X56.591 Y27.488 E7.61318
G1 X57.228 Y26.852 E7.65462
G1 X54.999 Y24.934 F7800.000
G1 X53.083 Y28.757 E7.85150 F900.000
G1 X49.896 Y28.787 F7800.000
G1 X47.664 Y33.240 E8.08090 F900.000
G1 E5.08090 F2400.00000
G92 E0
G1 Z0.850 F7800.000
G1 X34.034 Y48.207 F7800.000
G1 Z0.650 F7800.000
G1 E3.00000 F2400.00000
G1 X31.135 Y45.307 E3.18879 F900.000
G1 X30.499 Y45.944 E3.23023
G1 X31.418 Y46.863 E3.29009
G1 X24.559 Y53.722 E3.73674
G1 X23.640 Y52.803 E3.79660
G1 X23.004 Y53.439 E3.83804
G1 X26.822 Y57.258 E4.08669
G1 X27.458 Y56.621 E4.12813
G1 X26.539 Y55.702 E4.18799
G1 X34.034 Y48.207 E4.67609
G1 X31.457 Y46.591 F7800.000
G1 X31.674 Y46.157 E4.69840 F900.000
G1 X30.819 Y47.864 F7800.000
G1 X27.647 Y54.193 E5.02438 F900.000
G1 E2.02438 F2400.00000
G92 E0
G1 Z0.850 F7800.000
G1 X26.669 Y56.143 F7800.000
G1 Z0.650 F7800.000
G1 E3.00000 F2400.00000
G1 X26.452 Y56.576 E3.02231 F900.000
G1 X24.339 Y54.464 E3.15990
G1 X24.556 Y54.030 E3.18221
G1 Z0.650 F7800.000
G1 E0.18221 F2400.00000
G92 E0
G1 Z0.850 F7800.000
G1 X28.204 Y55.702 F7800.000
G1 Z0.650 F7800.000
G1 E3.00000 F2400.00000
G1 X55.672 Y28.234 E5.23243 F1200.000
G1 X56.977 Y29.539 E5.33849
G1 X29.509 Y57.007 E7.57091
G1 X28.246 Y55.744 E7.67353
G1 X27.670 Y55.702 F7800.000
G1 X55.672 Y27.700 E9.49696 F600.000
G1 X57.510 Y29.539 E9.61668
G1 X29.509 Y57.540 E11.44012
G1 X27.713 Y55.744 E11.55707
G1 X28.057 Y55.598 F7800.000
G1 X29.270 Y56.529 F7800.000
G1 X56.485 Y29.314 E13.76899 F900.000
G1 E10.76899 F2400.00000
G92 E0
G1 Z0.850 F7800.000
G1 X46.833 Y29.783 F7800.000
G1 Z0.650 F7800.000
G1 E3.00000 F2400.00000
G1 X38.457 Y21.407 E3.68075 F300.000
G1 X43.651 Y16.213 E4.10290
G1 X52.027 Y24.589 E4.78365
G1 X46.875 Y29.741 E5.20234
G1 X46.833 Y30.317 F7800.000
G1 X37.924 Y21.407 E5.78253 F600.000
G1 X43.651 Y15.680 E6.15550
G1 X52.561 Y24.589 E6.73569
G1 X46.875 Y30.274 E7.10590
G1 X46.730 Y29.930 F7800.000
G1 E4.10590 F2400.00000
G92 E0
G1 Z0.850 F7800.000
G1 X45.620 Y28.332 F7800.000
G1 Z0.650 F7800.000
G1 E3.00000 F2400.00000
G1 X50.561 Y23.390 E3.40163 F900.000
G1 X49.377 Y22.205 E3.49792
G1 X44.435 Y27.147 E3.89954
G1 X43.250 Y25.962 E3.99583
G1 X48.192 Y21.021 E4.39746
G1 X47.007 Y19.836 E4.49375
G1 X42.066 Y24.777 E4.89538
G1 X40.881 Y23.593 E4.99167
G1 X45.822 Y18.651 E5.39330
G1 X44.638 Y17.466 E5.48959
G1 X39.696 Y22.408 E5.89121
G1 E2.89121 F2400.00000
G92 E0
G1 Z0.850 F7800.000
G1 X29.753 Y46.863 F7800.000
G1 Z0.650 F7800.000
G1 E3.00000 F2400.00000
G1 X24.559 Y52.057 E3.42214 F300.000
G1 X16.183 Y43.681 E4.10290
G1 X21.377 Y38.487 E4.52504
G1 X29.711 Y46.821 E5.20234
G1 X30.287 Y46.863 F7800.000
G1 X24.559 Y52.591 E5.57532 F600.000
G1 X15.650 Y43.681 E6.15550
G1 X21.377 Y37.953 E6.52848
G1 X30.244 Y46.821 E7.10590
G1 X29.900 Y46.967 F7800.000
G1 E4.10590 F2400.00000
G92 E0
G1 Z0.850 F7800.000
G1 X23.346 Y50.606 F7800.000
G1 Z0.650 F7800.000
G1 E3.00000 F2400.00000
G1 X28.288 Y45.664 E3.40163 F900.000
G1 X27.103 Y44.479 E3.49792
G1 X22.161 Y49.421 E3.89954
G1 X20.976 Y48.236 E3.99584
G1 X25.918 Y43.294 E4.39746
G1 X24.733 Y42.110 E4.49375
G1 X19.792 Y47.051 E4.89538
G1 X18.607 Y45.867 E4.99167
G1 X23.549 Y40.925 E5.39330
G1 X22.364 Y39.740 E5.48959
G1 X17.422 Y44.682 E5.89121
G1 Z0.950 F7800.000
G1 E2.89121 F2400.00000
G92 E0
G1 Z1.150 F7800.000
G1 X24.223 Y53.732 F7800.000
G1 Z0.950 F7800.000
G1 E3.00000 F2400.00000
G1 X23.642 Y53.732 E3.02677 F900.000
G1 X26.477 Y56.567 E3.21143
G1 X27.059 Y56.567 E3.23820
G1 X24.895 Y53.732 F7800.000
G1 X28.164 Y53.732 E3.38870 F900.000
G1 X27.731 Y50.896 E3.52078
G1 X30.999 Y50.896 E3.67129
G1 X30.566 Y48.060 E3.80337
G1 X33.543 Y48.060 E3.94041
G1 X34.034 Y48.207 F7800.000
G1 X31.135 Y45.307 E4.12920 F900.000
G1 X30.499 Y45.944 E4.17064
G1 X31.418 Y46.863 E4.23050
G1 X24.559 Y53.722 E4.67715
G1 X23.640 Y52.803 E4.73701
G1 X23.004 Y53.439 E4.77845
G1 X26.822 Y57.258 E5.02710
G1 X27.458 Y56.621 E5.06854
G1 X26.539 Y55.702 E5.12840
G1 X34.034 Y48.207 E5.61649
G1 E2.61649 F2400.00000
G92 E0
G1 Z1.150 F7800.000
G1 X45.742 Y31.047 F7800.000
G1 Z0.950 F7800.000
G1 E3.00000 F2400.00000
G1 X46.086 Y31.047 E3.01585 F900.000
G1 X47.580 Y31.047 F7800.000
G1 X50.849 Y31.047 E3.16635 F900.000
G1 X50.416 Y28.211 E3.29843
G1 X53.684 Y28.211 E3.44893
G1 X53.251 Y25.375 E3.58101
G1 X55.405 Y25.375 E3.68019
G1 X57.228 Y26.852 F7800.000
G1 X53.409 Y23.034 E3.92884 F900.000
G1 X52.773 Y23.670 E3.97029
G1 X53.692 Y24.589 E4.03015
G1 X46.833 Y31.448 E4.47680
G1 X45.914 Y30.529 E4.53666
G1 X45.277 Y31.165 E4.57810
G1 X48.177 Y34.064 E4.76689
G1 X55.672 Y26.569 E5.25498
G1 X56.591 Y27.488 E5.31484
G1 X57.228 Y26.852 E5.35628
G1 Z0.950 F7800.000
G1 E2.35628 F2400.00000
G92 E0
G1 Z1.150 F7800.000
G1 X28.204 Y55.702 F7800.000
G1 Z0.950 F7800.000
G1 E3.00000 F2400.00000
G1 X55.672 Y28.234 E5.23243 F1200.000
G1 X56.977 Y29.539 E5.33849
G1 X29.509 Y57.007 E7.57091
G1 X28.246 Y55.744 E7.67353
G1 X27.670 Y55.702 F7800.000
G1 X55.672 Y27.700 E9.49696 F600.000
G1 X57.510 Y29.539 E9.61668
G1 X29.509 Y57.540 E11.44012
G1 X27.713 Y55.744 E11.55707
G1 X28.057 Y55.598 F7800.000
G1 X29.420 Y54.753 F7800.000
G1 X30.472 Y55.805 E11.64262 F900.000
G1 X31.657 Y54.621 E11.73891
G1 X30.604 Y53.568 E11.82446
G1 X31.789 Y52.383 E11.92075
G1 X32.842 Y53.436 E12.00629
G1 X34.026 Y52.251 E12.10258
G1 X32.974 Y51.199 E12.18813
G1 X34.159 Y50.014 E12.28442
G1 X35.211 Y51.066 E12.36996
G1 X36.396 Y49.882 E12.46625
G1 X35.343 Y48.829 E12.55180
G1 X36.528 Y47.644 E12.64809
G1 X37.581 Y48.697 E12.73364
G1 X38.765 Y47.512 E12.82993
G1 X37.713 Y46.459 E12.91547
G1 X38.898 Y45.275 E13.01176
G1 X39.950 Y46.327 E13.09731
G1 X41.135 Y45.143 E13.19360
G1 X40.082 Y44.090 E13.27914
G1 X41.267 Y42.905 E13.37543
G1 X42.320 Y43.958 E13.46098
G1 X43.505 Y42.773 E13.55727
G1 X42.452 Y41.720 E13.64282
G1 X43.637 Y40.536 E13.73911
G1 X44.689 Y41.588 E13.82465
G1 X45.874 Y40.403 E13.92094
G1 X44.822 Y39.351 E14.00649
G1 X46.006 Y38.166 E14.10278
G1 X47.059 Y39.219 E14.18832
G1 X48.244 Y38.034 E14.28461
G1 X47.191 Y36.981 E14.37016
G1 X48.376 Y35.797 E14.46645
G1 X49.428 Y36.849 E14.55200
G1 X50.613 Y35.664 E14.64829
G1 X49.561 Y34.612 E14.73383
G1 X50.745 Y33.427 E14.83012
G1 X51.798 Y34.480 E14.91567
G1 X52.983 Y33.295 E15.01196
G1 X51.930 Y32.242 E15.09750
G1 X53.115 Y31.058 E15.19379
G1 X54.167 Y32.110 E15.27934
G1 X55.352 Y30.925 E15.37563
G1 X54.300 Y29.873 E15.46118
G1 X55.484 Y28.688 E15.55747
G1 X56.537 Y29.741 E15.64301
G1 E12.64301 F2400.00000
G92 E0
G1 Z1.150 F7800.000
G1 X46.833 Y29.783 F7800.000
G1 Z0.950 F7800.000
G1 E3.00000 F2400.00000
G1 X38.457 Y21.407 E3.68075 F300.000
G1 X43.651 Y16.213 E4.10290
G1 X52.027 Y24.589 E4.78365
G1 X46.875 Y29.741 E5.20234
G1 X46.833 Y30.317 F7800.000
G1 X37.924 Y21.407 E5.78253 F600.000
G1 X43.651 Y15.680 E6.15550
G1 X52.561 Y24.589 E6.73569
G1 X46.875 Y30.274 E7.10590
G1 X46.730 Y29.930 F7800.000
G1 E4.10590 F2400.00000
G92 E0
G1 Z1.150 F7800.000
G1 X48.033 Y28.345 F7800.000
G1 Z0.950 F7800.000
G1 E3.00000 F2400.00000
G1 X39.909 Y20.221 E3.66024 F900.000
G1 X41.094 Y19.037 E3.75653
G1 X49.218 Y27.160 E4.41677
G1 X50.402 Y25.976 E4.51306
G1 X42.279 Y17.852 E5.17330
G1 X43.464 Y16.667 E5.26959
G1 X51.587 Y24.791 E5.92983
G1 E2.92983 F2400.00000
G92 E0
G1 Z1.150 F7800.000
G1 X29.753 Y46.863 F7800.000
G1 Z0.950 F7800.000
G1 E3.00000 F2400.00000
G1 X24.559 Y52.057 E3.42214 F300.000
G1 X16.183 Y43.681 E4.10290
G1 X21.377 Y38.487 E4.52504
G1 X29.711 Y46.821 E5.20234
G1 X30.287 Y46.863 F7800.000
G1 X24.559 Y52.591 E5.57532 F600.000
G1 X15.650 Y43.681 E6.15550
G1 X21.377 Y37.953 E6.52848
G1 X30.244 Y46.821 E7.10590
G1 X29.900 Y46.967 F7800.000
G1 X29.077 Y47.301 F7800.000
G1 X20.953 Y39.178 E7.76614 F900.000
G1 X19.768 Y40.363 E7.86243
G1 X27.892 Y48.486 E8.52267
G1 X26.707 Y49.671 E8.61896
G1 X18.583 Y41.547 E9.27920
G1 X17.399 Y42.732 E9.37549
G1 X25.522 Y50.856 E10.03573
M106 S114.75
G1 Z1.250 F7800.000
G1 E7.03573 F2400.00000
G92 E0
G1 Z1.450 F7800.000
G1 X28.204 Y55.702 F7800.000
G1 Z1.250 F7800.000
G1 E3.00000 F2400.00000
G1 X55.672 Y28.234 E5.23243 F1200.000
G1 X56.977 Y29.539 E5.33849
G1 X29.509 Y57.007 E7.57091
G1 X28.246 Y55.744 E7.67353
G1 X27.670 Y55.702 F7800.000
G1 X55.672 Y27.700 E9.49696 F600.000
G1 X57.510 Y29.539 E9.61668
G1 X29.509 Y57.540 E11.44012
G1 X27.713 Y55.744 E11.55707
G1 X28.057 Y55.598 F7800.000
G1 X29.270 Y56.529 F7800.000
G1 X56.485 Y29.314 E13.76899 F900.000
G1 E10.76899 F2400.00000
G92 E0
G1 Z1.450 F7800.000
G1 X46.833 Y29.783 F7800.000
G1 Z1.250 F7800.000
G1 E3.00000 F2400.00000
G1 X38.457 Y21.407 E3.68075 F300.000
G1 X43.651 Y16.213 E4.10290
G1 X52.027 Y24.589 E4.78365
G1 X46.875 Y29.741 E5.20234
G1 X46.833 Y30.317 F7800.000
G1 X37.924 Y21.407 E5.78253 F600.000
G1 X43.651 Y15.680 E6.15550
G1 X52.561 Y24.589 E6.73569
G1 X46.875 Y30.274 E7.10590
G1 X46.730 Y29.930 F7800.000
G1 E4.10590 F2400.00000
G92 E0
G1 Z1.450 F7800.000
G1 X45.620 Y28.332 F7800.000
G1 Z1.250 F7800.000
G1 E3.00000 F2400.00000
G1 X50.561 Y23.390 E3.40163 F900.000
G1 X49.377 Y22.205 E3.49792
G1 X44.435 Y27.147 E3.89954
G1 X43.250 Y25.962 E3.99584
G1 X48.192 Y21.021 E4.39746
G1 X47.007 Y19.836 E4.49375
G1 X42.066 Y24.777 E4.89538
G1 X40.881 Y23.593 E4.99167
G1 X45.822 Y18.651 E5.39330
G1 X44.638 Y17.466 E5.48959
G1 X39.696 Y22.408 E5.89121
G1 E2.89121 F2400.00000
G92 E0
G1 Z1.450 F7800.000
G1 X29.753 Y46.863 F7800.000
G1 Z1.250 F7800.000
G1 E3.00000 F2400.00000
G1 X24.559 Y52.057 E3.42214 F300.000
G1 X16.183 Y43.681 E4.10290
G1 X21.377 Y38.487 E4.52504
G1 X29.711 Y46.821 E5.20234
G1 X30.287 Y46.863 F7800.000
G1 X24.559 Y52.591 E5.57532 F600.000
G1 X15.650 Y43.681 E6.15550
G1 X21.377 Y37.953 E6.52848
G1 X30.244 Y46.821 E7.10590
G1 X29.900 Y46.967 F7800.000
G1 E4.10590 F2400.00000
G92 E0
G1 Z1.450 F7800.000
G1 X23.346 Y50.606 F7800.000
G1 Z1.250 F7800.000
G1 E3.00000 F2400.00000
G1 X28.288 Y45.664 E3.40163 F900.000
G1 X27.103 Y44.479 E3.49792
G1 X22.161 Y49.421 E3.89954
G1 X20.976 Y48.236 E3.99584
G1 X25.918 Y43.294 E4.39746
G1 X24.733 Y42.110 E4.49375
G1 X19.792 Y47.051 E4.89538
G1 X18.607 Y45.867 E4.99167
G1 X23.549 Y40.925 E5.39330
G1 X22.364 Y39.740 E5.48959
G1 X17.422 Y44.682 E5.89121
G1 Z1.250 F7800.000
G1 E2.89121 F2400.00000
G92 E0
G1 Z1.450 F7800.000
G1 X24.556 Y54.030 F7800.000
G1 Z1.250 F7800.000
G1 E3.00000 F2400.00000
G1 X24.339 Y54.464 E3.02231 F900.000
G1 X26.452 Y56.576 E3.15990
G1 X26.669 Y56.143 E3.18221
G1 E0.18221 F2400.00000
G92 E0
G1 Z1.450 F7800.000
G1 X27.647 Y54.193 F7800.000
G1 Z1.250 F7800.000
G1 E3.00000 F2400.00000
G1 X30.819 Y47.864 E3.32598 F900.000
G1 X31.457 Y46.591 F7800.000
G1 X31.674 Y46.157 E3.34830 F900.000
G1 X34.034 Y48.207 F7800.000
G1 X31.135 Y45.307 E3.53709 F900.000
G1 X30.499 Y45.944 E3.57853
G1 X31.418 Y46.863 E3.63839
G1 X24.559 Y53.722 E4.08504
G1 X23.640 Y52.803 E4.14490
G1 X23.004 Y53.439 E4.18634
G1 X26.822 Y57.258 E4.43499
G1 X27.458 Y56.621 E4.47643
G1 X26.539 Y55.702 E4.53629
G1 X34.034 Y48.207 E5.02438
G1 E2.02438 F2400.00000
G92 E0
G1 Z1.450 F7800.000
G1 X47.664 Y33.240 F7800.000
G1 Z1.250 F7800.000
