;Generated with Cura_SteamEngine 15.05
; Default start code
G28 ; Home extruder
G1 Z15 F100
M107 ; Turn off fan
G90 ; Absolute positioning
M82 ; Extruder in absolute mode
M190 S60
; Activate all used extruder
M104 T0 S230
G92 E0 ; Reset extruder position
; Wait for all used extruders to reach temperature
M109 T0 S230
; Set max acceleration values
;M201 X1000 Y1000 Z1000 E5000
; Advanced variables: S=Min feedrate (mm/s), T=Min travel feedrate (mm/s), B=minimum segment time (ms), X=maximum XY jerk (mm/s), Z=maximum Z jerk (mm/s), E=maximum E jerk (mm/s)
;M205 S0.00 T0.00 B20000 X15.00 Z0.40 E5.00
;Layer count: 200
;LAYER:0
M107
G0 F5700 X74.775 Y89.775 Z0.300
;TYPE:SKIRT
G1 F1500 X225.225 Y89.775 E8.44423
G1 X225.225 Y210.225 E15.20466
G1 X74.775 Y210.225 E23.64889
G1 X74.775 Y89.775 E30.40933
G1 F2400 E26.40933
G0 F5700 X90.675 Y105.675
;TYPE:WALL-INNER
G1 F2400 E30.40933
G1 F1500 X209.325 Y105.675 E37.06873
G1 X209.325 Y194.325 E42.04434
G1 X90.675 Y194.325 E48.70375
G1 X90.675 Y105.675 E53.67936
G0 F5700 X90.225 Y105.225
;TYPE:WALL-OUTER
G1 F1500 X209.775 Y105.225 E60.38928
G1 X209.775 Y194.775 E65.41541
G1 X90.225 Y194.775 E72.12533
G1 X90.225 Y105.225 E77.15146
G0 F5700 X90.877 Y105.832
;TYPE:SKIN
G1 F1500 X179.211 Y194.166 E84.16295
G0 F5700 X179.847 Y194.166
G1 F1500 X91.513 Y105.832 E91.17445
G0 F5700 X92.150 Y105.832
G1 F1500 X180.484 Y194.166 E98.18594
G0 F5700 X181.120 Y194.166
G1 F1500 X92.786 Y105.832 E105.19744
G0 F5700 X93.422 Y105.832
G1 F1500 X181.756 Y194.166 E112.20894
G0 F5700 X182.393 Y194.166
G1 F1500 X94.059 Y105.832 E119.22043
G0 F5700 X94.695 Y105.832
G1 F1500 X183.029 Y194.166 E126.23193
G0 F5700 X183.666 Y194.166
G1 F1500 X95.332 Y105.832 E133.24342
G0 F5700 X95.968 Y105.832
G1 F1500 X184.302 Y194.166 E140.25492
G0 F5700 X184.938 Y194.166
G1 F1500 X96.604 Y105.832 E147.26642
G0 F5700 X97.241 Y105.832
G1 F1500 X185.575 Y194.166 E154.27791
G0 F5700 X186.211 Y194.166
G1 F1500 X97.877 Y105.832 E161.28941
G0 F5700 X98.514 Y105.832
G1 F1500 X186.848 Y194.166 E168.30090
G0 F5700 X187.484 Y194.166
G1 F1500 X99.150 Y105.832 E175.31240
G0 F5700 X99.786 Y105.832
G1 F1500 X188.120 Y194.166 E182.32390
G0 F5700 X188.757 Y194.166
G1 F1500 X100.423 Y105.832 E189.33539
G0 F5700 X101.059 Y105.832
G1 F1500 X189.393 Y194.166 E196.34689
G0 F5700 X190.029 Y194.166
G1 F1500 X101.696 Y105.832 E203.35834
G0 F5700 X102.332 Y105.832
G1 F1500 X190.666 Y194.166 E210.36984
G0 F5700 X191.302 Y194.166
G1 F1500 X102.968 Y105.832 E217.38133
G0 F5700 X103.605 Y105.832
G1 F1500 X191.939 Y194.166 E224.39283
G0 F5700 X192.575 Y194.166
G1 F1500 X104.241 Y105.832 E231.40433
G0 F5700 X104.878 Y105.832
G1 F1500 X193.211 Y194.166 E238.41578
G0 F5700 X193.848 Y194.166
G1 F1500 X105.514 Y105.832 E245.42728
G0 F5700 X106.150 Y105.832
G1 F1500 X194.484 Y194.166 E252.43877
G0 F5700 X195.121 Y194.166
G1 F1500 X106.787 Y105.832 E259.45027
G0 F5700 X107.423 Y105.832
G1 F1500 X195.757 Y194.166 E266.46177
G0 F5700 X196.393 Y194.166
G1 F1500 X108.060 Y105.832 E273.47322
G0 F5700 X108.696 Y105.832
G1 F1500 X197.030 Y194.166 E280.48472
G0 F5700 X197.666 Y194.166
G1 F1500 X109.332 Y105.832 E287.49621
G0 F5700 X109.969 Y105.832
G1 F1500 X198.303 Y194.166 E294.50771
G0 F5700 X198.939 Y194.166
G1 F1500 X110.605 Y105.832 E301.51921
G0 F5700 X111.242 Y105.832
G1 F1500 X199.575 Y194.166 E308.53066
G0 F5700 X200.212 Y194.166
G1 F1500 X111.878 Y105.832 E315.54216
G0 F5700 X112.514 Y105.832
G1 F1500 X200.848 Y194.166 E322.55365
G0 F5700 X201.485 Y194.166
G1 F1500 X113.151 Y105.832 E329.56515
G0 F5700 X113.787 Y105.832
G1 F1500 X202.121 Y194.166 E336.57665
G0 F5700 X202.757 Y194.166
G1 F1500 X114.424 Y105.832 E343.58810
G0 F5700 X115.060 Y105.832
G1 F1500 X203.394 Y194.166 E350.59960
G0 F5700 X204.030 Y194.166
G1 F1500 X115.696 Y105.832 E357.61109
G0 F5700 X116.333 Y105.832
G1 F1500 X204.667 Y194.166 E364.62259
G0 F5700 X205.303 Y194.166
G1 F1500 X116.969 Y105.832 E371.63409
G0 F5700 X117.605 Y105.832
G1 F1500 X205.939 Y194.166 E378.64558
G0 F5700 X206.576 Y194.166
G1 F1500 X118.242 Y105.832 E385.65708
G0 F5700 X118.878 Y105.832
G1 F1500 X207.212 Y194.166 E392.66857
G0 F5700 X207.849 Y194.166
G1 F1500 X119.515 Y105.832 E399.68007
G0 F5700 X120.151 Y105.832
G1 F1500 X208.485 Y194.166 E406.69157
G0 F5700 X209.121 Y194.166
G1 F1500 X120.787 Y105.832 E413.70306
G0 F5700 X121.424 Y105.832
G1 F1500 X209.166 Y193.574 E420.66757
G0 F5700 X209.166 Y192.938
G1 F1500 X122.060 Y105.832 E427.58159
G0 F5700 X122.697 Y105.832
G1 F1500 X209.166 Y192.301 E434.44505
G0 F5700 X209.166 Y191.665
G1 F1500 X123.333 Y105.832 E441.25803
G0 F5700 X123.969 Y105.832
G1 F1500 X209.166 Y191.029 E448.02053
G0 F5700 X209.166 Y190.392
G1 F1500 X124.606 Y105.832 E454.73246
G0 F5700 X125.242 Y105.832
G1 F1500 X209.166 Y189.756 E461.39392
G0 F5700 X209.166 Y189.119
G1 F1500 X125.879 Y105.832 E468.00481
G0 F5700 X126.515 Y105.832
G1 F1500 X209.166 Y188.483 E474.56522
G0 F5700 X209.166 Y187.847
G1 F1500 X127.151 Y105.832 E481.07514
G0 F5700 X127.788 Y105.832
G1 F1500 X209.166 Y187.210 E487.53451
G0 F5700 X209.166 Y186.574
G1 F1500 X128.424 Y105.832 E493.94339
G0 F5700 X129.061 Y105.832
G1 F1500 X209.166 Y185.937 E500.30171
G0 F5700 X209.166 Y185.301
G1 F1500 X129.697 Y105.832 E506.60955
G0 F5700 X130.333 Y105.832
G1 F1500 X209.166 Y184.665 E512.86690
G0 F5700 X209.166 Y184.028
G1 F1500 X130.970 Y105.832 E519.07370
G0 F5700 X131.606 Y105.832
G1 F1500 X209.166 Y183.392 E525.23001
G0 F5700 X209.166 Y182.755
G1 F1500 X132.243 Y105.832 E531.33576
G0 F5700 X132.879 Y105.832
G1 F1500 X209.166 Y182.119 E537.39103
G0 F5700 X209.166 Y181.483
G1 F1500 X133.515 Y105.832 E543.39581
G0 F5700 X134.152 Y105.832
G1 F1500 X209.166 Y180.846 E549.35004
G0 F5700 X209.166 Y180.210
G1 F1500 X134.788 Y105.832 E555.25378
G0 F5700 X135.425 Y105.832
G1 F1500 X209.166 Y179.574 E561.10700
G0 F5700 X209.166 Y178.937
G1 F1500 X136.061 Y105.832 E566.90969
G0 F5700 X136.697 Y105.832
G1 F1500 X209.166 Y178.301 E572.66191
G0 F5700 X209.166 Y177.664
G1 F1500 X137.334 Y105.832 E578.36356
G0 F5700 X137.970 Y105.832
G1 F1500 X209.166 Y177.028 E584.01473
G0 F5700 X209.166 Y176.392
G1 F1500 X138.607 Y105.832 E589.61538
G0 F5700 X139.243 Y105.832
G1 F1500 X209.166 Y175.755 E595.16550
G0 F5700 X209.166 Y175.119
G1 F1500 X139.879 Y105.832 E600.66515
G0 F5700 X140.516 Y105.832
G1 F1500 X209.166 Y174.482 E606.11423
G0 F5700 X209.166 Y173.846
G1 F1500 X141.152 Y105.832 E611.51283
G0 F5700 X141.789 Y105.832
G1 F1500 X209.166 Y173.210 E616.86091
G0 F5700 X209.166 Y172.573
G1 F1500 X142.425 Y105.832 E622.15846
G0 F5700 X143.061 Y105.832
G1 F1500 X209.166 Y171.937 E627.40553
G0 F5700 X209.166 Y171.300
G1 F1500 X143.698 Y105.832 E632.60204
G0 F5700 X144.334 Y105.832
G1 F1500 X209.166 Y170.664 E637.74807
G0 F5700 X209.166 Y170.028
G1 F1500 X144.971 Y105.832 E642.84358
G0 F5700 X145.607 Y105.832
G1 F1500 X209.166 Y169.391 E647.88856
G0 F5700 X209.166 Y168.755
G1 F1500 X146.243 Y105.832 E652.88307
G0 F5700 X146.880 Y105.832
G1 F1500 X209.166 Y168.118 E657.82701
G0 F5700 X209.166 Y167.482
G1 F1500 X147.516 Y105.832 E662.72046
G0 F5700 X148.153 Y105.832
G1 F1500 X209.166 Y166.846 E667.56340
G0 F5700 X209.166 Y166.209
G1 F1500 X148.789 Y105.832 E672.35581
G0 F5700 X149.425 Y105.832
G1 F1500 X209.166 Y165.573 E677.09775
G0 F5700 X209.166 Y164.936
G1 F1500 X150.062 Y105.832 E681.78912
G0 F5700 X150.698 Y105.832
G1 F1500 X209.166 Y164.300 E686.43000
G0 F5700 X209.166 Y163.664
G1 F1500 X151.334 Y105.832 E691.02041
G0 F5700 X151.971 Y105.832
G1 F1500 X209.166 Y163.027 E695.56025
G0 F5700 X209.166 Y162.391
G1 F1500 X152.607 Y105.832 E700.04961
G0 F5700 X153.244 Y105.832
G1 F1500 X209.166 Y161.754 E704.48841
G0 F5700 X209.166 Y161.118
G1 F1500 X153.880 Y105.832 E708.87673
G0 F5700 X154.516 Y105.832
G1 F1500 X209.166 Y160.482 E713.21456
G0 F5700 X209.166 Y159.845
G1 F1500 X155.153 Y105.832 E717.50183
G0 F5700 X155.789 Y105.832
G1 F1500 X209.166 Y159.209 E721.73862
G0 F5700 X209.166 Y158.572
G1 F1500 X156.426 Y105.832 E725.92485
G0 F5700 X157.062 Y105.832
G1 F1500 X209.166 Y157.936 E730.06060
G0 F5700 X209.166 Y157.300
G1 F1500 X157.698 Y105.832 E734.14586
G0 F5700 X158.335 Y105.832
G1 F1500 X209.166 Y156.663 E738.18056
G0 F5700 X209.166 Y156.027
G1 F1500 X158.971 Y105.832 E742.16478
G0 F5700 X159.608 Y105.832
G1 F1500 X209.166 Y155.390 E746.09844
G0 F5700 X209.166 Y154.754
G1 F1500 X160.244 Y105.832 E749.98162
G0 F5700 X160.880 Y105.832
G1 F1500 X209.166 Y154.118 E753.81431
G0 F5700 X209.166 Y153.481
G1 F1500 X161.517 Y105.832 E757.59644
G0 F5700 X162.153 Y105.832
G1 F1500 X209.166 Y152.845 E761.32809
G0 F5700 X209.166 Y152.208
G1 F1500 X162.790 Y105.832 E765.00918
G0 F5700 X163.426 Y105.832
G1 F1500 X209.166 Y151.572 E768.63978
G0 F5700 X209.166 Y150.936
G1 F1500 X164.062 Y105.832 E772.21990
G0 F5700 X164.699 Y105.832
G1 F1500 X209.166 Y150.299 E775.74946
G0 F5700 X209.166 Y149.663
G1 F1500 X165.335 Y105.832 E779.22854
G0 F5700 X165.972 Y105.832
G1 F1500 X209.166 Y149.026 E782.65706
G0 F5700 X209.166 Y148.390
G1 F1500 X166.608 Y105.832 E786.03509
G0 F5700 X167.244 Y105.832
G1 F1500 X209.166 Y147.754 E789.36264
G0 F5700 X209.166 Y147.117
G1 F1500 X167.881 Y105.832 E792.63963
G0 F5700 X168.517 Y105.832
G1 F1500 X209.166 Y146.481 E795.86614
G0 F5700 X209.166 Y145.845
G1 F1500 X169.154 Y105.832 E799.04213
G0 F5700 X169.790 Y105.832
G1 F1500 X209.166 Y145.208 E802.16759
G0 F5700 X209.166 Y144.572
G1 F1500 X170.426 Y105.832 E805.24257
G0 F5700 X171.063 Y105.832
G1 F1500 X209.166 Y143.935 E808.26699
G0 F5700 X209.166 Y143.299
G1 F1500 X171.699 Y105.832 E811.24092
G0 F5700 X172.336 Y105.832
G1 F1500 X209.166 Y142.663 E814.16434
G0 F5700 X209.166 Y142.026
G1 F1500 X172.972 Y105.832 E817.03723
G0 F5700 X173.608 Y105.832
G1 F1500 X209.166 Y141.390 E819.85964
G0 F5700 X209.166 Y140.753
G1 F1500 X174.245 Y105.832 E822.63149
G0 F5700 X174.881 Y105.832
G1 F1500 X209.166 Y140.117 E825.35286
G0 F5700 X209.166 Y139.481
G1 F1500 X175.518 Y105.832 E828.02370
G0 F5700 X176.154 Y105.832
G1 F1500 X209.166 Y138.844 E830.64402
G0 F5700 X209.166 Y138.208
G1 F1500 X176.790 Y105.832 E833.21386
G0 F5700 X177.427 Y105.832
G1 F1500 X209.166 Y137.571 E835.73314
G0 F5700 X209.166 Y136.935
G1 F1500 X178.063 Y105.832 E838.20193
G0 F5700 X178.700 Y105.832
G1 F1500 X209.166 Y136.299 E840.62021
G0 F5700 X209.166 Y135.662
G1 F1500 X179.336 Y105.832 E842.98796
G0 F5700 X179.972 Y105.832
G1 F1500 X209.166 Y135.026 E845.30523
G0 F5700 X209.166 Y134.389
G1 F1500 X180.609 Y105.832 E847.57193
G0 F5700 X181.245 Y105.832
G1 F1500 X209.166 Y133.753 E849.78816
G0 F5700 X209.166 Y133.117
G1 F1500 X181.882 Y105.832 E851.95386
G0 F5700 X182.518 Y105.832
G1 F1500 X209.166 Y132.480 E854.06904
G0 F5700 X209.166 Y131.844
G1 F1500 X183.154 Y105.832 E856.13374
G0 F5700 X183.791 Y105.832
G1 F1500 X209.166 Y131.207 E858.14788
G0 F5700 X209.166 Y130.571
G1 F1500 X184.427 Y105.832 E860.11153
G0 F5700 X185.063 Y105.832
G1 F1500 X209.166 Y129.935 E862.02470
G0 F5700 X209.166 Y129.298
G1 F1500 X185.700 Y105.832 E863.88731
G0 F5700 X186.336 Y105.832
G1 F1500 X209.166 Y128.662 E865.69944
G0 F5700 X209.166 Y128.025
G1 F1500 X186.973 Y105.832 E867.46100
G0 F5700 X187.609 Y105.832
G1 F1500 X209.166 Y127.389 E869.17209
G0 F5700 X209.166 Y126.753
G1 F1500 X188.245 Y105.832 E870.83269
G0 F5700 X188.882 Y105.832
G1 F1500 X209.166 Y126.116 E872.44273
G0 F5700 X209.166 Y125.480
G1 F1500 X189.518 Y105.832 E874.00228
G0 F5700 X190.155 Y105.832
G1 F1500 X209.166 Y124.843 E875.51128
G0 F5700 X209.166 Y124.207
G1 F1500 X190.791 Y105.832 E876.96979
G0 F5700 X191.427 Y105.832
G1 F1500 X209.166 Y123.571 E878.37782
G0 F5700 X209.166 Y122.934
G1 F1500 X192.064 Y105.832 E879.73529
G0 F5700 X192.700 Y105.832
G1 F1500 X209.166 Y122.298 E881.04227
G0 F5700 X209.166 Y121.661
G1 F1500 X193.337 Y105.832 E882.29870
G0 F5700 X193.973 Y105.832
G1 F1500 X209.166 Y121.025 E883.50464
G0 F5700 X209.166 Y120.389
G1 F1500 X194.609 Y105.832 E884.66010
G0 F5700 X195.246 Y105.832
G1 F1500 X209.166 Y119.752 E885.76500
G0 F5700 X209.166 Y119.116
G1 F1500 X195.882 Y105.832 E886.81941
G0 F5700 X196.519 Y105.832
G1 F1500 X209.166 Y118.479 E887.82327
G0 F5700 X209.166 Y117.843
G1 F1500 X197.155 Y105.832 E888.77664
G0 F5700 X197.791 Y105.832
G1 F1500 X209.166 Y117.207 E889.67952
G0 F5700 X209.166 Y116.570
G1 F1500 X198.428 Y105.832 E890.53185
G0 F5700 X199.064 Y105.832
G1 F1500 X209.166 Y115.934 E891.33370
G0 F5700 X209.166 Y115.298
G1 F1500 X199.701 Y105.832 E892.08502
G0 F5700 X200.337 Y105.832
G1 F1500 X209.166 Y114.661 E892.78582
G0 F5700 X209.166 Y114.025
G1 F1500 X200.973 Y105.832 E893.43614
G0 F5700 X201.610 Y105.832
G1 F1500 X209.166 Y113.388 E894.03589
G0 F5700 X209.166 Y112.752
G1 F1500 X202.246 Y105.832 E894.58517
G0 F5700 X202.883 Y105.832
G1 F1500 X209.166 Y112.116 E895.08392
G0 F5700 X209.166 Y111.479
G1 F1500 X203.519 Y105.832 E895.53215
G0 F5700 X204.155 Y105.832
G1 F1500 X209.166 Y110.843 E895.92990
G0 F5700 X209.166 Y110.206
G1 F1500 X204.792 Y105.832 E896.27708
G0 F5700 X205.428 Y105.832
G1 F1500 X209.166 Y109.570 E896.57378
G0 F5700 X209.166 Y108.934
G1 F1500 X206.065 Y105.832 E896.81997
G0 F5700 X206.701 Y105.832
G1 F1500 X209.166 Y108.297 E897.01562
G0 F5700 X209.166 Y107.661
G1 F1500 X207.337 Y105.832 E897.16080
G0 F5700 X207.974 Y105.832
G1 F1500 X209.166 Y107.024 E897.25542
G0 F5700 X209.166 Y106.388
G1 F1500 X208.610 Y105.832 E897.29955
G1 F2400 E893.29955
G0 F5700 X178.574 Y194.166
G1 F2400 E897.29955
G1 F1500 X90.832 Y106.424 E904.26405
G0 F5700 X90.832 Y107.060
G1 F1500 X177.938 Y194.166 E911.17808
G0 F5700 X177.302 Y194.166
G1 F1500 X90.832 Y107.697 E918.04158
G0 F5700 X90.832 Y108.333
G1 F1500 X176.665 Y194.166 E924.85456
G0 F5700 X176.029 Y194.166
G1 F1500 X90.832 Y108.970 E931.61702
G0 F5700 X90.832 Y109.606
G1 F1500 X175.392 Y194.166 E938.32895
G0 F5700 X174.756 Y194.166
G1 F1500 X90.832 Y110.242 E944.99040
G0 F5700 X90.832 Y110.879
G1 F1500 X174.120 Y194.166 E951.60134
G0 F5700 X173.483 Y194.166
G1 F1500 X90.832 Y111.515 E958.16174
G0 F5700 X90.832 Y112.152
G1 F1500 X172.847 Y194.166 E964.67163
G0 F5700 X172.210 Y194.166
G1 F1500 X90.832 Y112.788 E971.13100
G0 F5700 X90.832 Y113.424
G1 F1500 X171.574 Y194.166 E977.53988
G0 F5700 X170.938 Y194.166
G1 F1500 X90.832 Y114.061 E983.89824
G0 F5700 X90.832 Y114.697
G1 F1500 X170.301 Y194.166 E990.20608
G0 F5700 X169.665 Y194.166
G1 F1500 X90.832 Y115.334 E996.46339
G0 F5700 X90.832 Y115.970
G1 F1500 X169.028 Y194.166 E1002.67019
G0 F5700 X168.392 Y194.166
G1 F1500 X90.832 Y116.606 E1008.82650
G0 F5700 X90.832 Y117.243
G1 F1500 X167.756 Y194.166 E1014.93229
G0 F5700 X167.119 Y194.166
G1 F1500 X90.832 Y117.879 E1020.98755
G0 F5700 X90.832 Y118.516
G1 F1500 X166.483 Y194.166 E1026.99230
G0 F5700 X165.846 Y194.166
G1 F1500 X90.832 Y119.152 E1032.94652
G0 F5700 X90.832 Y119.788
G1 F1500 X165.210 Y194.166 E1038.85026
G0 F5700 X164.574 Y194.166
G1 F1500 X90.832 Y120.425 E1044.70348
G0 F5700 X90.832 Y121.061
G1 F1500 X163.937 Y194.166 E1050.50618
G0 F5700 X163.301 Y194.166
G1 F1500 X90.832 Y121.698 E1056.25835
G0 F5700 X90.832 Y122.334
G1 F1500 X162.664 Y194.166 E1061.96001
G0 F5700 X162.028 Y194.166
G1 F1500 X90.832 Y122.970 E1067.61118
G0 F5700 X90.832 Y123.607
G1 F1500 X161.392 Y194.166 E1073.21182
G0 F5700 X160.755 Y194.166
G1 F1500 X90.832 Y124.243 E1078.76195
G0 F5700 X90.832 Y124.880
G1 F1500 X160.119 Y194.166 E1084.26155
G0 F5700 X159.482 Y194.166
G1 F1500 X90.832 Y125.516 E1089.71064
G0 F5700 X90.832 Y126.152
G1 F1500 X158.846 Y194.166 E1095.10923
G0 F5700 X158.210 Y194.166
G1 F1500 X90.832 Y126.789 E1100.45731
G0 F5700 X90.832 Y127.425
G1 F1500 X157.573 Y194.166 E1105.75487
G0 F5700 X156.937 Y194.166
G1 F1500 X90.832 Y128.061 E1111.00194
G0 F5700 X90.832 Y128.698
G1 F1500 X156.301 Y194.166 E1116.19849
G0 F5700 X155.664 Y194.166
G1 F1500 X90.832 Y129.334 E1121.34452
G0 F5700 X90.832 Y129.971
G1 F1500 X155.028 Y194.166 E1126.44003
G0 F5700 X154.391 Y194.166
G1 F1500 X90.832 Y130.607 E1131.48501
G0 F5700 X90.832 Y131.243
G1 F1500 X153.755 Y194.166 E1136.47951
G0 F5700 X153.119 Y194.166
G1 F1500 X90.832 Y131.880 E1141.42349
G0 F5700 X90.832 Y132.516
