;Generated with Cura_SteamEngine 15.05
; Default start code
G28 ; Home extruder
G1 Z15 F100
M107 ; Turn off fan
G90 ; Absolute positioning
M82 ; Extruder in absolute mode
M190 S60
; Activate all used extruder
M104 T0 S230
G92 E0 ; Reset extruder position
; Wait for all used extruders to reach temperature
M109 T0 S230
; Set max acceleration values
;M201 X1000 Y1000 Z1000 E5000
; Advanced variables: S=Min feedrate (mm/s), T=Min travel feedrate (mm/s), B=minimum segment time (ms), X=maximum XY jerk (mm/s), Z=maximum Z jerk (mm/s), E=maximum E jerk (mm/s)
;M205 S0.00 T0.00 B20000 X15.00 Z0.40 E5.00
;Layer count: 77
;LAYER:0
M107
G0 F5700 X84.875 Y104.575 Z0.300
;TYPE:SKIRT
G1 F1500 X121.625 Y104.575 E2.06265
G1 X121.625 Y104.775 E2.07387
G1 X178.275 Y104.775 E5.25344
G1 X178.275 Y104.575 E5.26466
G1 X214.825 Y104.575 E7.31609
G1 X214.825 Y195.625 E12.42640
G1 X178.275 Y195.625 E14.47782
G1 X178.275 Y195.225 E14.50028
G1 X121.625 Y195.225 E17.67984
G1 X121.625 Y195.625 E17.70229
G1 X84.875 Y195.625 E19.76494
G1 X84.875 Y104.575 E24.87526
G1 F2400 E20.87526
G0 F5700 X108.351 Y120.675
;TYPE:WALL-INNER
G1 F2400 E24.87526
G1 F1500 X191.647 Y120.675 E29.55037
G1 X191.648 Y179.325 E32.84218
G1 X108.352 Y179.325 E37.51730
G1 X108.351 Y120.675 E40.80911
G1 F2400 E36.80911
G0 F5700 X146.864 Y147.719
G1 F2400 E40.80911
G1 F1500 X146.535 Y148.259 E40.84460
G1 X146.298 Y148.845 E40.88008
G1 X146.165 Y149.444 E40.91452
G1 X146.138 Y149.667 E40.92713
G1 X146.124 Y150.105 E40.95172
G1 X146.190 Y150.725 E40.98672
G1 X146.359 Y151.331 E41.02203
G1 X146.596 Y151.856 E41.05436
G1 X146.761 Y152.130 E41.07231
G1 X147.132 Y152.608 E41.10627
G1 X147.452 Y152.922 E41.13143
G1 X147.764 Y153.163 E41.15356
G1 X147.885 Y153.245 E41.16177
G1 X148.388 Y153.524 E41.19405
G1 X148.894 Y153.714 E41.22439
G1 X149.213 Y153.795 E41.24286
G1 X149.623 Y153.857 E41.26613
G1 X150.097 Y153.875 E41.29276
G1 X150.629 Y153.822 E41.32276
G1 X151.002 Y153.743 E41.34416
G1 X151.513 Y153.568 E41.37448
G1 X151.991 Y153.324 E41.40460
G1 X152.258 Y153.148 E41.42255
G1 X152.725 Y152.757 E41.45673
G1 X153.163 Y152.242 E41.49468
G1 X153.476 Y151.714 E41.52913
G1 X153.743 Y151.012 E41.57128
G1 X153.851 Y150.439 E41.60401
G1 X153.876 Y149.899 E41.63435
G1 X153.809 Y149.274 E41.66963
G1 X153.640 Y148.668 E41.70494
G1 X153.403 Y148.143 E41.73727
G1 X153.238 Y147.869 E41.75522
G1 X152.867 Y147.391 E41.78918
G1 X152.547 Y147.077 E41.81435
G1 X152.235 Y146.836 E41.83647
G1 X152.114 Y146.754 E41.84468
G1 X151.611 Y146.475 E41.87696
G1 X151.105 Y146.285 E41.90730
G1 X150.786 Y146.204 E41.92577
G1 X150.376 Y146.142 E41.94904
G1 X149.902 Y146.124 E41.97567
G1 X149.370 Y146.177 E42.00567
G1 X148.997 Y146.256 E42.02707
G1 X148.533 Y146.412 E42.05455
G1 X148.053 Y146.649 E42.08459
G1 X147.741 Y146.851 E42.10546
G1 X147.275 Y147.241 E42.13956
G1 X146.864 Y147.719 E42.17494
G0 F5700 X147.229 Y147.984
;TYPE:WALL-OUTER
G1 F1500 X146.938 Y148.462 E42.20635
G1 X146.729 Y148.979 E42.23765
G1 X146.609 Y149.519 E42.26870
G1 X146.587 Y149.701 E42.27899
G1 X146.575 Y150.088 E42.30072
G1 X146.633 Y150.640 E42.33187
G1 X146.783 Y151.177 E42.36317
G1 X146.995 Y151.647 E42.39211
G1 X147.133 Y151.875 E42.40706
G1 X147.469 Y152.308 E42.43783
G1 X147.750 Y152.584 E42.45993
G1 X148.093 Y152.845 E42.48412
G1 X148.578 Y153.116 E42.51531
G1 X148.737 Y153.183 E42.52499
G1 X149.109 Y153.307 E42.54700
G1 X149.487 Y153.387 E42.56868
G1 X149.660 Y153.408 E42.57846
G1 X150.086 Y153.424 E42.60239
G1 X150.467 Y153.392 E42.62385
G1 X150.976 Y153.283 E42.65307
G1 X151.262 Y153.184 E42.67005
G1 X151.727 Y152.957 E42.69910
G1 X151.985 Y152.790 E42.71635
G1 X152.407 Y152.436 E42.74726
G1 X152.796 Y151.979 E42.78095
G1 X153.077 Y151.505 E42.81187
G1 X153.307 Y150.894 E42.84852
G1 X153.403 Y150.386 E42.87753
G1 X153.425 Y149.912 E42.90416
G1 X153.366 Y149.359 E42.93538
G1 X153.216 Y148.822 E42.96667
G1 X153.004 Y148.352 E42.99561
G1 X152.866 Y148.124 E43.01057
G1 X152.530 Y147.691 E43.04133
G1 X152.249 Y147.415 E43.06344
G1 X151.906 Y147.154 E43.08763
G1 X151.421 Y146.883 E43.11881
G1 X151.262 Y146.816 E43.12850
G1 X150.890 Y146.692 E43.15050
G1 X150.512 Y146.612 E43.17219
G1 X150.339 Y146.591 E43.18197
G1 X149.913 Y146.575 E43.20590
G1 X149.532 Y146.607 E43.22736
G1 X149.023 Y146.716 E43.25657
G1 X148.737 Y146.815 E43.27356
G1 X148.272 Y147.042 E43.30260
G1 X148.014 Y147.209 E43.31985
G1 X147.592 Y147.562 E43.35073
G1 X147.229 Y147.984 E43.38197
G1 F2400 E39.38197
G0 F5700 X107.901 Y120.225
G1 F2400 E43.38197
G1 F1500 X192.097 Y120.225 E48.10760
G1 X192.098 Y179.775 E51.44993
G1 X107.902 Y179.775 E56.17556
G1 X107.901 Y120.225 E59.51789
G0 F5700 X108.509 Y120.918
;TYPE:SKIN
G1 F1500 X166.756 Y179.166 E64.14127
G0 F5700 X166.120 Y179.166
G1 F1500 X108.509 Y121.555 E68.71414
G0 F5700 X108.509 Y122.191
G1 F1500 X165.484 Y179.166 E73.23652
G0 F5700 X164.847 Y179.166
G1 F1500 X108.509 Y122.827 E77.70838
G0 F5700 X108.509 Y123.464
G1 F1500 X164.211 Y179.166 E82.12971
G0 F5700 X163.575 Y179.166
G1 F1500 X108.509 Y124.100 E86.50057
G0 F5700 X108.509 Y124.737
G1 F1500 X162.938 Y179.166 E90.82086
G0 F5700 X162.302 Y179.166
G1 F1500 X108.509 Y125.373 E95.09067
G0 F5700 X108.509 Y126.009
G1 F1500 X161.665 Y179.166 E99.30996
G0 F5700 X161.029 Y179.166
G1 F1500 X108.509 Y126.646 E103.47872
G0 F5700 X108.509 Y127.282
G1 F1500 X160.393 Y179.166 E107.59701
G1 F2400 E103.59701
G0 F5700 X167.393 Y179.166
G1 F2400 E107.59701
G1 F1500 X109.059 Y120.833 E112.22722
G0 F5700 X109.696 Y120.833
G1 F1500 X168.029 Y179.166 E116.85739
G0 F5700 X168.666 Y179.166
G1 F1500 X110.332 Y120.833 E121.48760
G0 F5700 X110.969 Y120.833
G1 F1500 X169.302 Y179.166 E126.11777
G0 F5700 X169.938 Y179.166
G1 F1500 X111.605 Y120.833 E130.74794
G0 F5700 X112.241 Y120.833
G1 F1500 X170.575 Y179.166 E135.37816
G0 F5700 X171.211 Y179.166
G1 F1500 X112.878 Y120.833 E140.00833
G0 F5700 X113.514 Y120.833
G1 F1500 X171.848 Y179.166 E144.63854
G0 F5700 X172.484 Y179.166
G1 F1500 X114.151 Y120.833 E149.26871
G0 F5700 X114.787 Y120.833
G1 F1500 X173.120 Y179.166 E153.89888
G0 F5700 X173.757 Y179.166
G1 F1500 X148.177 Y153.586 E155.92929
G0 F5700 X149.175 Y153.948
G1 F1500 X174.393 Y179.166 E157.93096
G0 F5700 X175.030 Y179.166
G1 F1500 X149.888 Y154.024 E159.92661
G0 F5700 X150.493 Y153.993
G1 F1500 X175.666 Y179.166 E161.92471
G0 F5700 X176.302 Y179.166
G1 F1500 X151.033 Y153.896 E163.93047
G0 F5700 X151.508 Y153.736
G1 F1500 X176.939 Y179.166 E165.94901
G0 F5700 X177.575 Y179.166
G1 F1500 X151.938 Y153.529 E167.98394
G0 F5700 X152.333 Y153.288
G1 F1500 X178.212 Y179.166 E170.03805
G0 F5700 X178.848 Y179.166
G1 F1500 X152.681 Y152.999 E172.11505
G0 F5700 X152.997 Y152.679
G1 F1500 X179.484 Y179.166 E174.21745
G0 F5700 X180.121 Y179.166
G1 F1500 X153.290 Y152.335 E176.34715
G0 F5700 X153.526 Y151.935
G1 F1500 X180.757 Y179.166 E178.50861
G0 F5700 X181.394 Y179.166
G1 F1500 X153.725 Y151.497 E180.70483
G0 F5700 X153.898 Y151.034
G1 F1500 X182.030 Y179.166 E182.93780
G0 F5700 X182.666 Y179.166
G1 F1500 X153.998 Y150.498 E185.21332
G0 F5700 X154.033 Y149.896
G1 F1500 X183.303 Y179.166 E187.53662
G0 F5700 X183.939 Y179.166
G1 F1500 X153.944 Y149.171 E189.91747
G0 F5700 X153.595 Y148.186
G1 F1500 X184.576 Y179.166 E192.37654
G0 F5700 X185.212 Y179.166
G1 F1500 X126.878 Y120.833 E197.00675
G0 F5700 X126.242 Y120.833
G1 F1500 X151.821 Y146.412 E199.03708
G0 F5700 X150.823 Y146.050
G1 F1500 X125.606 Y120.833 E201.03868
G0 F5700 X124.969 Y120.833
G1 F1500 X150.110 Y145.973 E203.03420
G0 F5700 X149.505 Y146.004
G1 F1500 X124.333 Y120.833 E205.03218
G0 F5700 X123.697 Y120.833
G1 F1500 X148.965 Y146.101 E207.03783
G0 F5700 X148.488 Y146.260
G1 F1500 X123.060 Y120.833 E209.05613
G0 F5700 X122.424 Y120.833
G1 F1500 X148.059 Y146.468 E211.09090
G0 F5700 X147.665 Y146.710
G1 F1500 X121.787 Y120.833 E213.14493
G0 F5700 X121.151 Y120.833
G1 F1500 X147.316 Y146.998 E215.22177
G0 F5700 X147.000 Y147.318
G1 F1500 X120.515 Y120.833 E217.32401
G1 F2400 E213.32401
G0 F5700 X127.515 Y120.833
G1 F2400 E217.32401
G1 F1500 X185.848 Y179.166 E221.95418
G0 F5700 X186.485 Y179.166
G1 F1500 X128.151 Y120.833 E226.58439
G0 F5700 X128.788 Y120.833
G1 F1500 X187.121 Y179.166 E231.21457
G0 F5700 X187.758 Y179.166
G1 F1500 X129.424 Y120.833 E235.84478
G0 F5700 X130.060 Y120.833
G1 F1500 X188.394 Y179.166 E240.47499
G0 F5700 X189.030 Y179.166
G1 F1500 X130.697 Y120.833 E245.10516
G0 F5700 X131.333 Y120.833
G1 F1500 X189.667 Y179.166 E249.73537
G0 F5700 X190.303 Y179.166
G1 F1500 X131.970 Y120.833 E254.36554
G0 F5700 X132.606 Y120.833
G1 F1500 X190.940 Y179.166 E258.99576
G0 F5700 X191.489 Y179.079
G1 F1500 X133.242 Y120.833 E263.61906
G0 F5700 X133.879 Y120.833
G1 F1500 X191.489 Y178.443 E268.19184
G0 F5700 X191.489 Y177.806
G1 F1500 X134.515 Y120.833 E272.71411
G0 F5700 X135.152 Y120.833
G1 F1500 X191.489 Y177.170 E277.18585
G0 F5700 X191.489 Y176.534
G1 F1500 X135.788 Y120.833 E281.60710
G0 F5700 X136.424 Y120.833
G1 F1500 X191.489 Y175.897 E285.97784
G0 F5700 X191.489 Y175.261
G1 F1500 X137.061 Y120.833 E290.29805
G0 F5700 X137.697 Y120.833
G1 F1500 X191.489 Y174.624 E294.56774
G0 F5700 X191.489 Y173.988
G1 F1500 X138.334 Y120.833 E298.78691
G0 F5700 X138.970 Y120.833
G1 F1500 X191.489 Y173.352 E302.95560
G0 F5700 X191.489 Y172.715
G1 F1500 X139.606 Y120.833 E307.07376
G0 F5700 X140.243 Y120.833
G1 F1500 X191.489 Y172.079 E311.14140
G0 F5700 X191.489 Y171.442
G1 F1500 X140.879 Y120.833 E315.15852
G0 F5700 X141.516 Y120.833
G1 F1500 X191.489 Y170.806 E319.12512
G0 F5700 X191.489 Y170.170
G1 F1500 X142.152 Y120.833 E323.04124
G0 F5700 X142.788 Y120.833
G1 F1500 X191.489 Y169.533 E326.90683
G0 F5700 X191.489 Y168.897
G1 F1500 X143.425 Y120.833 E330.72190
G0 F5700 X144.061 Y120.833
G1 F1500 X191.489 Y168.261 E334.48649
G0 F5700 X191.489 Y167.624
G1 F1500 X144.698 Y120.833 E338.20052
G0 F5700 X145.334 Y120.833
G1 F1500 X191.489 Y166.988 E341.86407
G0 F5700 X191.489 Y166.351
G1 F1500 X145.970 Y120.833 E345.47709
G0 F5700 X146.607 Y120.833
G1 F1500 X191.489 Y165.715 E349.03959
G0 F5700 X191.489 Y165.079
G1 F1500 X147.243 Y120.833 E352.55161
G0 F5700 X147.880 Y120.833
G1 F1500 X191.489 Y164.442 E356.01307
G0 F5700 X191.489 Y163.806
G1 F1500 X148.516 Y120.833 E359.42404
G0 F5700 X149.152 Y120.833
G1 F1500 X191.489 Y163.169 E362.78449
G0 F5700 X191.489 Y162.533
G1 F1500 X149.789 Y120.833 E366.09442
G0 F5700 X150.425 Y120.833
G1 F1500 X191.489 Y161.897 E369.35387
G0 F5700 X191.489 Y161.260
G1 F1500 X151.062 Y120.833 E372.56276
G0 F5700 X151.698 Y120.833
G1 F1500 X191.489 Y160.624 E375.72116
G0 F5700 X191.489 Y159.987
G1 F1500 X152.334 Y120.833 E378.82904
G0 F5700 X152.971 Y120.833
G1 F1500 X191.489 Y159.351 E381.88640
G0 F5700 X191.489 Y158.715
G1 F1500 X153.607 Y120.833 E384.89328
G0 F5700 X154.244 Y120.833
G1 F1500 X191.489 Y158.078 E387.84959
G0 F5700 X191.489 Y157.442
G1 F1500 X154.880 Y120.833 E390.75543
G0 F5700 X155.516 Y120.833
G1 F1500 X191.489 Y156.805 E393.61074
G0 F5700 X191.489 Y156.169
G1 F1500 X156.153 Y120.833 E396.41553
G0 F5700 X156.789 Y120.833
G1 F1500 X191.489 Y155.533 E399.16983
G0 F5700 X191.489 Y154.896
G1 F1500 X157.426 Y120.833 E401.87358
G0 F5700 X158.062 Y120.833
G1 F1500 X191.489 Y154.260 E404.52684
G0 F5700 X191.489 Y153.623
G1 F1500 X158.698 Y120.833 E407.12958
G0 F5700 X159.335 Y120.833
G1 F1500 X191.489 Y152.987 E409.68180
G0 F5700 X191.489 Y152.351
G1 F1500 X159.971 Y120.833 E412.18353
G0 F5700 X160.607 Y120.833
G1 F1500 X191.489 Y151.714 E414.63475
G0 F5700 X191.489 Y151.078
G1 F1500 X161.244 Y120.833 E417.03544
G0 F5700 X161.880 Y120.833
G1 F1500 X191.489 Y150.441 E419.38561
G0 F5700 X191.489 Y149.805
G1 F1500 X162.517 Y120.833 E421.68526
G0 F5700 X163.153 Y120.833
G1 F1500 X191.489 Y149.169 E423.93442
G0 F5700 X191.489 Y148.532
G1 F1500 X163.789 Y120.833 E426.13306
G0 F5700 X164.426 Y120.833
G1 F1500 X191.489 Y147.896 E428.28119
G0 F5700 X191.489 Y147.259
G1 F1500 X165.062 Y120.833 E430.37878
G0 F5700 X165.699 Y120.833
G1 F1500 X191.489 Y146.623 E432.42586
G0 F5700 X191.489 Y145.987
G1 F1500 X166.335 Y120.833 E434.42246
G0 F5700 X166.971 Y120.833
G1 F1500 X191.489 Y145.350 E436.36853
G0 F5700 X191.489 Y144.714
G1 F1500 X167.608 Y120.833 E438.26408
G0 F5700 X168.244 Y120.833
G1 F1500 X191.489 Y144.077 E440.10911
G0 F5700 X191.489 Y143.441
G1 F1500 X168.881 Y120.833 E441.90361
G0 F5700 X169.517 Y120.833
G1 F1500 X191.489 Y142.805 E443.64764
G0 F5700 X191.489 Y142.168
G1 F1500 X170.153 Y120.833 E445.34114
G0 F5700 X170.790 Y120.833
G1 F1500 X191.489 Y141.532 E446.98412
G0 F5700 X191.489 Y140.895
G1 F1500 X171.426 Y120.833 E448.57657
G0 F5700 X172.063 Y120.833
G1 F1500 X191.489 Y140.259 E450.11851
G0 F5700 X191.489 Y139.623
G1 F1500 X172.699 Y120.833 E451.60996
G0 F5700 X173.335 Y120.833
G1 F1500 X191.489 Y138.986 E453.05089
G0 F5700 X191.489 Y138.350
G1 F1500 X173.972 Y120.833 E454.44130
G0 F5700 X174.608 Y120.833
G1 F1500 X191.489 Y137.713 E455.78119
G0 F5700 X191.489 Y137.077
G1 F1500 X175.245 Y120.833 E457.07055
G0 F5700 X175.881 Y120.833
G1 F1500 X191.489 Y136.441 E458.30944
G0 F5700 X191.489 Y135.804
G1 F1500 X176.517 Y120.833 E459.49780
G0 F5700 X177.154 Y120.833
G1 F1500 X191.489 Y135.168 E460.63563
G0 F5700 X191.489 Y134.532
G1 F1500 X177.790 Y120.833 E461.72299
G0 F5700 X178.427 Y120.833
G1 F1500 X191.489 Y133.895 E462.75978
G0 F5700 X191.489 Y133.259
G1 F1500 X179.063 Y120.833 E463.74610
G0 F5700 X179.699 Y120.833
G1 F1500 X191.489 Y132.622 E464.68189
G0 F5700 X191.489 Y131.986
G1 F1500 X180.336 Y120.833 E465.56715
G0 F5700 X180.972 Y120.833
G1 F1500 X191.489 Y131.350 E466.40194
G0 F5700 X191.489 Y130.713
G1 F1500 X181.609 Y120.833 E467.18616
G0 F5700 X182.245 Y120.833
G1 F1500 X191.489 Y130.077 E467.91990
G0 F5700 X191.489 Y129.440
G1 F1500 X182.881 Y120.833 E468.60312
G0 F5700 X183.518 Y120.833
G1 F1500 X191.489 Y128.804 E469.23582
G0 F5700 X191.489 Y128.168
G1 F1500 X184.154 Y120.833 E469.81803
G0 F5700 X184.791 Y120.833
G1 F1500 X191.489 Y127.531 E470.34968
G0 F5700 X191.489 Y126.895
G1 F1500 X185.427 Y120.833 E470.83086
G0 F5700 X186.063 Y120.833
G1 F1500 X191.489 Y126.258 E471.26150
G0 F5700 X191.489 Y125.622
G1 F1500 X186.700 Y120.833 E471.64163
G0 F5700 X187.336 Y120.833
G1 F1500 X191.489 Y124.986 E471.97127
G0 F5700 X191.489 Y124.349
G1 F1500 X187.973 Y120.833 E472.25035
G0 F5700 X188.609 Y120.833
G1 F1500 X191.489 Y123.713 E472.47895
G0 F5700 X191.489 Y123.076
G1 F1500 X189.245 Y120.833 E472.65703
G0 F5700 X189.882 Y120.833
G1 F1500 X191.489 Y122.440 E472.78459
G0 F5700 X191.489 Y121.804
G1 F1500 X190.518 Y120.833 E472.86166
G0 F5700 X191.155 Y120.833
G1 F1500 X191.489 Y121.167 E472.88817
G1 F2400 E468.88817
G0 F5700 X146.711 Y147.665
G1 F2400 E472.88817
G1 F1500 X119.878 Y120.833 E475.01800
G0 F5700 X119.242 Y120.833
G1 F1500 X146.470 Y148.061 E477.17921
G0 F5700 X146.268 Y148.495
G1 F1500 X118.605 Y120.833 E479.37492
G0 F5700 X117.969 Y120.833
G1 F1500 X146.107 Y148.971 E481.60837
G0 F5700 X145.999 Y149.499
G1 F1500 X117.333 Y120.833 E483.88373
G0 F5700 X116.696 Y120.833
G1 F1500 X145.966 Y150.103 E486.20703
G0 F5700 X146.055 Y150.827
G1 F1500 X116.060 Y120.833 E488.58784
G0 F5700 X115.423 Y120.833
G1 F1500 X146.402 Y151.812 E491.04679
G1 F2400 E487.04679
G0 F5700 X146.392 Y179.166
G1 F2400 E491.04679
G1 F1500 X108.509 Y141.283 E494.05375
G0 F5700 X108.509 Y141.919
G1 F1500 X145.755 Y179.166 E497.01018
G0 F5700 X145.119 Y179.166
G1 F1500 X108.509 Y142.556 E499.91609
G0 F5700 X108.509 Y143.192
G1 F1500 X144.483 Y179.166 E502.77152
G0 F5700 X143.846 Y179.166
G1 F1500 X108.509 Y143.829 E505.57639
G0 F5700 X108.509 Y144.465
G1 F1500 X143.210 Y179.166 E508.33078
G0 F5700 X142.573 Y179.166
G1 F1500 X108.509 Y145.101 E511.03464
G0 F5700 X108.509 Y145.738
G1 F1500 X141.937 Y179.166 E513.68798
G0 F5700 X141.301 Y179.166
G1 F1500 X108.509 Y146.374 E516.29084
G0 F5700 X108.509 Y147.011
G1 F1500 X140.664 Y179.166 E518.84314
G0 F5700 X140.028 Y179.166
G1 F1500 X108.509 Y147.647 E521.34495
G0 F5700 X108.509 Y148.283
G1 F1500 X139.391 Y179.166 E523.79625
G0 F5700 X138.755 Y179.166
G1 F1500 X108.509 Y148.920 E526.19702
G0 F5700 X108.509 Y149.556
